;FLAVOR:RepRap
;TIME:4763
;Filament used: 3.78883m
;Layer height: 0.2
;Generated with Cura_SteamEngine 3.6.0
T0
M190 S60
M104 S200
M109 S200
M82 ;absolute extrusion mode
G21 ;metric values
G90 ;absolute positioning
M82 ;set extruder to absolute mode
M107 ;start with the fan off
G28 X0 Y0 ;move X/Y to min endstops
G28 Z0 ;move Z to min endstops
G1 Z15.0 F9000 ;move the platform down 15mm
G92 E0 ;zero the extruded length
G1 F200 E3 ;extrude 3mm of feed stock
G92 E0 ;zero the extruded length again
G1 F9000;Put printing message on LCD screen
M117 Printing..0
M83 ;relative extrusion mode
G1 F1500 E-6.5
;LAYER_COUNT:100
;LAYER:0
M107
G0 F600 X94.408 Y123.292 Z0.3
;TYPE:SUPPORT
G1 F1500 E6.5
G1 X95.612 Y124.496 E0.08495
G1 X92.64 Y127.467 E0.20966
G1 X91.436 Y126.263 E0.08495
G1 X94.408 Y123.292 E0.20966
G0 F600 X93.324 Y124.6
G1 F1500 X93.324 Y126.559 E0.09773
G0 F600 X93.227 Y126.654
G1 F1500 X92.051 Y126.654 E0.05867
G1 F1500 E-6.5
G0 F600 X95.058 Y123.559
G0 X95.089 Y123.528
G0 X98.694 Y119.821
G0 X96.038 Y117.071
G0 X121.278 Y91.831
G0 X123.674 Y94.133
G0 X127.279 Y90.425
G0 X127.31 Y90.394
G0 X127.499 Y90.201
G1 F1500 E6.5
G1 X130.471 Y87.229 E0.20969
G1 X131.674 Y88.433 E0.08491
G1 X128.703 Y91.405 E0.20966
G1 X127.499 Y90.201 E0.08495
G0 F600 X127.933 Y89.991
G1 F1500 X129.89 Y89.991 E0.09764
G0 F600 X129.987 Y89.896
G1 F1500 X129.987 Y87.938 E0.09769
G1 F1500 E-6.5
;MESH:1_LCD_Base_Left.stl
G0 F600 X128.802 Y86.75
G0 X128.423 Y86.591
;TYPE:WALL-INNER
G1 F1500 E6.5
G1 X124.813 Y90.201 E0.2547
G1 X128.349 Y93.737 E0.24948
G1 X127.075 Y95.011 E0.08989
G1 X126.935 Y95.151 E0.00988
G1 X126.795 Y95.011 E0.00637
G1 X121.418 Y89.633 E0.37941
G1 X121.278 Y89.493 E0.00988
G1 X121.138 Y89.633 E0.00637
G1 X93.84 Y116.931 E1.92602
G1 X93.7 Y117.071 E0.00988
G1 X93.84 Y117.211 E0.00637
G1 X99.218 Y122.588 E0.37941
G1 X99.358 Y122.728 E0.00988
G1 X99.218 Y122.868 E0.00637
G1 X97.944 Y124.142 E0.08989
G1 X94.408 Y120.606 E0.24948
G1 X88.89 Y126.123 E0.38929
G1 X88.75 Y126.263 E0.00988
G1 X88.89 Y126.403 E0.00637
G1 X92.147 Y129.66 E0.2298
G1 X92.287 Y129.8 E0.00988
G1 X92.147 Y129.94 E0.00637
G1 X88.337 Y133.749 E0.26878
G1 X82.751 Y133.749 E0.27869
G1 X82.751 Y86.251 E2.36968
G1 X128.282 Y86.251 E2.27155
G1 X128.283 Y86.251 E0.00005
G1 X128.763 Y86.251 E0.02395
G1 X128.423 Y86.591 E0.01291
G0 F600 X125.338 Y90.201
G0 X128.703 Y93.566
G0 X133.835 Y88.433
G0 X132.179 Y86.251
G1 F1500 X132.659 Y86.251 E0.02395
G1 X132.66 Y86.251 E0.00005
G1 X135.354 Y86.251 E0.1344
G1 X135.355 Y86.251 E0.00005
G1 X135.835 Y86.251 E0.02395
G1 X135.495 Y86.591 E0.01291
G1 X134.007 Y88.079 E0.10499
G1 X132.519 Y86.591 E0.10499
G1 X132.179 Y86.251 E0.01291
G0 F600 X136.765 Y85.866
G0 X126.935 Y95.678
G0 X121.278 Y90.018
G0 X94.225 Y117.071
G0 X89.385 Y126.053
G0 X89.456 Y126.123
G1 F1500 X89.316 Y126.263 E0.00988
G1 X89.456 Y126.403 E0.00637
G1 X92.64 Y129.587 E0.22465
G1 X97.592 Y124.636 E0.34936
G1 X97.732 Y124.496 E0.00988
G1 X97.592 Y124.356 E0.00637
G1 X94.408 Y121.172 E0.22465
G1 X89.456 Y126.123 E0.34936
G0 F600 X89.882 Y126.263
;TYPE:WALL-OUTER
G1 F1500 X90.023 Y126.404 E0.00995
G1 X92.64 Y129.021 E0.18464
G1 X97.025 Y124.637 E0.30935
G1 X97.166 Y124.496 E0.00995
G1 X97.025 Y124.355 E0.00642
G1 X94.408 Y121.738 E0.18464
G1 X90.023 Y126.122 E0.30935
G1 X89.882 Y126.263 E0.00642
G0 F600 X90.023 Y126.404
G0 X89.711 Y126.714
G0 X89.667 Y126.755
G0 X89.275 Y126.263
G0 X94.225 Y117.071
G0 X121.278 Y90.018
G0 X125.278 Y90.201
G0 X125.379 Y90.201
;TYPE:WALL-INNER
G1 F1500 X128.563 Y93.385 E0.22465
G1 X128.703 Y93.525 E0.00988
G1 X128.843 Y93.385 E0.00637
G1 X133.794 Y88.433 E0.34936
G1 X131.213 Y85.851 E0.18214
G1 X136.801 Y85.851 E0.27879
G1 X134.007 Y88.645 E0.19713
G1 X129.056 Y93.596 E0.30598
G1 X128.915 Y93.737 E0.0087
G1 X126.935 Y95.717 E0.1397
G1 X121.278 Y90.059 E0.39917
G1 X94.266 Y117.071 E1.90584
G1 X99.924 Y122.728 E0.39917
G1 X97.945 Y124.707 E0.13963
G1 X92.852 Y129.8 E0.35934
G1 X88.503 Y134.149 E0.30685
G1 X82.351 Y134.149 E0.30692
G1 X82.351 Y85.851 E2.4096
G1 X129.248 Y85.851 E2.3397
G1 X129.249 Y85.851 E0.00005
G1 X129.729 Y85.851 E0.02395
G1 X129.389 Y86.191 E0.01291
G1 X125.379 Y90.201 E0.28293
G0 F600 X125.945 Y90.201
;TYPE:WALL-OUTER
G1 F1500 X128.562 Y92.818 E0.18464
G1 X128.703 Y92.959 E0.00995
G1 X128.844 Y92.818 E0.00642
G1 X133.228 Y88.433 E0.30935
G1 X130.62 Y85.824 E0.18404
G1 X130.471 Y85.675 E0.01051
G1 X130.322 Y85.824 E0.01051
G1 X125.945 Y90.201 E0.30882
G0 F600 X126.086 Y90.342
G0 X125.774 Y90.652
G0 X125.73 Y90.693
G0 X121.632 Y90.272
G0 X121.278 Y90.625
G1 F1500 X121.137 Y90.766 E0.00995
G1 X94.973 Y116.93 E1.84601
G1 X94.832 Y117.071 E0.00995
G1 X94.973 Y117.212 E0.00642
G1 X100.349 Y122.587 E0.37927
G1 X100.49 Y122.728 E0.00995
G1 X100.349 Y122.869 E0.00642
G1 X88.669 Y134.549 E0.82409
G1 X81.951 Y134.549 E0.33516
G1 X81.951 Y85.451 E2.44951
G1 X130.259 Y85.451 E2.4101
G1 X130.471 Y85.451 E0.00844
G1 X130.683 Y85.451 E0.00844
G1 X137.285 Y85.451 E0.32938
G1 X137.287 Y85.451 E0.0001
G1 X137.767 Y85.451 E0.02395
G1 X137.427 Y85.791 E0.01291
G1 X127.076 Y96.142 E0.73032
G1 X126.935 Y96.283 E0.00995
G1 X126.794 Y96.142 E0.00642
G1 X121.419 Y90.766 E0.37927
G1 X121.278 Y90.625 E0.00642
G0 F600 X121.137 Y90.766
G0 X120.827 Y90.454
G0 X120.786 Y90.41
G0 X121.278 Y88.941
;TYPE:SKIN
G1 F1500 X93.148 Y117.071 E1.98472
G1 X98.808 Y122.728 E0.39924
G1 X97.944 Y123.592 E0.06096
G1 X94.408 Y120.054 E0.24955
G1 X88.198 Y126.263 E0.43811
G1 X91.737 Y129.8 E0.24963
G1 X88.177 Y133.359 E0.25114
G1 X83.141 Y133.359 E0.25125
G1 X83.141 Y86.641 E2.33077
G1 X127.823 Y86.641 E2.22919
G1 X124.261 Y90.201 E0.25125
G1 X127.799 Y93.737 E0.24955
G1 X126.935 Y94.601 E0.06096
G1 X121.278 Y88.941 E0.39924
G0 F600 X127.186 Y87.022
G1 F1500 X126.984 Y86.82 E0.01425
G0 F600 X126.903 Y87.305
G1 F1500 X126.418 Y86.82 E0.03422
G0 F600 X125.852 Y86.82
G1 F1500 X126.62 Y87.588 E0.05419
G0 F600 X126.338 Y87.871
G1 F1500 X125.287 Y86.82 E0.07415
G0 F600 X124.721 Y86.82
G1 F1500 X126.054 Y88.153 E0.09405
G0 F600 X125.771 Y88.436
G1 F1500 X124.155 Y86.82 E0.11402
G0 F600 X123.59 Y86.82
G1 F1500 X125.488 Y88.719 E0.13395
G0 F600 X125.205 Y89.002
G1 F1500 X123.024 Y86.82 E0.15392
G0 F600 X122.458 Y86.82
G1 F1500 X124.922 Y89.284 E0.17385
G0 F600 X124.639 Y89.567
G1 F1500 X121.893 Y86.82 E0.19378
G0 F600 X121.327 Y86.82
G1 F1500 X124.356 Y89.849 E0.21371
G0 F600 X124.073 Y90.132
G1 F1500 X120.761 Y86.82 E0.23368
G0 F600 X120.196 Y86.82
G1 F1500 X127.328 Y93.953 E0.50324
G0 F600 X127.045 Y94.236
G1 F1500 X119.63 Y86.82 E0.5232
G0 F600 X119.064 Y86.82
G1 F1500 X121.103 Y88.859 E0.14386
G0 F600 X120.82 Y89.142
G1 F1500 X118.499 Y86.82 E0.16379
G0 F600 X117.933 Y86.82
G1 F1500 X120.537 Y89.424 E0.18373
G0 F600 X120.254 Y89.707
G1 F1500 X117.367 Y86.82 E0.20369
G0 F600 X116.802 Y86.82
G1 F1500 X119.971 Y89.99 E0.22363
G0 F600 X119.689 Y90.273
G1 F1500 X116.236 Y86.82 E0.24363
G0 F600 X115.67 Y86.82
G1 F1500 X119.406 Y90.556 E0.26359
G0 F600 X119.123 Y90.839
G1 F1500 X115.104 Y86.82 E0.28356
G0 F600 X114.539 Y86.82
G1 F1500 X118.84 Y91.122 E0.30349
G0 F600 X118.557 Y91.404
G1 F1500 X113.973 Y86.82 E0.32343
G0 F600 X113.407 Y86.82
G1 F1500 X118.274 Y91.687 E0.34339
G0 F600 X117.992 Y91.97
G1 F1500 X112.842 Y86.82 E0.36336
G0 F600 X112.276 Y86.82
G1 F1500 X117.709 Y92.253 E0.38333
G0 F600 X117.426 Y92.536
G1 F1500 X111.71 Y86.82 E0.40329
G0 F600 X111.145 Y86.82
G1 F1500 X117.143 Y92.819 E0.42323
G0 F600 X116.86 Y93.101
G1 F1500 X110.579 Y86.82 E0.44316
G0 F600 X110.013 Y86.82
G1 F1500 X116.577 Y93.384 E0.46313
G0 F600 X116.295 Y93.667
G1 F1500 X109.448 Y86.82 E0.48309
G0 F600 X108.882 Y86.82
G1 F1500 X116.012 Y93.95 E0.50306
G0 F600 X115.729 Y94.233
G1 F1500 X108.316 Y86.82 E0.52303
G0 F600 X107.751 Y86.82
G1 F1500 X115.446 Y94.516 E0.54296
G0 F600 X115.163 Y94.798
G1 F1500 X107.185 Y86.82 E0.56289
G0 F600 X106.619 Y86.82
G1 F1500 X114.88 Y95.081 E0.58286
G0 F600 X114.597 Y95.364
G1 F1500 X106.053 Y86.82 E0.60283
G0 F600 X105.488 Y86.82
G1 F1500 X114.315 Y95.647 E0.62279
G0 F600 X114.032 Y95.93
G1 F1500 X104.922 Y86.82 E0.64276
G0 F600 X104.356 Y86.82
G1 F1500 X113.749 Y96.213 E0.66273
G0 F600 X113.466 Y96.496
G1 F1500 X103.791 Y86.82 E0.68266
G0 F600 X103.225 Y86.82
G1 F1500 X113.183 Y96.778 E0.70259
G0 F600 X112.9 Y97.061
G1 F1500 X102.659 Y86.82 E0.72256
G0 F600 X102.094 Y86.82
G1 F1500 X112.618 Y97.344 E0.74253
G0 F600 X112.335 Y97.627
G1 F1500 X101.528 Y86.82 E0.76249
G0 F600 X100.962 Y86.82
G1 F1500 X112.052 Y97.91 E0.78246
G0 F600 X111.769 Y98.193
G1 F1500 X100.397 Y86.82 E0.80239
G0 F600 X99.831 Y86.82
G1 F1500 X111.486 Y98.475 E0.82232
G0 F600 X111.203 Y98.758
G1 F1500 X99.265 Y86.82 E0.84229
G0 F600 X98.7 Y86.82
G1 F1500 X110.921 Y99.041 E0.86226
G0 F600 X110.638 Y99.324
G1 F1500 X98.134 Y86.82 E0.88222
G0 F600 X97.568 Y86.82
G1 F1500 X110.355 Y99.607 E0.90219
G0 F600 X110.072 Y99.89
G1 F1500 X97.003 Y86.82 E0.92212
G0 F600 X96.437 Y86.82
G1 F1500 X109.789 Y100.172 E0.94206
G0 F600 X109.506 Y100.455
G1 F1500 X95.871 Y86.82 E0.96202
G0 F600 X95.305 Y86.82
G1 F1500 X109.223 Y100.738 E0.98199
G0 F600 X108.941 Y101.021
G1 F1500 X94.74 Y86.82 E1.00196
G0 F600 X94.174 Y86.82
G1 F1500 X108.658 Y101.304 E1.02192
G0 F600 X108.375 Y101.587
G1 F1500 X93.608 Y86.82 E1.04189
G0 F600 X93.043 Y86.82
G1 F1500 X108.092 Y101.87 E1.06182
G0 F600 X107.809 Y102.152
G1 F1500 X92.477 Y86.82 E1.08176
G0 F600 X91.911 Y86.82
G1 F1500 X107.526 Y102.435 E1.10172
G0 F600 X107.244 Y102.718
G1 F1500 X91.346 Y86.82 E1.12169
G0 F600 X90.78 Y86.82
G1 F1500 X106.961 Y103.001 E1.14166
G0 F600 X106.678 Y103.284
G1 F1500 X90.214 Y86.82 E1.16162
G0 F600 X89.649 Y86.82
G1 F1500 X106.395 Y103.567 E1.18156
G0 F600 X106.112 Y103.849
G1 F1500 X89.083 Y86.82 E1.20149
G0 F600 X88.517 Y86.82
G1 F1500 X105.829 Y104.132 E1.22146
G0 F600 X105.547 Y104.415
G1 F1500 X87.952 Y86.82 E1.24142
G0 F600 X87.386 Y86.82
G1 F1500 X105.264 Y104.698 E1.26139
G0 F600 X104.981 Y104.981
G1 F1500 X86.82 Y86.82 E1.28136
G0 F600 X86.255 Y86.82
G1 F1500 X104.698 Y105.264 E1.30129
G0 F600 X104.415 Y105.547
G1 F1500 X85.689 Y86.82 E1.32126
G0 F600 X85.123 Y86.82
G1 F1500 X104.132 Y105.829 E1.34119
G0 F600 X103.849 Y106.112
G1 F1500 X84.557 Y86.82 E1.36115
G0 F600 X83.992 Y86.82
G1 F1500 X103.567 Y106.395 E1.38112
G0 F600 X103.284 Y106.678
G1 F1500 X83.426 Y86.82 E1.40109
G0 F600 X83.321 Y87.281
G1 F1500 X103.001 Y106.961 E1.38853
G0 F600 X102.718 Y107.244
G1 F1500 X83.321 Y87.846 E1.3686
G0 F600 X83.321 Y88.412
G1 F1500 X102.435 Y107.526 E1.3486
G0 F600 X102.152 Y107.809
G1 F1500 X83.321 Y88.978 E1.32863
G0 F600 X83.321 Y89.543
G1 F1500 X101.87 Y108.092 E1.30873
G0 F600 X101.587 Y108.375
G1 F1500 X83.321 Y90.109 E1.28876
G0 F600 X83.321 Y90.675
G1 F1500 X101.304 Y108.658 E1.2688
G0 F600 X101.021 Y108.941
G1 F1500 X83.321 Y91.24 E1.24887
G0 F600 X83.321 Y91.806
G1 F1500 X100.738 Y109.223 E1.22886
G0 F600 X100.455 Y109.506
G1 F1500 X83.321 Y92.372 E1.2089
G0 F600 X83.321 Y92.937
G1 F1500 X100.172 Y109.789 E1.18896
G0 F600 X99.89 Y110.072
G1 F1500 X83.321 Y93.503 E1.16903
G0 F600 X83.321 Y94.069
G1 F1500 X99.607 Y110.355 E1.14907
G0 F600 X99.324 Y110.638
G1 F1500 X83.321 Y94.634 E1.12913
G0 F600 X83.321 Y95.2
G1 F1500 X99.041 Y110.921 E1.10917
G0 F600 X98.758 Y111.203
G1 F1500 X83.321 Y95.766 E1.08916
G0 F600 X83.321 Y96.331
G1 F1500 X98.475 Y111.486 E1.06923
G0 F600 X98.193 Y111.769
G1 F1500 X83.321 Y96.897 E1.0493
G0 F600 X83.321 Y97.463
G1 F1500 X97.91 Y112.052 E1.02933
G0 F600 X97.627 Y112.335
G1 F1500 X83.321 Y98.029 E1.00937
G0 F600 X83.321 Y98.594
G1 F1500 X97.344 Y112.618 E0.98943
G0 F600 X97.061 Y112.9
G1 F1500 X83.321 Y99.16 E0.96943
G0 F600 X83.321 Y99.726
G1 F1500 X96.778 Y113.183 E0.94946
G0 F600 X96.496 Y113.466
G1 F1500 X83.321 Y100.291 E0.92957
G0 F600 X83.321 Y100.857
G1 F1500 X96.213 Y113.749 E0.9096
G0 F600 X95.93 Y114.032
G1 F1500 X83.321 Y101.423 E0.88963
G0 F600 X83.321 Y101.988
G1 F1500 X95.647 Y114.315 E0.8697
G0 F600 X95.364 Y114.597
G1 F1500 X83.321 Y102.554 E0.8497
G0 F600 X83.321 Y103.12
G1 F1500 X95.081 Y114.88 E0.82973
G0 F600 X94.798 Y115.163
G1 F1500 X83.321 Y103.685 E0.8098
G0 F600 X83.321 Y104.251
G1 F1500 X94.516 Y115.446 E0.78987
G0 F600 X94.233 Y115.729
G1 F1500 X83.321 Y104.817 E0.7699
G0 F600 X83.321 Y105.382
G1 F1500 X93.95 Y116.012 E0.74997
G0 F600 X93.667 Y116.295
G1 F1500 X83.321 Y105.948 E0.73
G0 F600 X83.321 Y106.514
G1 F1500 X93.384 Y116.577 E0.71
G0 F600 X93.101 Y116.86
G1 F1500 X83.321 Y107.08 E0.69003
G0 F600 X83.321 Y107.645
G1 F1500 X98.478 Y122.803 E1.06944
G0 F600 X98.195 Y123.086
G1 F1500 X83.321 Y108.211 E1.04948
G0 F600 X83.321 Y108.777
G1 F1500 X94.374 Y119.83 E0.77985
G0 F600 X94.091 Y120.113
G1 F1500 X83.321 Y109.342 E0.75992
G0 F600 X83.321 Y109.908
G1 F1500 X93.809 Y120.396 E0.73999
G0 F600 X93.526 Y120.679
G1 F1500 X83.321 Y110.474 E0.72002
G0 F600 X83.321 Y111.039
G1 F1500 X93.243 Y120.961 E0.70005
G0 F600 X92.96 Y121.244
G1 F1500 X83.321 Y111.605 E0.68008
G0 F600 X83.321 Y112.171
G1 F1500 X92.677 Y121.527 E0.66012
G0 F600 X92.394 Y121.81
G1 F1500 X83.321 Y112.736 E0.64018
G0 F600 X83.321 Y113.302
G1 F1500 X92.111 Y122.093 E0.62022
G0 F600 X91.829 Y122.376
G1 F1500 X83.321 Y113.868 E0.60029
G0 F600 X83.321 Y114.433
G1 F1500 X91.546 Y122.658 E0.58032
G0 F600 X91.263 Y122.941
G1 F1500 X83.321 Y114.999 E0.56035
G0 F600 X83.321 Y115.565
G1 F1500 X90.98 Y123.224 E0.54038
G0 F600 X90.697 Y123.507
G1 F1500 X83.321 Y116.13 E0.52045
G0 F600 X83.321 Y116.696
G1 F1500 X90.414 Y123.79 E0.50048
G0 F600 X90.132 Y124.073
G1 F1500 X83.321 Y117.262 E0.48055
G0 F600 X83.321 Y117.828
G1 F1500 X89.849 Y124.356 E0.46059
G0 F600 X89.566 Y124.638
G1 F1500 X83.321 Y118.393 E0.44062
G0 F600 X83.321 Y118.959
G1 F1500 X89.283 Y124.921 E0.42065
G0 F600 X89 Y125.204
G1 F1500 X83.321 Y119.525 E0.40068
G0 F600 X83.321 Y120.09
G1 F1500 X88.717 Y125.487 E0.38075
G0 F600 X88.435 Y125.77
G1 F1500 X83.321 Y120.656 E0.36082
G0 F600 X83.321 Y121.222
G1 F1500 X88.152 Y126.053 E0.34085
G1 X88.222 Y126.123
G0 F600 X83.321 Y126.313
G1 F1500 X89.144 Y132.137 E0.41088
G0 F600 X88.862 Y132.419
G1 F1500 X83.321 Y126.878 E0.39095
G0 F600 X83.321 Y127.444
G1 F1500 X88.579 Y132.702 E0.37098
G0 F600 X88.296 Y132.985
G1 F1500 X83.321 Y128.01 E0.35101
G0 F600 X83.321 Y128.576
G1 F1500 X87.923 Y133.177 E0.32466
G0 F600 X87.357 Y133.177
G1 F1500 X83.321 Y129.141 E0.28476
G0 F600 X83.321 Y129.707
G1 F1500 X86.791 Y133.177 E0.24483
G0 F600 X86.226 Y133.177
G1 F1500 X83.321 Y130.273 E0.20493
G0 F600 X83.321 Y130.838
G1 F1500 X85.66 Y133.177 E0.16503
G0 F600 X85.094 Y133.177
G1 F1500 X83.321 Y131.404 E0.12509
G0 F600 X83.321 Y131.97
G1 F1500 X84.528 Y133.177 E0.08516
G0 F600 X83.963 Y133.177
G1 F1500 X83.321 Y132.535 E0.0453
G0 F600 X83.321 Y133.101
G1 F1500 X83.397 Y133.177 E0.00536
G0 F600 X89.427 Y131.854
G1 F1500 X83.321 Y125.747 E0.43085
G0 F600 X83.321 Y125.181
G1 F1500 X89.71 Y131.571 E0.45081
G0 F600 X89.993 Y131.288
G1 F1500 X83.321 Y124.616 E0.47075
G0 F600 X83.321 Y124.05
G1 F1500 X90.276 Y131.005 E0.49071
G0 F600 X90.559 Y130.722
G1 F1500 X83.321 Y123.484 E0.51068
G0 F600 X83.321 Y122.919
G1 F1500 X90.842 Y130.439 E0.53061
G0 F600 X91.124 Y130.157
G1 F1500 X83.321 Y122.353 E0.55058
G0 F600 X83.321 Y121.787
G1 F1500 X91.407 Y129.874 E0.57055
G1 X91.477 Y129.944
G0 F600 X92.64 Y129.628
G0 X97.773 Y124.496
G0 X94.225 Y117.071
G0 X121.278 Y90.018
G0 X126.935 Y95.678
G0 X134.897 Y87.731
G0 X134.007 Y87.529
G1 F1500 X133.119 Y86.641 E0.06265
G1 X134.895 Y86.641 E0.0886
G1 X134.007 Y87.529 E0.06265
G0 F600 X133.944 Y86.993
