;FLAVOR:RepRap
;TIME:4689
;Filament used: 3.78882m
;Layer height: 0.2
;Generated with Cura_SteamEngine 3.6.0
T0
M190 S60
M104 S200
M109 S200
M82 ;absolute extrusion mode
G21 ;metric values
G90 ;absolute positioning
M82 ;set extruder to absolute mode
M107 ;start with the fan off
G28 X0 Y0 ;move X/Y to min endstops
G28 Z0 ;move Z to min endstops
G1 Z15.0 F9000 ;move the platform down 15mm
G92 E0 ;zero the extruded length
G1 F200 E3 ;extrude 3mm of feed stock
G92 E0 ;zero the extruded length again
G1 F9000;Put printing message on LCD screen
M117 Printing..0
M83 ;relative extrusion mode
G1 F1500 E-6.5
;LAYER_COUNT:100
;LAYER:0
M107
G0 F600 X88.326 Y88.433 Z0.3
;TYPE:SUPPORT
G1 F1500 E6.5
G1 X89.529 Y87.229 E0.08491
G1 X92.501 Y90.201 E0.20969
G1 X91.297 Y91.405 E0.08495
G1 X88.326 Y88.433 E0.20966
G0 F600 X89.991 Y87.916
G1 F1500 X89.991 Y89.873 E0.09764
G0 F600 X90.108 Y89.991
G1 F1500 X92.066 Y89.991 E0.09769
G1 F1500 E-6.5
G0 F600 X92.58 Y90.502
G0 X92.611 Y90.533
G0 X96.279 Y94.177
G0 X98.722 Y91.831
G0 X123.962 Y117.071
G0 X121.699 Y119.427
G0 X125.368 Y123.071
G0 X125.399 Y123.102
G0 X125.592 Y123.292
G1 F1500 E6.5
G1 X128.564 Y126.263 E0.20966
G1 X127.36 Y127.467 E0.08495
G1 X124.388 Y124.496 E0.20966
G1 X125.592 Y123.292 E0.08495
G0 F600 X126.654 Y124.579
G1 F1500 X126.654 Y126.536 E0.09764
G0 F600 X126.771 Y126.654
G1 F1500 X127.946 Y126.654 E0.05862
G1 F1500 E-6.5
;MESH:1_LCD_Base_Right.stl
G0 F600 X129.12 Y127.828
G0 X129.141 Y127.796
G0 X129.105 Y127.848
G0 X127.714 Y129.8
;TYPE:WALL-INNER
G1 F1500 E6.5
G1 X131.25 Y126.263 E0.24952
G1 X125.592 Y120.606 E0.39917
G1 X122.056 Y124.142 E0.24948
G1 X120.782 Y122.868 E0.08989
G1 X120.642 Y122.728 E0.00988
G1 X120.782 Y122.588 E0.00637
G1 X126.3 Y117.071 E0.38929
G1 X98.862 Y89.633 E1.9359
G1 X98.722 Y89.493 E0.00988
G1 X98.582 Y89.633 E0.00637
G1 X93.205 Y95.011 E0.37941
G1 X93.065 Y95.151 E0.00988
G1 X92.925 Y95.011 E0.00637
G1 X91.651 Y93.737 E0.08989
G1 X95.187 Y90.201 E0.24948
G1 X91.577 Y86.591 E0.2547
G1 X91.237 Y86.251 E0.02399
G1 X91.717 Y86.251 E0.01288
G1 X91.718 Y86.251 E0.00005
G1 X137.249 Y86.251 E2.27155
G1 X137.249 Y133.749 E2.36968
G1 X131.663 Y133.749 E0.27869
G1 X127.714 Y129.8 E0.27862
G0 F600 X127.36 Y129.628
G0 X122.227 Y124.496
G0 X125.775 Y117.071
G0 X98.722 Y90.018
G0 X93.065 Y95.678
G0 X85.103 Y87.731
G0 X87.821 Y86.251
G1 F1500 X87.481 Y86.591 E0.02399
G1 X85.993 Y88.079 E0.10499
G1 X84.505 Y86.591 E0.10499
G1 X84.165 Y86.251 E0.02399
G1 X84.645 Y86.251 E0.01288
G1 X84.646 Y86.251 E0.00005
G1 X87.34 Y86.251 E0.1344
G1 X87.341 Y86.251 E0.00005
G1 X87.821 Y86.251 E0.01288
G0 F600 X86.165 Y88.433
G0 X91.087 Y93.456
G0 X91.157 Y93.385
G1 F1500 X91.297 Y93.525 E0.00988
G1 X91.437 Y93.385 E0.00637
G1 X94.621 Y90.201 E0.22465
G1 X90.611 Y86.191 E0.28293
G1 X90.271 Y85.851 E0.02399
G1 X90.751 Y85.851 E0.01288
G1 X90.752 Y85.851 E0.00005
G1 X137.649 Y85.851 E2.3397
G1 X137.649 Y134.149 E2.4096
G1 X131.497 Y134.149 E0.30692
G1 X127.148 Y129.8 E0.30685
G1 X122.195 Y124.847 E0.34946
G1 X122.056 Y124.708 E0.00981
G1 X120.076 Y122.728 E0.1397
G1 X125.734 Y117.071 E0.39917
G1 X98.722 Y90.059 E1.90584
G1 X93.065 Y95.717 E0.39917
G1 X91.086 Y93.738 E0.13963
G1 X85.993 Y88.645 E0.35934
G1 X83.199 Y85.851 E0.19713
G1 X88.787 Y85.851 E0.27879
G1 X86.206 Y88.433 E0.18214
G1 X91.157 Y93.385 E0.34936
G0 F600 X91.297 Y92.959
;TYPE:WALL-OUTER
G1 F1500 X91.438 Y92.818 E0.00995
G1 X94.055 Y90.201 E0.18464
G1 X89.678 Y85.824 E0.30882
G1 X89.529 Y85.675 E0.01051
G1 X89.38 Y85.824 E0.01051
G1 X86.772 Y88.433 E0.18404
G1 X91.156 Y92.818 E0.30935
G1 X91.297 Y92.959 E0.00642
G0 F600 X91.438 Y92.818
G0 X91.748 Y93.13
G0 X91.789 Y93.174
G0 X98.722 Y90.018
G0 X125.775 Y117.071
G0 X122.338 Y124.285
G0 X122.408 Y124.356
;TYPE:WALL-INNER
G1 F1500 X122.268 Y124.496 E0.00988
G1 X122.408 Y124.636 E0.00637
G1 X127.36 Y129.587 E0.306
G1 X130.544 Y126.403 E0.22465
G1 X130.684 Y126.263 E0.00988
G1 X130.544 Y126.123 E0.00637
G1 X125.592 Y121.172 E0.34936
G1 X122.408 Y124.356 E0.22465
G0 F600 X122.834 Y124.496
;TYPE:WALL-OUTER
G1 F1500 X122.975 Y124.637 E0.00995
G1 X127.36 Y129.021 E0.30935
G1 X129.977 Y126.404 E0.18464
G1 X130.118 Y126.263 E0.00995
G1 X129.977 Y126.122 E0.00642
G1 X125.592 Y121.738 E0.30935
G1 X122.975 Y124.355 E0.18464
G1 X122.834 Y124.496 E0.00642
G0 F600 X122.975 Y124.637
G0 X122.663 Y124.947
G0 X122.619 Y124.988
G0 X122.227 Y124.496
G0 X125.521 Y117.425
G0 X125.168 Y117.071
G1 F1500 X125.027 Y116.93 E0.00995
G1 X98.863 Y90.766 E1.84601
G1 X98.722 Y90.625 E0.00995
G1 X98.581 Y90.766 E0.00642
G1 X93.206 Y96.142 E0.37927
G1 X93.065 Y96.283 E0.00995
G1 X92.924 Y96.142 E0.00642
G1 X82.573 Y85.791 E0.73032
G1 X82.233 Y85.451 E0.02399
G1 X82.713 Y85.451 E0.01288
G1 X82.715 Y85.451 E0.0001
G1 X89.317 Y85.451 E0.32938
G1 X89.529 Y85.451 E0.00844
G1 X89.741 Y85.451 E0.00844
G1 X138.049 Y85.451 E2.4101
G1 X138.049 Y134.549 E2.44951
G1 X131.331 Y134.549 E0.33516
G1 X119.651 Y122.869 E0.82409
G1 X119.51 Y122.728 E0.00995
G1 X119.651 Y122.587 E0.00642
G1 X125.027 Y117.212 E0.37927
G1 X125.168 Y117.071 E0.00642
G0 F600 X125.027 Y116.93
G0 X125.339 Y116.62
G0 X125.383 Y116.579
G0 X126.852 Y117.071
;TYPE:SKIN
G1 F1500 X98.722 Y88.941 E1.98472
G1 X93.065 Y94.601 E0.39924
G1 X92.201 Y93.737 E0.06096
G1 X95.739 Y90.201 E0.24955
G1 X92.177 Y86.641 E0.25125
G1 X136.859 Y86.641 E2.22919
G1 X136.859 Y133.359 E2.33077
G1 X131.823 Y133.359 E0.25125
G1 X128.264 Y129.8 E0.25111
G1 X131.802 Y126.263 E0.24959
G1 X125.592 Y120.054 E0.43811
G1 X122.056 Y123.592 E0.24955
G1 X121.192 Y122.728 E0.06096
G1 X126.852 Y117.071 E0.39924
G0 F600 X121.521 Y122.653
G1 F1500 X122.13 Y123.262 E0.04297
G0 F600 X122.413 Y122.979
G1 F1500 X121.804 Y122.37 E0.04297
G0 F600 X122.087 Y122.087
G1 F1500 X122.696 Y122.696 E0.04297
G0 F600 X122.979 Y122.413
G1 F1500 X122.37 Y121.804 E0.04297
G0 F600 X122.653 Y121.521
G1 F1500 X123.262 Y122.13 E0.04297
G0 F600 X123.544 Y121.847
G1 F1500 X122.936 Y121.239 E0.0429
G0 F600 X123.219 Y120.956
G1 F1500 X123.827 Y121.564 E0.0429
G0 F600 X124.109 Y121.281
G1 F1500 X123.501 Y120.673 E0.0429
G0 F600 X123.784 Y120.39
G1 F1500 X124.392 Y120.998 E0.0429
G0 F600 X124.675 Y120.715
G1 F1500 X124.067 Y120.107 E0.0429
G0 F600 X124.351 Y119.825
G1 F1500 X124.958 Y120.433 E0.04286
G0 F600 X125.241 Y120.15
G1 F1500 X124.633 Y119.542 E0.0429
G0 F600 X124.916 Y119.259
G1 F1500 X125.524 Y119.867 E0.0429
G1 X125.594 Y119.937
G0 F600 X125.199 Y118.977
G1 F1500 X136.678 Y130.455 E0.80987
G0 F600 X136.678 Y131.021
G1 F1500 X131.987 Y126.33 E0.33098
G0 F600 X131.705 Y126.613
G1 F1500 X136.678 Y131.586 E0.35087
G0 F600 X136.678 Y132.152
G1 F1500 X131.422 Y126.896 E0.37084
G0 F600 X131.139 Y127.179
G1 F1500 X136.678 Y132.718 E0.39081
G0 F600 X136.572 Y133.178
G1 F1500 X130.856 Y127.462 E0.40329
G0 F600 X130.573 Y127.745
G1 F1500 X136.007 Y133.178 E0.38336
G0 F600 X135.441 Y133.178
G1 F1500 X130.29 Y128.028 E0.3634
G0 F600 X130.007 Y128.31
G1 F1500 X134.875 Y133.178 E0.34346
G0 F600 X134.309 Y133.178
G1 F1500 X129.725 Y128.593 E0.32346
G0 F600 X129.442 Y128.876
G1 F1500 X133.744 Y133.178 E0.30353
G0 F600 X133.178 Y133.178
G1 F1500 X129.159 Y129.159 E0.28356
G0 F600 X128.876 Y129.442
G1 F1500 X132.612 Y133.178 E0.26359
G0 F600 X132.047 Y133.178
G1 F1500 X128.593 Y129.725 E0.24366
G1 X128.523 Y129.655
G0 F600 X136.678 Y129.889
G1 F1500 X125.482 Y118.694 E0.7899
G0 F600 X125.765 Y118.411
G1 F1500 X136.678 Y129.324 E0.76997
G0 F600 X136.678 Y128.758
G1 F1500 X126.048 Y118.128 E0.75
G0 F600 X126.33 Y117.845
G1 F1500 X136.678 Y128.192 E0.73007
G0 F600 X136.678 Y127.627
G1 F1500 X126.613 Y117.562 E0.71014
G0 F600 X126.896 Y117.28
G1 F1500 X136.678 Y127.061 E0.69014
G0 F600 X136.678 Y126.495
G1 F1500 X97.003 Y86.821 E2.79925
G0 F600 X96.438 Y86.821
G1 F1500 X98.512 Y88.896 E0.14637
G0 F600 X98.229 Y89.178
G1 F1500 X95.872 Y86.821 E0.1663
G0 F600 X95.306 Y86.821
G1 F1500 X97.947 Y89.461 E0.1863
G0 F600 X97.664 Y89.744
G1 F1500 X94.74 Y86.821 E0.20627
G0 F600 X94.175 Y86.821
G1 F1500 X97.381 Y90.027 E0.2262
G0 F600 X97.098 Y90.31
G1 F1500 X93.609 Y86.821 E0.24617
G0 F600 X93.043 Y86.821
G1 F1500 X96.816 Y90.593 E0.26617
G0 F600 X96.533 Y90.876
G1 F1500 X95.925 Y90.268 E0.0429
G0 F600 X95.642 Y90.551
G1 F1500 X96.25 Y91.159 E0.0429
G0 F600 X95.967 Y91.442
G1 F1500 X95.359 Y90.834 E0.0429
G0 F600 X95.076 Y91.117
G1 F1500 X95.684 Y91.725 E0.0429
G0 F600 X95.402 Y92.008
G1 F1500 X94.794 Y91.399 E0.04293
G0 F600 X94.511 Y91.682
G1 F1500 X95.119 Y92.29 E0.0429
G0 F600 X94.837 Y92.574
G1 F1500 X94.228 Y91.965 E0.04297
G0 F600 X93.944 Y92.247
G1 F1500 X94.554 Y92.857 E0.04304
G0 F600 X94.271 Y93.14
G1 F1500 X93.661 Y92.53 E0.04304
G0 F600 X93.379 Y92.813
G1 F1500 X93.988 Y93.422 E0.04297
G0 F600 X93.705 Y93.705
G1 F1500 X93.096 Y93.096 E0.04297
G0 F600 X92.813 Y93.379
G1 F1500 X93.422 Y93.988 E0.04297
G0 F600 X93.14 Y94.271
G1 F1500 X92.53 Y93.661 E0.04304
G1 X92.46 Y93.591
G0 F600 X97.569 Y86.821
G1 F1500 X136.678 Y125.93 E2.75935
G0 F600 X136.678 Y125.364
G1 F1500 X98.135 Y86.821 E2.71942
G0 F600 X98.7 Y86.821
G1 F1500 X136.678 Y124.798 E2.67952
G0 F600 X136.678 Y124.233
G1 F1500 X99.266 Y86.821 E2.63962
G0 F600 X99.832 Y86.821
G1 F1500 X136.678 Y123.667 E2.59968
G0 F600 X136.678 Y123.101
G1 F1500 X100.397 Y86.821 E2.55979
G0 F600 X100.963 Y86.821
G1 F1500 X136.678 Y122.535 E2.51985
G0 F600 X136.678 Y121.97
G1 F1500 X101.529 Y86.821 E2.47995
G0 F600 X102.094 Y86.821
G1 F1500 X136.678 Y121.404 E2.44005
G0 F600 X136.678 Y120.838
G1 F1500 X102.66 Y86.821 E2.40012
G0 F600 X103.226 Y86.821
G1 F1500 X136.678 Y120.273 E2.36022
G0 F600 X136.678 Y119.707
G1 F1500 X103.791 Y86.821 E2.32032
G0 F600 X104.357 Y86.821
G1 F1500 X136.678 Y119.141 E2.28039
G0 F600 X136.678 Y118.576
G1 F1500 X104.923 Y86.821 E2.24049
G0 F600 X105.489 Y86.821
G1 F1500 X136.678 Y118.01 E2.20055
G0 F600 X136.678 Y117.444
G1 F1500 X106.054 Y86.821 E2.16065
G0 F600 X106.62 Y86.821
G1 F1500 X136.678 Y116.879 E2.12075
G0 F600 X136.678 Y116.313
G1 F1500 X107.186 Y86.821 E2.08082
G0 F600 X107.751 Y86.821
G1 F1500 X136.678 Y115.747 E2.04092
G0 F600 X136.678 Y115.182
G1 F1500 X108.317 Y86.821 E2.00102
G0 F600 X108.883 Y86.821
G1 F1500 X136.678 Y114.616 E1.96109
G0 F600 X136.678 Y114.05
G1 F1500 X109.448 Y86.821 E1.92119
G0 F600 X110.014 Y86.821
G1 F1500 X136.678 Y113.484 E1.88125
G0 F600 X136.678 Y112.919
G1 F1500 X110.58 Y86.821 E1.84135
G0 F600 X111.145 Y86.821
G1 F1500 X136.678 Y112.353 E1.80146
G0 F600 X136.678 Y111.787
G1 F1500 X111.711 Y86.821 E1.76152
G0 F600 X112.277 Y86.821
G1 F1500 X136.678 Y111.222 E1.72162
G0 F600 X136.678 Y110.656
G1 F1500 X112.842 Y86.821 E1.68172
G0 F600 X113.408 Y86.821
G1 F1500 X136.678 Y110.09 E1.64179
G0 F600 X136.678 Y109.525
G1 F1500 X113.974 Y86.821 E1.60189
G0 F600 X114.539 Y86.821
G1 F1500 X136.678 Y108.959 E1.56199
G0 F600 X136.678 Y108.393
G1 F1500 X115.105 Y86.821 E1.52206
G0 F600 X115.671 Y86.821
G1 F1500 X136.678 Y107.828 E1.48216
G0 F600 X136.678 Y107.262
G1 F1500 X116.237 Y86.821 E1.44222
G0 F600 X116.802 Y86.821
G1 F1500 X136.678 Y106.696 E1.40232
G0 F600 X136.678 Y106.131
G1 F1500 X117.368 Y86.821 E1.36242
G0 F600 X117.934 Y86.821
G1 F1500 X136.678 Y105.565 E1.32249
G0 F600 X136.678 Y104.999
G1 F1500 X118.499 Y86.821 E1.28259
G0 F600 X119.065 Y86.821
G1 F1500 X136.678 Y104.434 E1.24269
G0 F600 X136.678 Y103.868
G1 F1500 X119.631 Y86.821 E1.20276
G0 F600 X120.196 Y86.821
G1 F1500 X136.678 Y103.302 E1.16286
G0 F600 X136.678 Y102.736
G1 F1500 X120.762 Y86.821 E1.12292
G0 F600 X121.328 Y86.821
G1 F1500 X136.678 Y102.171 E1.08303
G0 F600 X136.678 Y101.605
G1 F1500 X121.893 Y86.821 E1.04313
G0 F600 X122.459 Y86.821
G1 F1500 X136.678 Y101.039 E1.00319
G0 F600 X136.678 Y100.474
G1 F1500 X123.025 Y86.821 E0.96329
G0 F600 X123.59 Y86.821
G1 F1500 X136.678 Y99.908 E0.92339
G0 F600 X136.678 Y99.342
G1 F1500 X124.156 Y86.821 E0.88346
G0 F600 X124.722 Y86.821
G1 F1500 X136.678 Y98.777 E0.84356
G0 F600 X136.678 Y98.211
G1 F1500 X125.288 Y86.821 E0.80363
G0 F600 X125.853 Y86.821
G1 F1500 X136.678 Y97.645 E0.76373
G0 F600 X136.678 Y97.08
G1 F1500 X126.419 Y86.821 E0.72383
G0 F600 X126.985 Y86.821
G1 F1500 X136.678 Y96.514 E0.68389
G0 F600 X136.678 Y95.948
G1 F1500 X127.55 Y86.821 E0.64399
G0 F600 X128.116 Y86.821
G1 F1500 X136.678 Y95.383 E0.6041
G0 F600 X136.678 Y94.817
G1 F1500 X128.682 Y86.821 E0.56416
G0 F600 X129.247 Y86.821
G1 F1500 X136.678 Y94.251 E0.52426
G0 F600 X136.678 Y93.685
G1 F1500 X129.813 Y86.821 E0.48433
G0 F600 X130.379 Y86.821
G1 F1500 X136.678 Y93.12 E0.44443
G0 F600 X136.678 Y92.554
G1 F1500 X130.944 Y86.821 E0.40453
G0 F600 X131.51 Y86.821
G1 F1500 X136.678 Y91.988 E0.3646
G0 F600 X136.678 Y91.423
G1 F1500 X132.076 Y86.821 E0.3247
G0 F600 X132.641 Y86.821
G1 F1500 X136.678 Y90.857 E0.2848
G0 F600 X136.678 Y90.291
G1 F1500 X133.207 Y86.821 E0.24486
G0 F600 X133.773 Y86.821
G1 F1500 X136.678 Y89.726 E0.20496
G0 F600 X136.678 Y89.16
G1 F1500 X134.338 Y86.821 E0.16506
G0 F600 X134.904 Y86.821
G1 F1500 X136.678 Y88.594 E0.12513
G0 F600 X136.678 Y88.029
G1 F1500 X135.47 Y86.821 E0.08523
G0 F600 X136.036 Y86.821
G1 F1500 X136.678 Y87.463 E0.0453
G0 F600 X136.678 Y86.897
G1 F1500 X136.601 Y86.821 E0.0054
G0 F600 X94.662 Y90.201
G0 X91.297 Y93.566
G0 X86.165 Y88.433
G0 X86.881 Y86.641
G1 F1500 X85.993 Y87.529 E0.06265
G1 X85.105 Y86.641 E0.06265
G1 X86.881 Y86.641 E0.0886
G0 F600 X86.302 Y86.868
G1 F1500 X85.878 Y87.009 E0.03344
G0 F600 X85.689 Y86.82
G1 F1500 E-6.5
;MESH:NONMESH
G0 F600 X88.598 Y86.012
G0 X89.991 Y87.409
;TIME_ELAPSED:180.336921
;LAYER:1
M140 S60
M106 S229.5
G0 F900 X89.991 Y87.409 Z0.5
;TYPE:SUPPORT
G1 F1500 E6.5
G1 F2250 X89.991 Y90.38 E0.09882
G1 F1500 E-6.5
G0 F900 X91.405 Y91.677
G0 X91.437 Y91.707
G0 X95.247 Y95.209
G0 X98.722 Y91.831
G0 X123.962 Y117.071
G0 X121.652 Y119.474
G0 X125.463 Y122.976
G0 X125.495 Y123.006
G0 X126.654 Y124.072
G1 F1500 E6.5
G1 F2250 X126.654 Y127.043 E0.09882
G1 F1500 E-6.5
;MESH:1_LCD_Base_Right.stl
G0 F900 X125.734 Y127.963
G0 X127.36 Y129.628
G0 X127.714 Y129.8
;TYPE:WALL-INNER
G1 F1500 E6.5
G1 F2250 X131.25 Y126.263 E0.16635
G1 X125.592 Y120.606 E0.26611
G1 X122.056 Y124.142 E0.16632
G1 X120.782 Y122.868 E0.05993
G1 X120.642 Y122.728 E0.00659
G1 X120.782 Y122.588 E0.00425
G1 X126.3 Y117.071 E0.25953
G1 X98.862 Y89.633 E1.2906
G1 X98.722 Y89.493 E0.00659
G1 X98.582 Y89.633 E0.00425
G1 X93.205 Y95.011 E0.25294
G1 X93.065 Y95.151 E0.00659
G1 X92.925 Y95.011 E0.00425
G1 X91.651 Y93.737 E0.05993
G1 X95.187 Y90.201 E0.16632
G1 X91.577 Y86.591 E0.1698
G1 X91.237 Y86.251 E0.01599
G1 X91.717 Y86.251 E0.00859
G1 X91.718 Y86.251 E0.00003
G1 X137.249 Y86.251 E1.51437
G1 X137.249 Y133.749 E1.57979
G1 X131.663 Y133.749 E0.18579
G1 X127.714 Y129.8 E0.18575
G0 F900 X127.36 Y129.628
G0 X122.227 Y124.496
G0 X125.775 Y117.071
G0 X98.722 Y90.018
G0 X93.065 Y95.678
G0 X85.103 Y87.731
G0 X87.481 Y86.591
G1 F2250 X85.993 Y88.079 E0.06999
G1 X84.505 Y86.591 E0.06999
G1 X84.165 Y86.251 E0.01599
G1 X84.645 Y86.251 E0.00859
G1 X84.646 Y86.251 E0.00003
G1 X87.34 Y86.251 E0.0896
G1 X87.341 Y86.251 E0.00003
G1 X87.821 Y86.251 E0.01596
G1 X87.481 Y86.591 E0.0086
G0 F900 X86.165 Y88.433
G0 X91.087 Y93.456
G0 X91.157 Y93.385
G1 F2250 X91.297 Y93.525 E0.00659
G1 X91.437 Y93.385 E0.00425
G1 X94.621 Y90.201 E0.14977
G1 X90.611 Y86.191 E0.18862
G1 X90.271 Y85.851 E0.01599
G1 X90.751 Y85.851 E0.00859
G1 X90.752 Y85.851 E0.00003
G1 X137.649 Y85.851 E1.5598
G1 X137.649 Y134.149 E1.6064
G1 X131.497 Y134.149 E0.20462
G1 X127.148 Y129.8 E0.20456
G1 X122.195 Y124.847 E0.23297
G1 X122.056 Y124.708 E0.00654
