;FLAVOR:RepRap
;TIME:24546
;Filament used: 22.2034m
;Layer height: 0.2
;Generated with Cura_SteamEngine 3.6.0
T0
M190 S60
M104 S200
M109 S200
M82 ;absolute extrusion mode
G21 ;metric values
G90 ;absolute positioning
M82 ;set extruder to absolute mode
M107 ;start with the fan off
G28 X0 Y0 ;move X/Y to min endstops
G28 Z0 ;move Z to min endstops
G1 Z15.0 F9000 ;move the platform down 15mm
G92 E0 ;zero the extruded length
G1 F200 E3 ;extrude 3mm of feed stock
G92 E0 ;zero the extruded length again
G1 F9000;Put printing message on LCD screen
M117 Printing..0
M83 ;relative extrusion mode
G1 F1500 E-6.5
;LAYER_COUNT:125
;LAYER:0
M107
;MESH:1_PSU_Mount.stl
G0 F600 X63.861 Y94.892 Z0.3
;TYPE:WALL-INNER
G1 F1500 E6.5
G1 X63.88 Y95.32 E0.02137
G1 X63.969 Y95.735 E0.02118
G1 X64.129 Y96.13 E0.02126
G1 X64.351 Y96.49 E0.0211
G1 X64.632 Y96.809 E0.02121
G1 X64.931 Y97.049 E0.01913
G1 X107.003 Y125.433 E2.532
G1 X107.337 Y125.616 E0.019
G1 X107.732 Y125.756 E0.02091
G1 X108.152 Y125.829 E0.02127
G1 X108.576 Y125.829 E0.02115
G1 X108.995 Y125.756 E0.02122
G1 X109.394 Y125.616 E0.0211
G1 X109.726 Y125.431 E0.01896
G1 X151.797 Y97.05 E2.53187
G1 X152.096 Y96.81 E0.01913
G1 X152.379 Y96.488 E0.02139
G1 X152.599 Y96.129 E0.02101
G1 X152.76 Y95.735 E0.02123
G1 X152.848 Y95.318 E0.02126
G1 X152.867 Y94.895 E0.02112
G1 X152.812 Y94.475 E0.02113
G1 X152.69 Y94.068 E0.0212
G1 X152.498 Y93.689 E0.0212
G1 X152.246 Y93.346 E0.02123
G1 X151.937 Y93.051 E0.02131
G1 X151.587 Y92.814 E0.02109
G1 X151.2 Y92.641 E0.02115
G1 X150.789 Y92.532 E0.02121
G1 X150.417 Y92.501 E0.01862
G1 X66.32 Y92.5 E4.19562
G1 X65.94 Y92.532 E0.01903
G1 X65.528 Y92.641 E0.02126
G1 X65.141 Y92.815 E0.02117
G1 X64.791 Y93.051 E0.02106
G1 X64.482 Y93.346 E0.02131
G1 X64.231 Y93.689 E0.0212
G1 X64.039 Y94.068 E0.0212
G1 X63.917 Y94.473 E0.0211
G1 X63.861 Y94.892 E0.02109
G0 F600 X64.262 Y94.91
G1 F1500 X64.278 Y95.269 E0.01793
G1 X64.353 Y95.617 E0.01776
G1 X64.487 Y95.949 E0.01786
G1 X64.674 Y96.251 E0.01772
G1 X64.909 Y96.519 E0.01778
G1 X65.168 Y96.726 E0.01654
G1 X107.211 Y125.091 E2.53027
G1 X107.501 Y125.25 E0.0165
G1 X107.834 Y125.368 E0.01763
G1 X108.186 Y125.429 E0.01782
G1 X108.542 Y125.429 E0.01776
G1 X108.894 Y125.368 E0.01782
G1 X109.229 Y125.25 E0.01772
G1 X109.517 Y125.09 E0.01644
G1 X151.56 Y96.727 E2.53021
G1 X151.819 Y96.52 E0.01654
G1 X152.056 Y96.25 E0.01792
G1 X152.241 Y95.948 E0.01767
G1 X152.376 Y95.617 E0.01783
G1 X152.45 Y95.267 E0.01785
G1 X152.466 Y94.912 E0.01773
G1 X152.42 Y94.559 E0.01776
G1 X152.317 Y94.217 E0.01782
G1 X152.156 Y93.899 E0.01778
G1 X151.945 Y93.611 E0.01781
G1 X151.685 Y93.364 E0.01789
G1 X151.391 Y93.165 E0.01771
G1 X151.066 Y93.019 E0.01778
G1 X150.721 Y92.928 E0.0178
G1 X150.4 Y92.901 E0.01607
G1 X66.337 Y92.9 E4.19392
G1 X66.008 Y92.928 E0.01647
G1 X65.662 Y93.019 E0.01785
G1 X65.337 Y93.166 E0.0178
G1 X65.043 Y93.364 E0.01768
G1 X64.784 Y93.611 E0.01786
G1 X64.573 Y93.899 E0.01781
G1 X64.412 Y94.217 E0.01778
G1 X64.309 Y94.558 E0.01777
G1 X64.262 Y94.91 E0.01772
G0 F600 X64.663 Y94.928
;TYPE:WALL-OUTER
G1 F1500 X64.676 Y95.217 E0.01443
G1 X64.737 Y95.499 E0.01439
G1 X64.845 Y95.767 E0.01442
G1 X64.997 Y96.012 E0.01438
G1 X65.187 Y96.229 E0.01439
G1 X65.405 Y96.404 E0.01395
G1 X107.42 Y124.749 E2.52855
G1 X107.665 Y124.884 E0.01396
G1 X107.936 Y124.98 E0.01434
G1 X108.22 Y125.029 E0.01438
G1 X108.508 Y125.029 E0.01437
G1 X108.793 Y124.98 E0.01443
G1 X109.064 Y124.884 E0.01434
G1 X109.308 Y124.749 E0.01391
G1 X151.323 Y96.404 E2.52855
G1 X151.542 Y96.229 E0.01399
G1 X151.733 Y96.012 E0.01442
G1 X151.883 Y95.767 E0.01433
G1 X151.992 Y95.499 E0.01443
G1 X152.052 Y95.216 E0.01443
G1 X152.065 Y94.929 E0.01433
G1 X152.028 Y94.643 E0.01439
G1 X151.944 Y94.366 E0.01444
G1 X151.814 Y94.109 E0.01437
G1 X151.643 Y93.876 E0.01442
G1 X151.434 Y93.677 E0.0144
G1 X151.195 Y93.516 E0.01438
G1 X150.932 Y93.397 E0.0144
G1 X150.653 Y93.324 E0.01439
G1 X150.383 Y93.301 E0.01352
G1 X66.354 Y93.3 E4.19222
G1 X66.076 Y93.324 E0.01392
G1 X65.796 Y93.397 E0.01444
G1 X65.533 Y93.516 E0.0144
G1 X65.295 Y93.677 E0.01434
G1 X65.086 Y93.876 E0.0144
G1 X64.915 Y94.109 E0.01442
G1 X64.785 Y94.366 E0.01437
G1 X64.701 Y94.643 E0.01444
G1 X64.663 Y94.928 E0.01434
G0 F600 X64.671 Y95.128
G0 X64.231 Y95.147
G0 X64.172 Y95.149
G0 X45.818 Y88.578
G0 X45.176 Y88.046
G0 X44.246 Y86.517
;TYPE:WALL-INNER
G1 F1500 X44.293 Y86.994 E0.02391
G1 X44.418 Y87.456 E0.02388
G1 X44.623 Y87.888 E0.02386
G1 X44.899 Y88.28 E0.02392
G1 X45.243 Y88.62 E0.02413
G1 X45.639 Y88.893 E0.024
G1 X46.074 Y89.092 E0.02387
G1 X46.536 Y89.214 E0.02384
G1 X47.017 Y89.254 E0.02408
G1 X47.494 Y89.207 E0.02391
G1 X47.956 Y89.082 E0.02388
G1 X48.388 Y88.877 E0.02386
G1 X48.78 Y88.601 E0.02392
G1 X49.12 Y88.257 E0.02413
G1 X49.393 Y87.861 E0.024
G1 X49.592 Y87.426 E0.02387
G1 X49.714 Y86.964 E0.02384
G1 X49.754 Y86.483 E0.02408
G1 X49.707 Y86.006 E0.02391
G1 X49.582 Y85.544 E0.02388
G1 X49.377 Y85.112 E0.02386
G1 X49.101 Y84.72 E0.02392
G1 X48.757 Y84.38 E0.02413
G1 X48.361 Y84.107 E0.024
G1 X47.926 Y83.908 E0.02387
G1 X47.464 Y83.786 E0.02384
G1 X46.983 Y83.746 E0.02408
G1 X46.506 Y83.793 E0.02391
G1 X46.044 Y83.918 E0.02388
G1 X45.612 Y84.123 E0.02386
G1 X45.22 Y84.399 E0.02392
G1 X44.88 Y84.743 E0.02413
G1 X44.607 Y85.139 E0.024
G1 X44.408 Y85.574 E0.02387
G1 X44.286 Y86.036 E0.02384
G1 X44.246 Y86.517 E0.02408
G0 F600 X44.648 Y86.514
G1 F1500 X44.688 Y86.922 E0.02045
G1 X44.795 Y87.317 E0.02042
G1 X44.97 Y87.686 E0.02037
G1 X45.206 Y88.021 E0.02044
G1 X45.499 Y88.311 E0.02057
G1 X45.837 Y88.544 E0.02048
G1 X46.209 Y88.714 E0.02041
G1 X46.604 Y88.818 E0.02038
G1 X47.014 Y88.852 E0.02053
G1 X47.422 Y88.812 E0.02045
G1 X47.817 Y88.705 E0.02042
G1 X48.186 Y88.53 E0.02037
G1 X48.521 Y88.294 E0.02044
G1 X48.811 Y88.001 E0.02057
G1 X49.044 Y87.663 E0.02048
G1 X49.214 Y87.291 E0.02041
G1 X49.318 Y86.896 E0.02038
G1 X49.352 Y86.486 E0.02053
G1 X49.312 Y86.078 E0.02045
G1 X49.205 Y85.683 E0.02042
G1 X49.03 Y85.314 E0.02037
G1 X48.794 Y84.979 E0.02044
G1 X48.501 Y84.689 E0.02057
G1 X48.163 Y84.456 E0.02048
G1 X47.791 Y84.286 E0.02041
G1 X47.396 Y84.182 E0.02038
G1 X46.986 Y84.148 E0.02053
G1 X46.578 Y84.188 E0.02045
G1 X46.183 Y84.295 E0.02042
G1 X45.814 Y84.47 E0.02037
G1 X45.479 Y84.706 E0.02044
G1 X45.189 Y84.999 E0.02057
G1 X44.956 Y85.337 E0.02048
G1 X44.786 Y85.709 E0.02041
G1 X44.682 Y86.104 E0.02038
G1 X44.648 Y86.514 E0.02053
G0 F600 X45.05 Y86.511
;TYPE:WALL-OUTER
G1 F1500 X45.083 Y86.85 E0.01699
G1 X45.172 Y87.178 E0.01696
G1 X45.317 Y87.484 E0.01689
G1 X45.513 Y87.762 E0.01697
G1 X45.755 Y88.002 E0.017
G1 X46.035 Y88.195 E0.01697
G1 X46.344 Y88.336 E0.01695
G1 X46.672 Y88.422 E0.01692
G1 X47.011 Y88.45 E0.01697
G1 X47.35 Y88.417 E0.01699
G1 X47.678 Y88.328 E0.01696
G1 X47.984 Y88.183 E0.01689
G1 X48.262 Y87.987 E0.01697
G1 X48.502 Y87.745 E0.017
G1 X48.695 Y87.465 E0.01697
G1 X48.836 Y87.156 E0.01695
G1 X48.922 Y86.828 E0.01692
G1 X48.95 Y86.489 E0.01697
G1 X48.917 Y86.15 E0.01699
G1 X48.828 Y85.822 E0.01696
G1 X48.683 Y85.516 E0.01689
G1 X48.487 Y85.238 E0.01697
G1 X48.245 Y84.998 E0.017
G1 X47.965 Y84.805 E0.01697
G1 X47.656 Y84.664 E0.01695
G1 X47.328 Y84.578 E0.01692
G1 X46.989 Y84.55 E0.01697
G1 X46.65 Y84.583 E0.01699
G1 X46.322 Y84.672 E0.01696
G1 X46.016 Y84.817 E0.01689
G1 X45.738 Y85.013 E0.01697
G1 X45.498 Y85.255 E0.017
G1 X45.305 Y85.535 E0.01697
G1 X45.164 Y85.844 E0.01695
G1 X45.078 Y86.172 E0.01692
G1 X45.05 Y86.511 E0.01697
G0 F600 X45.069 Y86.71
G0 X44.631 Y86.752
G0 X44.571 Y86.757
G0 X46.62 Y51.22
G0 X46.671 Y50.908
G0 X47.239 Y48.957
;TYPE:WALL-INNER
G1 F1500 X46.858 Y49.448 E0.03101
G1 X46.564 Y49.991 E0.03081
G1 X46.361 Y50.578 E0.03099
G1 X46.259 Y51.19 E0.03095
G1 X46.259 Y51.81 E0.03093
G1 X46.361 Y52.422 E0.03095
G1 X46.564 Y53.009 E0.03099
G1 X46.858 Y53.552 E0.03081
G1 X47.239 Y54.043 E0.03101
G1 X47.696 Y54.462 E0.03093
G1 X48.213 Y54.801 E0.03084
G1 X48.782 Y55.051 E0.03101
G1 X49.382 Y55.202 E0.03087
G1 X50 Y55.253 E0.03094
G1 X50.618 Y55.202 E0.03094
G1 X51.218 Y55.051 E0.03087
G1 X51.787 Y54.801 E0.03101
G1 X52.304 Y54.462 E0.03084
G1 X52.761 Y54.043 E0.03093
G1 X53.142 Y53.552 E0.03101
G1 X53.436 Y53.009 E0.03081
G1 X53.639 Y52.422 E0.03099
G1 X53.741 Y51.81 E0.03095
G1 X53.741 Y51.19 E0.03093
G1 X53.639 Y50.578 E0.03095
G1 X53.436 Y49.991 E0.03099
G1 X53.142 Y49.448 E0.03081
G1 X52.761 Y48.957 E0.03101
G1 X52.304 Y48.538 E0.03093
G1 X51.787 Y48.199 E0.03084
G1 X51.218 Y47.949 E0.03101
G1 X50.618 Y47.798 E0.03087
G1 X50 Y47.747 E0.03094
G1 X49.382 Y47.798 E0.03094
G1 X48.782 Y47.949 E0.03087
G1 X48.213 Y48.199 E0.03101
G1 X47.696 Y48.538 E0.03084
G1 X47.239 Y48.957 E0.03093
G0 F600 X47.534 Y49.229
G1 F1500 X47.194 Y49.667 E0.02766
G1 X46.931 Y50.153 E0.02757
G1 X46.75 Y50.677 E0.02766
G1 X46.659 Y51.223 E0.02762
G1 X46.659 Y51.777 E0.02764
G1 X46.75 Y52.323 E0.02762
G1 X46.931 Y52.847 E0.02766
G1 X47.194 Y53.333 E0.02757
G1 X47.534 Y53.771 E0.02766
G1 X47.942 Y54.145 E0.02761
G1 X48.404 Y54.448 E0.02756
G1 X48.912 Y54.671 E0.02768
G1 X49.448 Y54.806 E0.02758
G1 X50 Y54.852 E0.02763
G1 X50.552 Y54.806 E0.02763
G1 X51.088 Y54.671 E0.02758
G1 X51.596 Y54.448 E0.02768
G1 X52.058 Y54.145 E0.02756
G1 X52.466 Y53.771 E0.02761
G1 X52.806 Y53.333 E0.02766
G1 X53.069 Y52.847 E0.02757
G1 X53.25 Y52.323 E0.02766
G1 X53.341 Y51.777 E0.02762
G1 X53.341 Y51.223 E0.02764
G1 X53.25 Y50.677 E0.02762
G1 X53.069 Y50.153 E0.02766
G1 X52.806 Y49.667 E0.02757
G1 X52.466 Y49.229 E0.02766
G1 X52.058 Y48.855 E0.02761
G1 X51.596 Y48.552 E0.02756
G1 X51.088 Y48.329 E0.02768
G1 X50.552 Y48.194 E0.02758
G1 X50 Y48.148 E0.02763
G1 X49.448 Y48.194 E0.02763
G1 X48.912 Y48.329 E0.02758
G1 X48.404 Y48.552 E0.02768
G1 X47.942 Y48.855 E0.02756
G1 X47.534 Y49.229 E0.02761
G0 F600 X47.829 Y49.501
;TYPE:WALL-OUTER
G1 F1500 X47.53 Y49.886 E0.02432
G1 X47.298 Y50.314 E0.02429
G1 X47.139 Y50.776 E0.02438
G1 X47.059 Y51.256 E0.02428
G1 X47.059 Y51.744 E0.02435
G1 X47.139 Y52.224 E0.02428
G1 X47.298 Y52.686 E0.02438
G1 X47.53 Y53.114 E0.02429
G1 X47.829 Y53.499 E0.02432
G1 X48.188 Y53.828 E0.02429
G1 X48.595 Y54.095 E0.02428
G1 X49.042 Y54.291 E0.02435
G1 X49.514 Y54.41 E0.02429
G1 X50 Y54.451 E0.02433
G1 X50.486 Y54.41 E0.02433
G1 X50.958 Y54.291 E0.02429
G1 X51.405 Y54.095 E0.02435
G1 X51.812 Y53.828 E0.02428
G1 X52.171 Y53.499 E0.02429
G1 X52.47 Y53.114 E0.02432
G1 X52.702 Y52.686 E0.02429
G1 X52.861 Y52.224 E0.02438
G1 X52.941 Y51.744 E0.02428
G1 X52.941 Y51.256 E0.02435
G1 X52.861 Y50.776 E0.02428
G1 X52.702 Y50.314 E0.02438
G1 X52.47 Y49.886 E0.02429
G1 X52.171 Y49.501 E0.02432
G1 X51.812 Y49.172 E0.02429
G1 X51.405 Y48.905 E0.02428
G1 X50.958 Y48.709 E0.02435
G1 X50.486 Y48.59 E0.02429
G1 X50 Y48.549 E0.02433
G1 X49.514 Y48.59 E0.02433
G1 X49.042 Y48.709 E0.02429
G1 X48.595 Y48.905 E0.02435
G1 X48.188 Y49.172 E0.02428
G1 X47.829 Y49.501 E0.02429
G0 F600 X47.707 Y49.659
G0 X47.36 Y49.388
G0 X47.313 Y49.351
G0 X47.918 Y48.824
G0 X48.385 Y48.517
G0 X48.9 Y48.292
G0 X49.442 Y48.155
G0 X49.757 Y48.13
G0 X107.239 Y48.957
;TYPE:WALL-INNER
G1 F1500 X106.858 Y49.448 E0.03101
G1 X106.564 Y49.991 E0.03081
G1 X106.361 Y50.578 E0.03099
G1 X106.259 Y51.19 E0.03095
G1 X106.259 Y51.81 E0.03093
G1 X106.361 Y52.422 E0.03095
G1 X106.564 Y53.009 E0.03099
G1 X106.858 Y53.552 E0.03081
G1 X107.239 Y54.043 E0.03101
G1 X107.696 Y54.462 E0.03093
G1 X108.213 Y54.801 E0.03084
G1 X108.782 Y55.051 E0.03101
G1 X109.382 Y55.202 E0.03087
G1 X110 Y55.253 E0.03094
G1 X110.618 Y55.202 E0.03094
G1 X111.218 Y55.051 E0.03087
G1 X111.787 Y54.801 E0.03101
G1 X112.304 Y54.462 E0.03084
G1 X112.761 Y54.043 E0.03093
G1 X113.142 Y53.552 E0.03101
G1 X113.436 Y53.009 E0.03081
G1 X113.639 Y52.422 E0.03099
G1 X113.741 Y51.81 E0.03095
G1 X113.741 Y51.19 E0.03093
G1 X113.639 Y50.578 E0.03095
G1 X113.436 Y49.991 E0.03099
G1 X113.142 Y49.448 E0.03081
G1 X112.761 Y48.957 E0.03101
G1 X112.304 Y48.538 E0.03093
G1 X111.787 Y48.199 E0.03084
G1 X111.218 Y47.949 E0.03101
G1 X110.618 Y47.798 E0.03087
G1 X110 Y47.747 E0.03094
G1 X109.382 Y47.798 E0.03094
G1 X108.782 Y47.949 E0.03087
G1 X108.213 Y48.199 E0.03101
G1 X107.696 Y48.538 E0.03084
G1 X107.239 Y48.957 E0.03093
G0 F600 X107.534 Y49.229
G1 F1500 X107.194 Y49.667 E0.02766
G1 X106.931 Y50.153 E0.02757
G1 X106.75 Y50.677 E0.02766
G1 X106.659 Y51.223 E0.02762
G1 X106.659 Y51.777 E0.02764
G1 X106.75 Y52.323 E0.02762
G1 X106.931 Y52.847 E0.02766
G1 X107.194 Y53.333 E0.02757
G1 X107.534 Y53.771 E0.02766
G1 X107.942 Y54.145 E0.02761
G1 X108.404 Y54.448 E0.02756
G1 X108.912 Y54.671 E0.02768
G1 X109.448 Y54.806 E0.02758
G1 X110 Y54.852 E0.02763
G1 X110.552 Y54.806 E0.02763
G1 X111.088 Y54.671 E0.02758
G1 X111.596 Y54.448 E0.02768
G1 X112.058 Y54.145 E0.02756
G1 X112.466 Y53.771 E0.02761
G1 X112.806 Y53.333 E0.02766
G1 X113.069 Y52.847 E0.02757
G1 X113.25 Y52.323 E0.02766
G1 X113.341 Y51.777 E0.02762
G1 X113.341 Y51.223 E0.02764
G1 X113.25 Y50.677 E0.02762
G1 X113.069 Y50.153 E0.02766
G1 X112.806 Y49.667 E0.02757
G1 X112.466 Y49.229 E0.02766
G1 X112.058 Y48.855 E0.02761
G1 X111.596 Y48.552 E0.02756
G1 X111.088 Y48.329 E0.02768
G1 X110.552 Y48.194 E0.02758
G1 X110 Y48.148 E0.02763
G1 X109.448 Y48.194 E0.02763
G1 X108.912 Y48.329 E0.02758
G1 X108.404 Y48.552 E0.02768
G1 X107.942 Y48.855 E0.02756
G1 X107.534 Y49.229 E0.02761
G0 F600 X107.829 Y49.501
;TYPE:WALL-OUTER
G1 F1500 X107.53 Y49.886 E0.02432
G1 X107.298 Y50.314 E0.02429
G1 X107.139 Y50.776 E0.02438
G1 X107.059 Y51.256 E0.02428
G1 X107.059 Y51.744 E0.02435
G1 X107.139 Y52.224 E0.02428
G1 X107.298 Y52.686 E0.02438
G1 X107.53 Y53.114 E0.02429
G1 X107.829 Y53.499 E0.02432
G1 X108.188 Y53.828 E0.02429
G1 X108.595 Y54.095 E0.02428
G1 X109.042 Y54.291 E0.02435
G1 X109.514 Y54.41 E0.02429
G1 X110 Y54.451 E0.02433
G1 X110.486 Y54.41 E0.02433
G1 X110.958 Y54.291 E0.02429
G1 X111.405 Y54.095 E0.02435
G1 X111.812 Y53.828 E0.02428
G1 X112.171 Y53.499 E0.02429
G1 X112.47 Y53.114 E0.02432
G1 X112.702 Y52.686 E0.02429
G1 X112.861 Y52.224 E0.02438
G1 X112.941 Y51.744 E0.02428
G1 X112.941 Y51.256 E0.02435
G1 X112.861 Y50.776 E0.02428
G1 X112.702 Y50.314 E0.02438
G1 X112.47 Y49.886 E0.02429
G1 X112.171 Y49.501 E0.02432
G1 X111.812 Y49.172 E0.02429
G1 X111.405 Y48.905 E0.02428
G1 X110.958 Y48.709 E0.02435
G1 X110.486 Y48.59 E0.02429
G1 X110 Y48.549 E0.02433
G1 X109.514 Y48.59 E0.02433
G1 X109.042 Y48.709 E0.02429
G1 X108.595 Y48.905 E0.02435
G1 X108.188 Y49.172 E0.02428
G1 X107.829 Y49.501 E0.02429
G0 F600 X107.707 Y49.659
G0 X107.36 Y49.388
G0 X107.313 Y49.351
G0 X107.918 Y48.824
G0 X108.385 Y48.517
G0 X108.9 Y48.292
G0 X109.442 Y48.155
G0 X109.757 Y48.13
G0 X167.239 Y48.957
;TYPE:WALL-INNER
G1 F1500 X166.858 Y49.448 E0.03101
G1 X166.564 Y49.991 E0.03081
G1 X166.361 Y50.578 E0.03099
G1 X166.259 Y51.19 E0.03095
G1 X166.259 Y51.81 E0.03093
G1 X166.361 Y52.422 E0.03095
G1 X166.564 Y53.009 E0.03099
G1 X166.858 Y53.552 E0.03081
G1 X167.239 Y54.043 E0.03101
G1 X167.696 Y54.462 E0.03093
G1 X168.213 Y54.801 E0.03084
G1 X168.782 Y55.051 E0.03101
G1 X169.382 Y55.202 E0.03087
G1 X170 Y55.253 E0.03094
G1 X170.618 Y55.202 E0.03094
G1 X171.218 Y55.051 E0.03087
G1 X171.787 Y54.801 E0.03101
G1 X172.304 Y54.462 E0.03084
G1 X172.761 Y54.043 E0.03093
G1 X173.142 Y53.552 E0.03101
G1 X173.436 Y53.009 E0.03081
G1 X173.639 Y52.422 E0.03099
G1 X173.741 Y51.81 E0.03095
G1 X173.741 Y51.19 E0.03093
G1 X173.639 Y50.578 E0.03095
G1 X173.436 Y49.991 E0.03099
G1 X173.142 Y49.448 E0.03081
G1 X172.761 Y48.957 E0.03101
G1 X172.304 Y48.538 E0.03093
G1 X171.787 Y48.199 E0.03084
G1 X171.218 Y47.949 E0.03101
