;FLAVOR:RepRap
;TIME:1103
;Filament used: 0.781292m
;Layer height: 0.2
;Generated with Cura_SteamEngine 3.6.0
T0
M190 S60
M104 S200
M109 S200
M82 ;absolute extrusion mode
G21 ;metric values
G90 ;absolute positioning
M82 ;set extruder to absolute mode
M107 ;start with the fan off
G28 X0 Y0 ;move X/Y to min endstops
G28 Z0 ;move Z to min endstops
G1 Z15.0 F9000 ;move the platform down 15mm
G92 E0 ;zero the extruded length
G1 F200 E3 ;extrude 3mm of feed stock
G92 E0 ;zero the extruded length again
G1 F9000;Put printing message on LCD screen
M117 Printing..0
M83 ;relative extrusion mode
G1 F1500 E-6.5
;LAYER_COUNT:100
;LAYER:0
M107
;MESH:1_Wire_Holder.stl
G0 F600 X108.966 Y113.196 Z0.3
;TYPE:WALL-INNER
G1 F1500 E6.5
G1 X109.187 Y113.045 E0.01335
G1 X109.395 Y112.886 E0.01306
G1 X109.592 Y112.71 E0.01318
G1 X109.776 Y112.521 E0.01316
G1 X109.947 Y112.319 E0.0132
G1 X110.104 Y112.105 E0.01324
G1 X110.244 Y111.881 E0.01318
G1 X110.37 Y111.647 E0.01326
G1 X110.479 Y111.402 E0.01338
G1 X110.567 Y111.155 E0.01308
G1 X110.634 Y110.915 E0.01243
G1 X110.638 Y110.904 E0.00058
G1 X110.694 Y110.646 E0.01317
G1 X110.731 Y110.379 E0.01345
G1 X110.731 Y110.365 E0.0007
G1 X110.746 Y110.13 E0.01175
G1 X110.748 Y110.115 E0.00075
G1 X110.747 Y109.853 E0.01307
G1 X110.728 Y109.589 E0.01321
G1 X110.69 Y109.326 E0.01326
G1 X110.633 Y109.066 E0.01328
G1 X110.557 Y108.813 E0.01318
G1 X110.465 Y108.566 E0.01315
G1 X110.355 Y108.325 E0.01322
G1 X110.229 Y108.093 E0.01317
G1 X110.086 Y107.868 E0.0133
G1 X109.926 Y107.655 E0.01329
G1 X109.755 Y107.457 E0.01305
G1 X109.57 Y107.269 E0.01316
G1 X109.37 Y107.093 E0.01329
G1 X109.158 Y106.935 E0.01319
G1 X108.939 Y106.79 E0.0131
G1 X108.705 Y106.66 E0.01335
G1 X108.464 Y106.547 E0.01328
G1 X108.219 Y106.455 E0.01306
G1 X107.983 Y106.382 E0.01232
G1 X107.969 Y106.377 E0.00074
G1 X107.708 Y106.317 E0.01336
G1 X107.459 Y106.28 E0.01256
G1 X107.445 Y106.277 E0.00071
G1 X107.183 Y106.254 E0.01312
G1 X106.917 Y106.251 E0.01327
G1 X106.652 Y106.267 E0.01324
G1 X106.392 Y106.3 E0.01308
G1 X106.134 Y106.35 E0.01311
G1 X105.874 Y106.422 E0.01346
G1 X105.628 Y106.51 E0.01303
G1 X105.388 Y106.613 E0.01303
G1 X105.148 Y106.738 E0.0135
G1 X104.922 Y106.877 E0.01324
G1 X104.708 Y107.033 E0.01321
G1 X104.506 Y107.2 E0.01308
G1 X104.315 Y107.382 E0.01316
G1 X104.135 Y107.579 E0.01331
G1 X103.971 Y107.789 E0.01329
G1 X103.824 Y108.006 E0.01308
G1 X103.691 Y108.234 E0.01317
G1 X103.574 Y108.473 E0.01328
G1 X103.476 Y108.717 E0.01312
G1 X103.394 Y108.969 E0.01322
G1 X103.329 Y109.226 E0.01323
G1 X103.284 Y109.491 E0.01341
G1 X103.261 Y109.74 E0.01248
G1 X103.259 Y109.752 E0.00061
G1 X103.25 Y110.015 E0.01313
G1 X103.26 Y110.281 E0.01328
G1 X103.289 Y110.545 E0.01325
G1 X103.337 Y110.805 E0.01319
G1 X103.403 Y111.058 E0.01304
G1 X103.486 Y111.311 E0.01328
G1 X103.588 Y111.556 E0.01324
G1 X103.705 Y111.792 E0.01314
G1 X103.841 Y112.022 E0.01333
G1 X103.991 Y112.238 E0.01312
G1 X104.155 Y112.445 E0.01318
G1 X104.336 Y112.64 E0.01327
G1 X104.528 Y112.82 E0.01313
G1 X104.731 Y112.986 E0.01308
G1 X104.95 Y113.141 E0.01339
G1 X105.178 Y113.278 E0.01327
G1 X105.415 Y113.399 E0.01328
G1 X105.658 Y113.502 E0.01317
G1 X105.908 Y113.587 E0.01317
G1 X106.164 Y113.655 E0.01321
G1 X106.41 Y113.701 E0.01249
G1 X106.422 Y113.704 E0.00062
G1 X106.682 Y113.737 E0.01308
G1 X106.948 Y113.75 E0.01329
G1 X107.218 Y113.745 E0.01347
G1 X107.481 Y113.719 E0.01319
G1 X107.737 Y113.676 E0.01295
G1 X107.995 Y113.616 E0.01322
G1 X108.249 Y113.536 E0.01329
G1 X108.497 Y113.439 E0.01329
G1 X108.731 Y113.326 E0.01296
G1 X108.966 Y113.196 E0.0134
G0 F600 X108.756 Y112.855
G1 F1500 X108.953 Y112.721 E0.01189
G1 X109.14 Y112.578 E0.01174
G1 X109.315 Y112.421 E0.01173
G1 X109.48 Y112.252 E0.01178
G1 X109.633 Y112.071 E0.01182
G1 X109.773 Y111.88 E0.01181
G1 X109.898 Y111.68 E0.01177
G1 X110.011 Y111.471 E0.01185
G1 X110.107 Y111.254 E0.01184
G1 X110.186 Y111.033 E0.01171
G1 X110.25 Y110.807 E0.01172
G1 X110.3 Y110.576 E0.01179
G1 X110.333 Y110.339 E0.01194
G1 X110.348 Y110.103 E0.0118
G1 X110.347 Y109.868 E0.01172
G1 X110.33 Y109.632 E0.0118
G1 X110.296 Y109.398 E0.0118
G1 X110.245 Y109.166 E0.01185
G1 X110.178 Y108.94 E0.01176
G1 X110.095 Y108.719 E0.01178
G1 X109.997 Y108.504 E0.01179
G1 X109.884 Y108.296 E0.01181
G1 X109.757 Y108.096 E0.01182
G1 X109.614 Y107.906 E0.01186
G1 X109.461 Y107.728 E0.01171
G1 X109.295 Y107.56 E0.01178
G1 X109.118 Y107.404 E0.01177
G1 X108.928 Y107.262 E0.01183
G1 X108.731 Y107.132 E0.01178
G1 X108.523 Y107.016 E0.01188
G1 X108.309 Y106.916 E0.01178
G1 X108.089 Y106.833 E0.01173
G1 X107.865 Y106.763 E0.01171
G1 X107.633 Y106.71 E0.01187
G1 X107.398 Y106.674 E0.01186
G1 X107.163 Y106.654 E0.01177
G1 X106.926 Y106.651 E0.01182
G1 X106.689 Y106.665 E0.01184
G1 X106.456 Y106.695 E0.01172
G1 X106.226 Y106.74 E0.01169
G1 X105.995 Y106.804 E0.01196
G1 X105.774 Y106.883 E0.01171
G1 X105.559 Y106.975 E0.01167
G1 X105.346 Y107.086 E0.01198
G1 X105.145 Y107.21 E0.01178
G1 X104.953 Y107.349 E0.01183
G1 X104.772 Y107.499 E0.01173
G1 X104.601 Y107.662 E0.01179
G1 X104.441 Y107.837 E0.01183
G1 X104.295 Y108.024 E0.01184
G1 X104.163 Y108.219 E0.01175
G1 X104.044 Y108.423 E0.01178
G1 X103.94 Y108.636 E0.01183
G1 X103.852 Y108.854 E0.01173
G1 X103.779 Y109.08 E0.01185
G1 X103.721 Y109.309 E0.01179
G1 X103.681 Y109.544 E0.01189
G1 X103.658 Y109.778 E0.01173
G1 X103.65 Y110.014 E0.01178
G1 X103.659 Y110.251 E0.01183
G1 X103.685 Y110.486 E0.0118
G1 X103.728 Y110.718 E0.01177
G1 X103.787 Y110.946 E0.01175
G1 X103.861 Y111.172 E0.01186
G1 X103.952 Y111.39 E0.01179
G1 X104.057 Y111.601 E0.01176
G1 X104.178 Y111.806 E0.01188
G1 X104.312 Y111.999 E0.01172
G1 X104.459 Y112.184 E0.01179
G1 X104.62 Y112.358 E0.01183
G1 X104.792 Y112.519 E0.01175
G1 X104.974 Y112.668 E0.01173
G1 X105.169 Y112.806 E0.01192
G1 X105.372 Y112.928 E0.01182
G1 X105.584 Y113.036 E0.01187
G1 X105.801 Y113.128 E0.01176
G1 X106.024 Y113.204 E0.01175
G1 X106.253 Y113.265 E0.01182
G1 X106.484 Y113.309 E0.01173
G1 X106.717 Y113.338 E0.01171
G1 X106.954 Y113.35 E0.01184
G1 X107.194 Y113.345 E0.01198
G1 X107.429 Y113.322 E0.01178
G1 X107.659 Y113.284 E0.01163
G1 X107.889 Y113.23 E0.01179
G1 X108.116 Y113.159 E0.01187
G1 X108.337 Y113.072 E0.01185
G1 X108.547 Y112.971 E0.01163
G1 X108.756 Y112.855 E0.01193
G0 F600 X108.546 Y112.514
;TYPE:WALL-OUTER
G1 F1500 X108.719 Y112.397 E0.01042
G1 X108.884 Y112.27 E0.01039
G1 X109.038 Y112.132 E0.01032
G1 X109.184 Y111.983 E0.01041
G1 X109.318 Y111.824 E0.01037
G1 X109.442 Y111.655 E0.01046
G1 X109.552 Y111.479 E0.01035
G1 X109.651 Y111.295 E0.01042
G1 X109.735 Y111.105 E0.01036
G1 X109.805 Y110.91 E0.01034
G1 X109.862 Y110.71 E0.01038
G1 X109.906 Y110.506 E0.01041
G1 X109.935 Y110.299 E0.01043
G1 X109.948 Y110.091 E0.0104
G1 X109.947 Y109.883 E0.01038
G1 X109.932 Y109.675 E0.0104
G1 X109.902 Y109.47 E0.01034
G1 X109.857 Y109.266 E0.01042
G1 X109.798 Y109.067 E0.01036
G1 X109.725 Y108.872 E0.01039
G1 X109.639 Y108.683 E0.01036
G1 X109.539 Y108.499 E0.01045
G1 X109.428 Y108.324 E0.01034
G1 X109.302 Y108.157 E0.01044
G1 X109.167 Y107.999 E0.01037
G1 X109.02 Y107.851 E0.01041
G1 X108.865 Y107.714 E0.01032
G1 X108.698 Y107.589 E0.01041
G1 X108.524 Y107.474 E0.01041
G1 X108.341 Y107.373 E0.01043
G1 X108.153 Y107.285 E0.01036
G1 X107.959 Y107.211 E0.01036
G1 X107.761 Y107.15 E0.01034
G1 X107.557 Y107.103 E0.01044
G1 X107.351 Y107.071 E0.0104
G1 X107.144 Y107.054 E0.01036
G1 X106.935 Y107.051 E0.01043
G1 X106.727 Y107.063 E0.01039
G1 X106.521 Y107.09 E0.01037
G1 X106.318 Y107.13 E0.01032
G1 X106.116 Y107.186 E0.01046
G1 X105.92 Y107.256 E0.01038
G1 X105.73 Y107.337 E0.0103
G1 X105.544 Y107.434 E0.01047
G1 X105.367 Y107.543 E0.01037
G1 X105.198 Y107.665 E0.0104
G1 X105.038 Y107.798 E0.01038
G1 X104.887 Y107.942 E0.01041
G1 X104.747 Y108.096 E0.01038
G1 X104.618 Y108.26 E0.01041
G1 X104.502 Y108.432 E0.01035
G1 X104.397 Y108.612 E0.0104
G1 X104.306 Y108.799 E0.01038
G1 X104.228 Y108.991 E0.01034
G1 X104.164 Y109.19 E0.01043
G1 X104.113 Y109.392 E0.01039
G1 X104.078 Y109.598 E0.01042
G1 X104.057 Y109.805 E0.01038
G1 X104.05 Y110.013 E0.01038
G1 X104.058 Y110.221 E0.01038
G1 X104.081 Y110.427 E0.01034
G1 X104.119 Y110.632 E0.0104
G1 X104.171 Y110.834 E0.01041
G1 X104.236 Y111.032 E0.0104
G1 X104.316 Y111.223 E0.01033
G1 X104.409 Y111.41 E0.01042
G1 X104.515 Y111.59 E0.01042
G1 X104.633 Y111.76 E0.01032
G1 X104.763 Y111.923 E0.0104
G1 X104.904 Y112.076 E0.01038
G1 X105.056 Y112.218 E0.01038
G1 X105.217 Y112.35 E0.01039
G1 X105.388 Y112.471 E0.01045
G1 X105.566 Y112.578 E0.01036
G1 X105.753 Y112.673 E0.01046
G1 X105.944 Y112.754 E0.01035
G1 X106.14 Y112.821 E0.01033
G1 X106.342 Y112.875 E0.01043
G1 X106.546 Y112.914 E0.01036
G1 X106.752 Y112.939 E0.01035
G1 X106.96 Y112.95 E0.01039
G1 X107.17 Y112.945 E0.01048
G1 X107.377 Y112.925 E0.01038
G1 X107.581 Y112.891 E0.01032
G1 X107.784 Y112.844 E0.0104
G1 X107.983 Y112.782 E0.0104
G1 X108.177 Y112.705 E0.01041
G1 X108.363 Y112.616 E0.01029
G1 X108.546 Y112.514 E0.01045
G0 F600 X108.712 Y112.402
G0 X108.96 Y112.766
G0 X108.992 Y112.815
G0 X109.182 Y112.611
G0 X118.996 Y101
;TYPE:WALL-INNER
G1 F1500 X119 Y118.801 E0.8881
G1 X119 Y119 E0.00993
G1 X118.801 Y119 E0.00642
G1 X101 Y119 E0.8881
G1 X101 Y101 E0.89802
G1 X118.996 Y101 E0.89782
G0 F600 X119.396 Y100.6
G1 F1500 X119.4 Y119.201 E0.92801
G1 X119.4 Y119.4 E0.00993
G1 X119.201 Y119.4 E0.00642
G1 X100.6 Y119.4 E0.92801
G1 X100.6 Y100.6 E0.93794
G1 X119.396 Y100.6 E0.93774
G0 F600 X119.552 Y100.206
;TYPE:WALL-OUTER
G1 F1500 X119.641 Y100.236 E0.00469
G1 X119.712 Y100.288 E0.00439
G1 X119.765 Y100.36 E0.00446
G1 X119.796 Y100.458 E0.00513
G1 X119.8 Y119.492 E0.94961
G1 X119.783 Y119.598 E0.00536
G1 X119.741 Y119.679 E0.00455
G1 X119.675 Y119.744 E0.00462
G1 X119.591 Y119.785 E0.00466
G1 X119.497 Y119.8 E0.00475
G1 X100.504 Y119.8 E0.94756
G1 X100.402 Y119.783 E0.00516
G1 X100.321 Y119.741 E0.00455
G1 X100.256 Y119.675 E0.00462
G1 X100.215 Y119.591 E0.00466
G1 X100.2 Y119.5 E0.0046
G1 X100.2 Y100.5 E0.94791
G1 X100.217 Y100.402 E0.00496
G1 X100.259 Y100.321 E0.00455
G1 X100.325 Y100.256 E0.00462
G1 X100.409 Y100.215 E0.00466
G1 X100.503 Y100.2 E0.00475
G1 X119.496 Y100.2 E0.94756
G1 X119.552 Y100.206 E0.00281
G0 F600 X119.641 Y100.236
G0 X119.712 Y100.288
G0 X119.723 Y100.303
G0 X119.367 Y100.64
G0 X119.296 Y100.639
G0 X118.606 Y101.39
;TYPE:SKIN
G1 F1500 X118.61 Y118.61 E0.85911
G1 X101.39 Y118.61 E0.85911
G1 X101.39 Y101.39 E0.85911
G1 X118.606 Y101.39 E0.85891
G0 F600 X110.23 Y107.41
G1 F1500 X110.042 Y107.192 E0.01436
G1 X109.839 Y106.986 E0.01443
G1 X109.616 Y106.789 E0.01484
G1 X109.382 Y106.615 E0.01455
G1 X109.142 Y106.456 E0.01436
G1 X108.882 Y106.313 E0.0148
G1 X108.616 Y106.188 E0.01466
G1 X108.346 Y106.086 E0.0144
G1 X108.071 Y106.001 E0.01436
G1 X107.781 Y105.933 E0.01486
G1 X107.492 Y105.889 E0.01458
G1 X107.202 Y105.864 E0.01452
G1 X106.907 Y105.861 E0.01472
G1 X106.615 Y105.879 E0.0146
G1 X106.33 Y105.914 E0.01433
G1 X106.044 Y105.97 E0.01454
G1 X105.756 Y106.05 E0.01491
G1 X105.486 Y106.147 E0.01431
G1 X105.221 Y106.26 E0.01437
G1 X104.955 Y106.399 E0.01497
G1 X104.705 Y106.553 E0.01465
G1 X104.469 Y106.725 E0.01457
G1 X104.247 Y106.908 E0.01435
G1 X104.036 Y107.109 E0.01454
G1 X103.837 Y107.327 E0.01473
G1 X103.655 Y107.559 E0.01471
G1 X103.494 Y107.798 E0.01438
G1 X103.347 Y108.05 E0.01456
G1 X103.217 Y108.315 E0.01473
G1 X103.109 Y108.584 E0.01446
G1 X103.019 Y108.86 E0.01448
G1 X102.947 Y109.146 E0.01471
G1 X102.898 Y109.44 E0.01487
G1 X102.869 Y109.727 E0.01439
G1 X102.86 Y110.015 E0.01438
G1 X102.87 Y110.31 E0.01473
G1 X102.903 Y110.602 E0.01466
G1 X102.956 Y110.889 E0.01456
G1 X103.029 Y111.167 E0.01434
G1 X103.12 Y111.447 E0.01469
G1 X103.233 Y111.718 E0.01465
G1 X103.362 Y111.978 E0.01448
G1 X103.513 Y112.233 E0.01479
G1 X103.677 Y112.47 E0.01438
G1 X103.859 Y112.699 E0.01459
G1 X104.059 Y112.915 E0.01469
G1 X104.271 Y113.114 E0.01451
G1 X104.495 Y113.296 E0.0144
G1 X104.737 Y113.468 E0.01481
G1 X104.989 Y113.619 E0.01466
G1 X105.25 Y113.752 E0.01461
G1 X105.519 Y113.867 E0.0146
G1 X105.795 Y113.961 E0.01455
G1 X106.078 Y114.035 E0.01459
G1 X106.361 Y114.09 E0.01438
G1 X106.649 Y114.125 E0.01447
G1 X106.942 Y114.14 E0.01464
G1 X107.241 Y114.135 E0.01492
G1 X107.532 Y114.105 E0.01459
G1 X107.813 Y114.058 E0.01421
G1 X108.098 Y113.992 E0.01459
G1 X108.379 Y113.904 E0.01469
G1 X108.653 Y113.796 E0.01469
G1 X108.91 Y113.673 E0.01421
G1 X109.171 Y113.528 E0.0149
G1 X109.415 Y113.361 E0.01475
G1 X109.644 Y113.187 E0.01435
G1 X109.861 Y112.992 E0.01456
G1 X110.065 Y112.784 E0.01454
G1 X110.253 Y112.561 E0.01455
G1 X110.427 Y112.324 E0.01467
G1 X110.581 Y112.078 E0.01448
G1 X110.721 Y111.819 E0.01469
G1 X110.842 Y111.547 E0.01485
G1 X110.939 Y111.274 E0.01445
G1 X111.016 Y110.998 E0.0143
G1 X111.078 Y110.714 E0.0145
G1 X111.119 Y110.418 E0.01491
G1 X111.138 Y110.127 E0.01455
G1 X111.137 Y109.838 E0.01442
G1 X111.116 Y109.547 E0.01456
G1 X111.074 Y109.256 E0.01467
G1 X111.011 Y108.968 E0.01471
G1 X110.927 Y108.688 E0.01458
G1 X110.826 Y108.416 E0.01448
G1 X110.704 Y108.151 E0.01455
G1 X110.565 Y107.896 E0.01449
G1 X110.408 Y107.646 E0.01473
G1 X110.23 Y107.41 E0.01475
G0 F600 X118.425 Y102.02
G1 F1500 X117.975 Y101.57 E0.03175
G0 F600 X117.409 Y101.57
G1 F1500 X118.425 Y102.586 E0.07168
G0 F600 X118.425 Y103.152
G1 F1500 X116.843 Y101.57 E0.11162
G0 F600 X116.278 Y101.57
G1 F1500 X118.425 Y103.717 E0.15148
G0 F600 X118.426 Y104.284
G1 F1500 X115.712 Y101.57 E0.19149
G0 F600 X115.146 Y101.57
G1 F1500 X118.426 Y104.849 E0.23139
G0 F600 X118.426 Y105.415
G1 F1500 X114.58 Y101.57 E0.27132
G0 F600 X114.015 Y101.57
G1 F1500 X118.426 Y105.981 E0.31122
G0 F600 X118.426 Y106.547
G1 F1500 X113.449 Y101.57 E0.35115
G0 F600 X112.883 Y101.57
G1 F1500 X118.426 Y107.113 E0.39109
G0 F600 X118.426 Y107.678
G1 F1500 X112.318 Y101.57 E0.43095
G0 F600 X111.752 Y101.57
G1 F1500 X118.426 Y108.244 E0.47089
G0 F600 X118.427 Y108.811
G1 F1500 X111.186 Y101.57 E0.51089
G0 F600 X110.621 Y101.57
G1 F1500 X118.427 Y109.376 E0.55076
G0 F600 X118.427 Y109.942
G1 F1500 X110.055 Y101.57 E0.59069
G0 F600 X109.489 Y101.57
G1 F1500 X118.427 Y110.508 E0.63062
G0 F600 X118.427 Y111.073
G1 F1500 X108.924 Y101.57 E0.67049
G0 F600 X108.358 Y101.57
G1 F1500 X118.428 Y111.64 E0.71049
G0 F600 X118.428 Y112.205
G1 F1500 X107.792 Y101.57 E0.75039
G0 F600 X107.227 Y101.57
G1 F1500 X118.428 Y112.771 E0.79029
G0 F600 X118.428 Y113.337
G1 F1500 X106.661 Y101.57 E0.83023
G0 F600 X106.095 Y101.57
G1 F1500 X118.429 Y113.903 E0.8702
G0 F600 X118.429 Y114.469
G1 F1500 X105.53 Y101.57 E0.91009
G0 F600 X104.964 Y101.57
G1 F1500 X118.429 Y115.034 E0.94999
G0 F600 X118.429 Y115.6
G1 F1500 X110.822 Y107.993 E0.53671
G1 X110.752 Y107.923
G0 F600 X111.184 Y108.922
G1 F1500 X118.429 Y116.167 E0.51117
G0 F600 X118.429 Y116.732
G1 F1500 X111.299 Y109.602 E0.50306
G0 F600 X111.313 Y110.182
G1 F1500 X118.429 Y117.298 E0.50207
G0 F600 X118.429 Y117.864
G1 F1500 X111.26 Y110.694 E0.50585
G0 F600 X111.157 Y111.157
G1 F1500 X118.429 Y118.429 E0.51308
G0 F600 X117.863 Y118.429
G1 F1500 X111.019 Y111.584 E0.48292
G0 F600 X110.841 Y111.972
G1 F1500 X117.297 Y118.429 E0.45554
G0 F600 X116.732 Y118.429
G1 F1500 X110.633 Y112.33 E0.43032
G0 F600 X110.4 Y112.663
G1 F1500 X116.166 Y118.429 E0.40682
G0 F600 X115.6 Y118.429
G1 F1500 X110.137 Y112.965 E0.38548
G0 F600 X109.849 Y113.243
G1 F1500 X115.034 Y118.429 E0.36587
G0 F600 X114.469 Y118.429
G1 F1500 X109.535 Y113.494 E0.34816
G0 F600 X109.194 Y113.719
G1 F1500 X113.903 Y118.429 E0.33228
G0 F600 X113.337 Y118.429
