;FLAVOR:RepRap
;TIME:11569
;Filament used: 9.83709m
;Layer height: 0.2
;Generated with Cura_SteamEngine 3.6.0
T0
M190 S60
M104 S200
M109 S200
M82 ;absolute extrusion mode
G21 ;metric values
G90 ;absolute positioning
M82 ;set extruder to absolute mode
M107 ;start with the fan off
G28 X0 Y0 ;move X/Y to min endstops
G28 Z0 ;move Z to min endstops
G1 Z15.0 F9000 ;move the platform down 15mm
G92 E0 ;zero the extruded length
G1 F200 E3 ;extrude 3mm of feed stock
G92 E0 ;zero the extruded length again
G1 F9000;Put printing message on LCD screen
M117 Printing..0
M83 ;relative extrusion mode
G1 F1500 E-6.5
;LAYER_COUNT:237
;LAYER:0
M107
;MESH:1_Y_Motor_Mount.stl
G0 F600 X88.573 Y83.443 Z0.3
;TYPE:WALL-INNER
G1 F1500 E6.5
G1 X88.388 Y83.858 E0.02267
G1 X88.263 Y84.267 E0.02134
G1 X88.255 Y84.29 E0.00121
G1 X88.174 Y84.738 E0.02271
G1 X88.149 Y85.189 E0.02254
G1 X88.177 Y85.641 E0.02259
G1 X88.261 Y86.088 E0.02269
G1 X88.398 Y86.517 E0.02247
G1 X88.585 Y86.931 E0.02266
G1 X88.821 Y87.318 E0.02261
G1 X89.102 Y87.673 E0.02259
G1 X89.424 Y87.992 E0.02261
G1 X89.78 Y88.268 E0.02247
G1 X90.168 Y88.502 E0.02261
G1 X90.583 Y88.687 E0.02267
G1 X90.992 Y88.812 E0.02134
G1 X91.015 Y88.82 E0.00121
G1 X91.463 Y88.901 E0.02271
G1 X91.914 Y88.926 E0.02254
G1 X92.366 Y88.898 E0.02259
G1 X92.813 Y88.814 E0.02269
G1 X93.242 Y88.677 E0.02247
G1 X93.656 Y88.49 E0.02266
G1 X94.043 Y88.254 E0.02261
G1 X94.398 Y87.973 E0.02259
G1 X94.717 Y87.651 E0.02261
G1 X94.993 Y87.295 E0.02247
G1 X95.227 Y86.907 E0.02261
G1 X95.412 Y86.492 E0.02267
G1 X95.537 Y86.083 E0.02134
G1 X95.545 Y86.06 E0.00121
G1 X95.626 Y85.612 E0.02271
G1 X95.651 Y85.161 E0.02254
G1 X95.623 Y84.709 E0.02259
G1 X95.539 Y84.262 E0.02269
G1 X95.402 Y83.833 E0.02247
G1 X95.215 Y83.419 E0.02266
G1 X94.979 Y83.032 E0.02261
G1 X94.698 Y82.677 E0.02259
G1 X94.376 Y82.358 E0.02261
G1 X94.02 Y82.082 E0.02247
G1 X93.632 Y81.848 E0.02261
G1 X93.217 Y81.663 E0.02267
G1 X92.808 Y81.538 E0.02134
G1 X92.785 Y81.53 E0.00121
G1 X92.337 Y81.449 E0.02271
G1 X91.886 Y81.424 E0.02254
G1 X91.434 Y81.452 E0.02259
G1 X90.987 Y81.536 E0.02269
G1 X90.558 Y81.673 E0.02247
G1 X90.144 Y81.86 E0.02266
G1 X89.757 Y82.096 E0.02261
G1 X89.402 Y82.377 E0.02259
G1 X89.083 Y82.699 E0.02261
G1 X88.807 Y83.055 E0.02247
G1 X88.573 Y83.443 E0.02261
G0 F600 X88.928 Y83.628
G1 F1500 X88.763 Y83.999 E0.02026
G1 X88.644 Y84.385 E0.02015
G1 X88.572 Y84.785 E0.02028
G1 X88.55 Y85.188 E0.02014
G1 X88.575 Y85.591 E0.02014
G1 X88.65 Y85.99 E0.02025
G1 X88.772 Y86.374 E0.0201
G1 X88.939 Y86.744 E0.02025
G1 X89.15 Y87.089 E0.02018
G1 X89.401 Y87.406 E0.02017
G1 X89.688 Y87.691 E0.02018
G1 X90.007 Y87.938 E0.02013
G1 X90.353 Y88.147 E0.02017
G1 X90.724 Y88.312 E0.02026
G1 X91.11 Y88.431 E0.02015
G1 X91.51 Y88.503 E0.02028
G1 X91.913 Y88.525 E0.02014
G1 X92.316 Y88.5 E0.02014
G1 X92.715 Y88.425 E0.02025
G1 X93.099 Y88.303 E0.0201
G1 X93.469 Y88.136 E0.02025
G1 X93.814 Y87.925 E0.02018
G1 X94.131 Y87.674 E0.02017
G1 X94.416 Y87.387 E0.02018
G1 X94.663 Y87.068 E0.02013
G1 X94.872 Y86.722 E0.02017
G1 X95.037 Y86.351 E0.02026
G1 X95.156 Y85.965 E0.02015
G1 X95.228 Y85.565 E0.02028
G1 X95.25 Y85.162 E0.02014
G1 X95.225 Y84.759 E0.02014
G1 X95.15 Y84.36 E0.02025
G1 X95.028 Y83.976 E0.0201
G1 X94.861 Y83.606 E0.02025
G1 X94.65 Y83.261 E0.02018
G1 X94.399 Y82.944 E0.02017
G1 X94.112 Y82.659 E0.02018
G1 X93.793 Y82.412 E0.02013
G1 X93.447 Y82.203 E0.02017
G1 X93.076 Y82.038 E0.02026
G1 X92.69 Y81.919 E0.02015
G1 X92.29 Y81.847 E0.02028
G1 X91.887 Y81.825 E0.02014
G1 X91.484 Y81.85 E0.02014
G1 X91.085 Y81.925 E0.02025
G1 X90.701 Y82.047 E0.0201
G1 X90.331 Y82.214 E0.02025
G1 X89.986 Y82.425 E0.02018
G1 X89.669 Y82.676 E0.02017
G1 X89.384 Y82.963 E0.02018
G1 X89.137 Y83.282 E0.02013
G1 X88.928 Y83.628 E0.02017
G0 F600 X89.283 Y83.813
;TYPE:WALL-OUTER
G1 F1500 X89.138 Y84.14 E0.01785
G1 X89.033 Y84.48 E0.01775
G1 X88.97 Y84.831 E0.01779
G1 X88.951 Y85.186 E0.01774
G1 X88.973 Y85.541 E0.01774
G1 X89.039 Y85.892 E0.01782
G1 X89.146 Y86.231 E0.01774
G1 X89.293 Y86.556 E0.0178
G1 X89.479 Y86.86 E0.01778
G1 X89.7 Y87.139 E0.01776
G1 X89.952 Y87.39 E0.01774
G1 X90.234 Y87.608 E0.01778
G1 X90.538 Y87.792 E0.01773
G1 X90.865 Y87.937 E0.01785
G1 X91.205 Y88.042 E0.01775
G1 X91.556 Y88.105 E0.01779
G1 X91.911 Y88.124 E0.01774
G1 X92.266 Y88.102 E0.01774
G1 X92.617 Y88.036 E0.01782
G1 X92.956 Y87.929 E0.01774
G1 X93.281 Y87.782 E0.0178
G1 X93.585 Y87.596 E0.01778
G1 X93.864 Y87.375 E0.01776
G1 X94.115 Y87.123 E0.01774
G1 X94.333 Y86.841 E0.01778
G1 X94.517 Y86.537 E0.01773
G1 X94.662 Y86.21 E0.01785
G1 X94.767 Y85.87 E0.01775
G1 X94.83 Y85.519 E0.01779
G1 X94.849 Y85.164 E0.01774
G1 X94.827 Y84.809 E0.01774
G1 X94.761 Y84.458 E0.01782
G1 X94.654 Y84.119 E0.01774
G1 X94.507 Y83.794 E0.0178
G1 X94.321 Y83.49 E0.01778
G1 X94.1 Y83.211 E0.01776
G1 X93.848 Y82.96 E0.01774
G1 X93.566 Y82.742 E0.01778
G1 X93.262 Y82.558 E0.01773
G1 X92.935 Y82.413 E0.01785
G1 X92.595 Y82.308 E0.01775
G1 X92.244 Y82.245 E0.01779
G1 X91.889 Y82.226 E0.01774
G1 X91.534 Y82.248 E0.01774
G1 X91.183 Y82.314 E0.01782
G1 X90.844 Y82.421 E0.01774
G1 X90.519 Y82.568 E0.0178
G1 X90.215 Y82.754 E0.01778
G1 X89.936 Y82.975 E0.01776
G1 X89.685 Y83.227 E0.01774
G1 X89.467 Y83.509 E0.01778
G1 X89.283 Y83.813 E0.01773
G0 F600 X89.202 Y83.996
G0 X88.799 Y83.818
G0 X88.745 Y83.794
G0 X89.351 Y82.94
G0 X89.963 Y82.394
G0 X90.681 Y82.013
G0 X91.48 Y81.811
G0 X91.71 Y81.811
G0 X124.773 Y83.443
;TYPE:WALL-INNER
G1 F1500 X124.588 Y83.858 E0.02267
G1 X124.463 Y84.267 E0.02134
G1 X124.455 Y84.29 E0.00121
G1 X124.374 Y84.738 E0.02271
G1 X124.349 Y85.189 E0.02254
G1 X124.377 Y85.641 E0.02259
G1 X124.461 Y86.088 E0.02269
G1 X124.598 Y86.517 E0.02247
G1 X124.785 Y86.931 E0.02266
G1 X125.021 Y87.318 E0.02261
G1 X125.302 Y87.673 E0.02259
G1 X125.624 Y87.992 E0.02261
G1 X125.98 Y88.268 E0.02247
G1 X126.368 Y88.502 E0.02261
G1 X126.783 Y88.687 E0.02267
G1 X127.192 Y88.812 E0.02134
G1 X127.215 Y88.82 E0.00121
G1 X127.663 Y88.901 E0.02271
G1 X128.114 Y88.926 E0.02254
G1 X128.566 Y88.898 E0.02259
G1 X129.013 Y88.814 E0.02269
G1 X129.442 Y88.677 E0.02247
G1 X129.856 Y88.49 E0.02266
G1 X130.243 Y88.254 E0.02261
G1 X130.598 Y87.973 E0.02259
G1 X130.917 Y87.651 E0.02261
G1 X131.193 Y87.295 E0.02247
G1 X131.427 Y86.907 E0.02261
G1 X131.612 Y86.492 E0.02267
G1 X131.737 Y86.083 E0.02134
G1 X131.745 Y86.06 E0.00121
G1 X131.826 Y85.612 E0.02271
G1 X131.851 Y85.161 E0.02254
G1 X131.823 Y84.709 E0.02259
G1 X131.739 Y84.262 E0.02269
G1 X131.602 Y83.833 E0.02247
G1 X131.415 Y83.419 E0.02266
G1 X131.179 Y83.032 E0.02261
G1 X130.898 Y82.677 E0.02259
G1 X130.576 Y82.358 E0.02261
G1 X130.22 Y82.082 E0.02247
G1 X129.832 Y81.848 E0.02261
G1 X129.417 Y81.663 E0.02267
G1 X129.008 Y81.538 E0.02134
G1 X128.985 Y81.53 E0.00121
G1 X128.537 Y81.449 E0.02271
G1 X128.086 Y81.424 E0.02254
G1 X127.634 Y81.452 E0.02259
G1 X127.187 Y81.536 E0.02269
G1 X126.758 Y81.673 E0.02247
G1 X126.344 Y81.86 E0.02266
G1 X125.957 Y82.096 E0.02261
G1 X125.602 Y82.377 E0.02259
G1 X125.283 Y82.699 E0.02261
G1 X125.007 Y83.055 E0.02247
G1 X124.773 Y83.443 E0.02261
G0 F600 X125.128 Y83.628
G1 F1500 X124.963 Y83.999 E0.02026
G1 X124.844 Y84.385 E0.02015
G1 X124.772 Y84.785 E0.02028
G1 X124.75 Y85.188 E0.02014
G1 X124.775 Y85.591 E0.02014
G1 X124.85 Y85.99 E0.02025
G1 X124.972 Y86.374 E0.0201
G1 X125.139 Y86.744 E0.02025
G1 X125.35 Y87.089 E0.02018
G1 X125.601 Y87.406 E0.02017
G1 X125.888 Y87.691 E0.02018
G1 X126.207 Y87.938 E0.02013
G1 X126.553 Y88.147 E0.02017
G1 X126.924 Y88.312 E0.02026
G1 X127.31 Y88.431 E0.02015
G1 X127.71 Y88.503 E0.02028
G1 X128.113 Y88.525 E0.02014
G1 X128.516 Y88.5 E0.02014
G1 X128.915 Y88.425 E0.02025
G1 X129.299 Y88.303 E0.0201
G1 X129.669 Y88.136 E0.02025
G1 X130.014 Y87.925 E0.02018
G1 X130.331 Y87.674 E0.02017
G1 X130.616 Y87.387 E0.02018
G1 X130.863 Y87.068 E0.02013
G1 X131.072 Y86.722 E0.02017
G1 X131.237 Y86.351 E0.02026
G1 X131.356 Y85.965 E0.02015
G1 X131.428 Y85.565 E0.02028
G1 X131.45 Y85.162 E0.02014
G1 X131.425 Y84.759 E0.02014
G1 X131.35 Y84.36 E0.02025
G1 X131.228 Y83.976 E0.0201
G1 X131.061 Y83.606 E0.02025
G1 X130.85 Y83.261 E0.02018
G1 X130.599 Y82.944 E0.02017
G1 X130.312 Y82.659 E0.02018
G1 X129.993 Y82.412 E0.02013
G1 X129.647 Y82.203 E0.02017
G1 X129.276 Y82.038 E0.02026
G1 X128.89 Y81.919 E0.02015
G1 X128.49 Y81.847 E0.02028
G1 X128.087 Y81.825 E0.02014
G1 X127.684 Y81.85 E0.02014
G1 X127.285 Y81.925 E0.02025
G1 X126.901 Y82.047 E0.0201
G1 X126.531 Y82.214 E0.02025
G1 X126.186 Y82.425 E0.02018
G1 X125.869 Y82.676 E0.02017
G1 X125.584 Y82.963 E0.02018
G1 X125.337 Y83.282 E0.02013
G1 X125.128 Y83.628 E0.02017
G0 F600 X125.483 Y83.813
;TYPE:WALL-OUTER
G1 F1500 X125.338 Y84.14 E0.01785
G1 X125.233 Y84.48 E0.01775
G1 X125.17 Y84.831 E0.01779
G1 X125.151 Y85.186 E0.01774
G1 X125.173 Y85.541 E0.01774
G1 X125.239 Y85.892 E0.01782
G1 X125.346 Y86.231 E0.01774
G1 X125.493 Y86.556 E0.0178
G1 X125.679 Y86.86 E0.01778
G1 X125.9 Y87.139 E0.01776
G1 X126.152 Y87.39 E0.01774
G1 X126.434 Y87.608 E0.01778
G1 X126.738 Y87.792 E0.01773
G1 X127.065 Y87.937 E0.01785
G1 X127.405 Y88.042 E0.01775
G1 X127.756 Y88.105 E0.01779
G1 X128.111 Y88.124 E0.01774
G1 X128.466 Y88.102 E0.01774
G1 X128.817 Y88.036 E0.01782
G1 X129.156 Y87.929 E0.01774
G1 X129.481 Y87.782 E0.0178
G1 X129.785 Y87.596 E0.01778
G1 X130.064 Y87.375 E0.01776
G1 X130.315 Y87.123 E0.01774
G1 X130.533 Y86.841 E0.01778
G1 X130.717 Y86.537 E0.01773
G1 X130.862 Y86.21 E0.01785
G1 X130.967 Y85.87 E0.01775
G1 X131.03 Y85.519 E0.01779
G1 X131.049 Y85.164 E0.01774
G1 X131.027 Y84.809 E0.01774
G1 X130.961 Y84.458 E0.01782
G1 X130.854 Y84.119 E0.01774
G1 X130.707 Y83.794 E0.0178
G1 X130.521 Y83.49 E0.01778
G1 X130.3 Y83.211 E0.01776
G1 X130.048 Y82.96 E0.01774
G1 X129.766 Y82.742 E0.01778
G1 X129.462 Y82.558 E0.01773
G1 X129.135 Y82.413 E0.01785
G1 X128.795 Y82.308 E0.01775
G1 X128.444 Y82.245 E0.01779
G1 X128.089 Y82.226 E0.01774
G1 X127.734 Y82.248 E0.01774
G1 X127.383 Y82.314 E0.01782
G1 X127.044 Y82.421 E0.01774
G1 X126.719 Y82.568 E0.0178
G1 X126.415 Y82.754 E0.01778
G1 X126.136 Y82.975 E0.01776
G1 X125.885 Y83.227 E0.01774
G1 X125.667 Y83.509 E0.01778
G1 X125.483 Y83.813 E0.01773
G0 F600 X125.402 Y83.996
G0 X124.999 Y83.818
G0 X124.945 Y83.794
G0 X124.733 Y84.78
G0 X124.773 Y103.443
;TYPE:WALL-INNER
G1 F1500 X124.588 Y103.858 E0.02267
G1 X124.463 Y104.267 E0.02134
G1 X124.455 Y104.29 E0.00121
G1 X124.374 Y104.738 E0.02271
G1 X124.349 Y105.189 E0.02254
G1 X124.377 Y105.641 E0.02259
G1 X124.461 Y106.088 E0.02269
G1 X124.598 Y106.517 E0.02247
G1 X124.785 Y106.931 E0.02266
G1 X125.021 Y107.318 E0.02261
G1 X125.302 Y107.673 E0.02259
G1 X125.624 Y107.992 E0.02261
G1 X125.98 Y108.268 E0.02247
G1 X126.368 Y108.502 E0.02261
G1 X126.783 Y108.687 E0.02267
G1 X127.192 Y108.812 E0.02134
G1 X127.215 Y108.82 E0.00121
G1 X127.663 Y108.901 E0.02271
G1 X128.114 Y108.926 E0.02254
G1 X128.566 Y108.898 E0.02259
G1 X129.013 Y108.814 E0.02269
G1 X129.442 Y108.677 E0.02247
G1 X129.856 Y108.49 E0.02266
G1 X130.243 Y108.254 E0.02261
G1 X130.598 Y107.973 E0.02259
G1 X130.917 Y107.651 E0.02261
G1 X131.193 Y107.295 E0.02247
G1 X131.427 Y106.907 E0.02261
G1 X131.612 Y106.492 E0.02267
G1 X131.737 Y106.083 E0.02134
G1 X131.745 Y106.06 E0.00121
G1 X131.826 Y105.612 E0.02271
G1 X131.851 Y105.161 E0.02254
G1 X131.823 Y104.709 E0.02259
G1 X131.739 Y104.262 E0.02269
G1 X131.602 Y103.833 E0.02247
G1 X131.415 Y103.419 E0.02266
G1 X131.179 Y103.032 E0.02261
G1 X130.898 Y102.677 E0.02259
G1 X130.576 Y102.358 E0.02261
G1 X130.22 Y102.082 E0.02247
G1 X129.832 Y101.848 E0.02261
G1 X129.417 Y101.663 E0.02267
G1 X129.008 Y101.538 E0.02134
G1 X128.985 Y101.53 E0.00121
G1 X128.537 Y101.449 E0.02271
G1 X128.086 Y101.424 E0.02254
G1 X127.634 Y101.452 E0.02259
G1 X127.187 Y101.536 E0.02269
G1 X126.758 Y101.673 E0.02247
G1 X126.344 Y101.86 E0.02266
G1 X125.957 Y102.096 E0.02261
G1 X125.602 Y102.377 E0.02259
G1 X125.283 Y102.699 E0.02261
G1 X125.007 Y103.055 E0.02247
G1 X124.773 Y103.443 E0.02261
G0 F600 X125.128 Y103.628
G1 F1500 X124.963 Y103.999 E0.02026
G1 X124.844 Y104.385 E0.02015
G1 X124.772 Y104.785 E0.02028
G1 X124.75 Y105.188 E0.02014
G1 X124.775 Y105.591 E0.02014
G1 X124.85 Y105.99 E0.02025
G1 X124.972 Y106.374 E0.0201
G1 X125.139 Y106.744 E0.02025
G1 X125.35 Y107.089 E0.02018
G1 X125.601 Y107.406 E0.02017
G1 X125.888 Y107.691 E0.02018
G1 X126.207 Y107.938 E0.02013
G1 X126.553 Y108.147 E0.02017
G1 X126.924 Y108.312 E0.02026
G1 X127.31 Y108.431 E0.02015
G1 X127.71 Y108.503 E0.02028
G1 X128.113 Y108.525 E0.02014
G1 X128.516 Y108.5 E0.02014
G1 X128.915 Y108.425 E0.02025
G1 X129.299 Y108.303 E0.0201
G1 X129.669 Y108.136 E0.02025
G1 X130.014 Y107.925 E0.02018
G1 X130.331 Y107.674 E0.02017
G1 X130.616 Y107.387 E0.02018
G1 X130.863 Y107.068 E0.02013
G1 X131.072 Y106.722 E0.02017
G1 X131.237 Y106.351 E0.02026
G1 X131.356 Y105.965 E0.02015
G1 X131.428 Y105.565 E0.02028
G1 X131.45 Y105.162 E0.02014
G1 X131.425 Y104.759 E0.02014
G1 X131.35 Y104.36 E0.02025
G1 X131.228 Y103.976 E0.0201
G1 X131.061 Y103.606 E0.02025
G1 X130.85 Y103.261 E0.02018
G1 X130.599 Y102.944 E0.02017
G1 X130.312 Y102.659 E0.02018
G1 X129.993 Y102.412 E0.02013
G1 X129.647 Y102.203 E0.02017
G1 X129.276 Y102.038 E0.02026
G1 X128.89 Y101.919 E0.02015
G1 X128.49 Y101.847 E0.02028
G1 X128.087 Y101.825 E0.02014
G1 X127.684 Y101.85 E0.02014
G1 X127.285 Y101.925 E0.02025
G1 X126.901 Y102.047 E0.0201
G1 X126.531 Y102.214 E0.02025
G1 X126.186 Y102.425 E0.02018
G1 X125.869 Y102.676 E0.02017
G1 X125.584 Y102.963 E0.02018
G1 X125.337 Y103.282 E0.02013
G1 X125.128 Y103.628 E0.02017
G0 F600 X125.483 Y103.813
;TYPE:WALL-OUTER
G1 F1500 X125.338 Y104.14 E0.01785
G1 X125.233 Y104.48 E0.01775
G1 X125.17 Y104.831 E0.01779
G1 X125.151 Y105.186 E0.01774
G1 X125.173 Y105.541 E0.01774
G1 X125.239 Y105.892 E0.01782
G1 X125.346 Y106.231 E0.01774
G1 X125.493 Y106.556 E0.0178
G1 X125.679 Y106.86 E0.01778
G1 X125.9 Y107.139 E0.01776
G1 X126.152 Y107.39 E0.01774
G1 X126.434 Y107.608 E0.01778
G1 X126.738 Y107.792 E0.01773
G1 X127.065 Y107.937 E0.01785
G1 X127.405 Y108.042 E0.01775
G1 X127.756 Y108.105 E0.01779
G1 X128.111 Y108.124 E0.01774
G1 X128.466 Y108.102 E0.01774
G1 X128.817 Y108.036 E0.01782
G1 X129.156 Y107.929 E0.01774
G1 X129.481 Y107.782 E0.0178
G1 X129.785 Y107.596 E0.01778
G1 X130.064 Y107.375 E0.01776
G1 X130.315 Y107.123 E0.01774
G1 X130.533 Y106.841 E0.01778
G1 X130.717 Y106.537 E0.01773
G1 X130.862 Y106.21 E0.01785
G1 X130.967 Y105.87 E0.01775
G1 X131.03 Y105.519 E0.01779
G1 X131.049 Y105.164 E0.01774
G1 X131.027 Y104.809 E0.01774
G1 X130.961 Y104.458 E0.01782
G1 X130.854 Y104.119 E0.01774
G1 X130.707 Y103.794 E0.0178
G1 X130.521 Y103.49 E0.01778
G1 X130.3 Y103.211 E0.01776
G1 X130.048 Y102.96 E0.01774
G1 X129.766 Y102.742 E0.01778
G1 X129.462 Y102.558 E0.01773
G1 X129.135 Y102.413 E0.01785
G1 X128.795 Y102.308 E0.01775
G1 X128.444 Y102.245 E0.01779
G1 X128.089 Y102.226 E0.01774
G1 X127.734 Y102.248 E0.01774
G1 X127.383 Y102.314 E0.01782
G1 X127.044 Y102.421 E0.01774
G1 X126.719 Y102.568 E0.0178
G1 X126.415 Y102.754 E0.01778
G1 X126.136 Y102.975 E0.01776
G1 X125.885 Y103.227 E0.01774
G1 X125.667 Y103.509 E0.01778
G1 X125.483 Y103.813 E0.01773
G0 F600 X125.402 Y103.996
G0 X124.999 Y103.818
G0 X124.945 Y103.794
G0 X102.9 Y114.175
;TYPE:WALL-INNER
G1 F1500 X82.9 Y114.175 E0.9978
G1 X82.9 Y76.175 E1.89583
G1 X137.1 Y76.175 E2.70405
G1 X137.1 Y114.41 E1.90755
G1 X107.686 Y143.825 E2.07535
G1 X102.9 Y143.825 E0.23877
G1 X102.9 Y114.175 E1.47924
G0 F600 X102.5 Y114.575
G1 F1500 X82.5 Y114.575 E0.9978
