;FLAVOR:RepRap
;TIME:3229
;Filament used: 2.75725m
;Layer height: 0.2
;Generated with Cura_SteamEngine 3.6.0
T0
M190 S60
M104 S200
M109 S200
M82 ;absolute extrusion mode
G21 ;metric values
G90 ;absolute positioning
M82 ;set extruder to absolute mode
M107 ;start with the fan off
G28 X0 Y0 ;move X/Y to min endstops
G28 Z0 ;move Z to min endstops
G1 Z15.0 F9000 ;move the platform down 15mm
G92 E0 ;zero the extruded length
G1 F200 E3 ;extrude 3mm of feed stock
G92 E0 ;zero the extruded length again
G1 F9000;Put printing message on LCD screen
M117 Printing..0
M83 ;relative extrusion mode
G1 F1500 E-6.5
;LAYER_COUNT:75
;LAYER:0
M107
;MESH:1_Y_Belt_Block.stl
G0 F600 X88.661 Y107.067 Z0.3
;TYPE:WALL-INNER
G1 F1500 E6.5
G1 X88.408 Y107.289 E0.01679
G1 X88.176 Y107.531 E0.01673
G1 X87.965 Y107.796 E0.0169
G1 X87.779 Y108.077 E0.01681
G1 X87.62 Y108.374 E0.01681
G1 X87.488 Y108.682 E0.01672
G1 X87.384 Y109.001 E0.01674
G1 X87.309 Y109.331 E0.01688
G1 X87.264 Y109.664 E0.01676
G1 X87.25 Y110 E0.01678
G1 X87.264 Y110.336 E0.01678
G1 X87.309 Y110.669 E0.01676
G1 X87.384 Y110.999 E0.01688
G1 X87.488 Y111.318 E0.01674
G1 X87.62 Y111.626 E0.01672
G1 X87.779 Y111.923 E0.01681
G1 X87.965 Y112.204 E0.01681
G1 X88.176 Y112.469 E0.0169
G1 X88.408 Y112.711 E0.01673
G1 X88.661 Y112.933 E0.01679
G1 X88.935 Y113.13 E0.01684
G1 X89.222 Y113.304 E0.01674
G1 X89.527 Y113.449 E0.01685
G1 X89.84 Y113.567 E0.01669
G1 X90.165 Y113.656 E0.01681
G1 X90.18 Y113.658 E0.00075
G1 X90.496 Y113.717 E0.01604
G1 X90.832 Y113.747 E0.01683
G1 X91.168 Y113.747 E0.01676
G1 X91.504 Y113.717 E0.01683
G1 X91.835 Y113.656 E0.01679
G1 X92.16 Y113.567 E0.01681
G1 X92.473 Y113.449 E0.01669
G1 X92.778 Y113.304 E0.01685
G1 X93.065 Y113.13 E0.01674
G1 X93.339 Y112.933 E0.01684
G1 X93.592 Y112.711 E0.01679
G1 X93.824 Y112.469 E0.01673
G1 X94.035 Y112.204 E0.0169
G1 X94.221 Y111.923 E0.01681
G1 X94.38 Y111.626 E0.01681
G1 X94.512 Y111.318 E0.01672
G1 X94.616 Y110.999 E0.01674
G1 X94.691 Y110.669 E0.01688
G1 X94.736 Y110.336 E0.01676
G1 X94.75 Y110 E0.01678
G1 X94.736 Y109.664 E0.01678
G1 X94.691 Y109.331 E0.01676
G1 X94.616 Y109.001 E0.01688
G1 X94.512 Y108.682 E0.01674
G1 X94.38 Y108.374 E0.01672
G1 X94.221 Y108.077 E0.01681
G1 X94.035 Y107.796 E0.01681
G1 X93.824 Y107.531 E0.0169
G1 X93.592 Y107.289 E0.01673
G1 X93.339 Y107.067 E0.01679
G1 X93.065 Y106.87 E0.01684
G1 X92.778 Y106.696 E0.01674
G1 X92.473 Y106.551 E0.01685
G1 X92.16 Y106.433 E0.01669
G1 X91.835 Y106.344 E0.01681
G1 X91.82 Y106.342 E0.00075
G1 X91.504 Y106.283 E0.01604
G1 X91.168 Y106.253 E0.01683
G1 X90.832 Y106.253 E0.01676
G1 X90.496 Y106.283 E0.01683
G1 X90.165 Y106.344 E0.01679
G1 X89.84 Y106.433 E0.01681
G1 X89.527 Y106.551 E0.01669
G1 X89.222 Y106.696 E0.01685
G1 X88.935 Y106.87 E0.01674
G1 X88.661 Y107.067 E0.01684
G0 F600 X88.91 Y107.38
G1 F1500 X88.685 Y107.578 E0.01495
G1 X88.477 Y107.795 E0.015
G1 X88.289 Y108.031 E0.01505
G1 X88.123 Y108.282 E0.01501
G1 X87.981 Y108.547 E0.015
G1 X87.863 Y108.823 E0.01498
G1 X87.77 Y109.108 E0.01496
G1 X87.703 Y109.402 E0.01504
G1 X87.663 Y109.699 E0.01495
G1 X87.65 Y110 E0.01503
G1 X87.663 Y110.301 E0.01503
G1 X87.703 Y110.598 E0.01495
G1 X87.77 Y110.892 E0.01504
G1 X87.863 Y111.177 E0.01496
G1 X87.981 Y111.453 E0.01498
G1 X88.123 Y111.718 E0.015
G1 X88.289 Y111.969 E0.01501
G1 X88.477 Y112.205 E0.01505
G1 X88.685 Y112.422 E0.015
G1 X88.91 Y112.62 E0.01495
G1 X89.155 Y112.796 E0.01505
G1 X89.412 Y112.951 E0.01497
G1 X89.684 Y113.081 E0.01504
G1 X89.964 Y113.186 E0.01492
G1 X90.254 Y113.266 E0.01501
G1 X90.55 Y113.32 E0.01501
G1 X90.85 Y113.347 E0.01503
G1 X91.15 Y113.347 E0.01497
G1 X91.45 Y113.32 E0.01503
G1 X91.746 Y113.266 E0.01501
G1 X92.036 Y113.186 E0.01501
G1 X92.316 Y113.081 E0.01492
G1 X92.588 Y112.951 E0.01504
G1 X92.845 Y112.796 E0.01497
G1 X93.09 Y112.62 E0.01505
G1 X93.315 Y112.422 E0.01495
G1 X93.523 Y112.205 E0.015
G1 X93.711 Y111.969 E0.01505
G1 X93.877 Y111.718 E0.01501
G1 X94.019 Y111.453 E0.015
G1 X94.137 Y111.177 E0.01498
G1 X94.23 Y110.892 E0.01496
G1 X94.297 Y110.598 E0.01504
G1 X94.337 Y110.301 E0.01495
G1 X94.35 Y110 E0.01503
G1 X94.337 Y109.699 E0.01503
G1 X94.297 Y109.402 E0.01495
G1 X94.23 Y109.108 E0.01504
G1 X94.137 Y108.823 E0.01496
G1 X94.019 Y108.547 E0.01498
G1 X93.877 Y108.282 E0.015
G1 X93.711 Y108.031 E0.01501
G1 X93.523 Y107.795 E0.01505
G1 X93.315 Y107.578 E0.015
G1 X93.09 Y107.38 E0.01495
G1 X92.845 Y107.204 E0.01505
G1 X92.588 Y107.049 E0.01497
G1 X92.316 Y106.919 E0.01504
G1 X92.036 Y106.814 E0.01492
G1 X91.746 Y106.734 E0.01501
G1 X91.45 Y106.68 E0.01501
G1 X91.15 Y106.653 E0.01503
G1 X90.85 Y106.653 E0.01497
G1 X90.55 Y106.68 E0.01503
G1 X90.254 Y106.734 E0.01501
G1 X89.964 Y106.814 E0.01501
G1 X89.684 Y106.919 E0.01492
G1 X89.412 Y107.049 E0.01504
G1 X89.155 Y107.204 E0.01497
G1 X88.91 Y107.38 E0.01505
G0 F600 X89.16 Y107.693
;TYPE:WALL-OUTER
G1 F1500 X88.962 Y107.867 E0.01315
G1 X88.778 Y108.059 E0.01327
G1 X88.613 Y108.266 E0.01321
G1 X88.467 Y108.487 E0.01321
G1 X88.342 Y108.72 E0.01319
G1 X88.238 Y108.964 E0.01323
G1 X88.156 Y109.215 E0.01317
G1 X88.097 Y109.473 E0.0132
G1 X88.062 Y109.735 E0.01319
G1 X88.05 Y110 E0.01323
G1 X88.062 Y110.265 E0.01323
G1 X88.097 Y110.527 E0.01319
G1 X88.156 Y110.785 E0.0132
G1 X88.238 Y111.036 E0.01317
G1 X88.342 Y111.28 E0.01323
G1 X88.467 Y111.513 E0.01319
G1 X88.613 Y111.734 E0.01321
G1 X88.778 Y111.941 E0.01321
G1 X88.962 Y112.133 E0.01327
G1 X89.16 Y112.307 E0.01315
G1 X89.375 Y112.462 E0.01322
G1 X89.602 Y112.598 E0.0132
G1 X89.841 Y112.713 E0.01323
G1 X90.088 Y112.805 E0.01315
G1 X90.343 Y112.876 E0.01321
G1 X90.604 Y112.923 E0.01323
G1 X90.868 Y112.947 E0.01323
G1 X91.132 Y112.947 E0.01317
G1 X91.396 Y112.923 E0.01323
G1 X91.657 Y112.876 E0.01323
G1 X91.912 Y112.805 E0.01321
G1 X92.159 Y112.713 E0.01315
G1 X92.398 Y112.598 E0.01323
G1 X92.625 Y112.462 E0.0132
G1 X92.84 Y112.307 E0.01322
G1 X93.038 Y112.133 E0.01315
G1 X93.222 Y111.941 E0.01327
G1 X93.387 Y111.734 E0.01321
G1 X93.533 Y111.513 E0.01321
G1 X93.658 Y111.28 E0.01319
G1 X93.762 Y111.036 E0.01323
G1 X93.844 Y110.785 E0.01317
G1 X93.903 Y110.527 E0.0132
G1 X93.938 Y110.265 E0.01319
G1 X93.95 Y110 E0.01323
G1 X93.938 Y109.735 E0.01323
G1 X93.903 Y109.473 E0.01319
G1 X93.844 Y109.215 E0.0132
G1 X93.762 Y108.964 E0.01317
G1 X93.658 Y108.72 E0.01323
G1 X93.533 Y108.487 E0.01319
G1 X93.387 Y108.266 E0.01321
G1 X93.222 Y108.059 E0.01321
G1 X93.038 Y107.867 E0.01327
G1 X92.84 Y107.693 E0.01315
G1 X92.625 Y107.538 E0.01322
G1 X92.398 Y107.402 E0.0132
G1 X92.159 Y107.287 E0.01323
G1 X91.912 Y107.195 E0.01315
G1 X91.657 Y107.124 E0.01321
G1 X91.396 Y107.077 E0.01323
G1 X91.132 Y107.053 E0.01323
G1 X90.868 Y107.053 E0.01317
G1 X90.604 Y107.077 E0.01323
G1 X90.343 Y107.124 E0.01323
G1 X90.088 Y107.195 E0.01321
G1 X89.841 Y107.287 E0.01315
G1 X89.602 Y107.402 E0.01323
G1 X89.375 Y107.538 E0.0132
G1 X89.16 Y107.693 E0.01322
G0 F600 X89.01 Y107.825
G0 X88.719 Y107.494
G0 X88.68 Y107.45
G0 X89.669 Y106.883
G0 X90.545 Y106.641
G0 X126.661 Y107.067
;TYPE:WALL-INNER
G1 F1500 X126.408 Y107.289 E0.01679
G1 X126.176 Y107.531 E0.01673
G1 X125.965 Y107.796 E0.0169
G1 X125.779 Y108.077 E0.01681
G1 X125.62 Y108.374 E0.01681
G1 X125.488 Y108.682 E0.01672
G1 X125.384 Y109.001 E0.01674
G1 X125.309 Y109.331 E0.01688
G1 X125.264 Y109.664 E0.01676
G1 X125.25 Y110 E0.01678
G1 X125.264 Y110.336 E0.01678
G1 X125.309 Y110.669 E0.01676
G1 X125.384 Y110.999 E0.01688
G1 X125.488 Y111.318 E0.01674
G1 X125.62 Y111.626 E0.01672
G1 X125.779 Y111.923 E0.01681
G1 X125.965 Y112.204 E0.01681
G1 X126.176 Y112.469 E0.0169
G1 X126.408 Y112.711 E0.01673
G1 X126.661 Y112.933 E0.01679
G1 X126.935 Y113.13 E0.01684
G1 X127.222 Y113.304 E0.01674
G1 X127.527 Y113.449 E0.01685
G1 X127.84 Y113.567 E0.01669
G1 X128.165 Y113.656 E0.01681
G1 X128.18 Y113.658 E0.00075
G1 X128.496 Y113.717 E0.01604
G1 X128.832 Y113.747 E0.01683
G1 X129.168 Y113.747 E0.01676
G1 X129.504 Y113.717 E0.01683
G1 X129.835 Y113.656 E0.01679
G1 X130.16 Y113.567 E0.01681
G1 X130.473 Y113.449 E0.01669
G1 X130.778 Y113.304 E0.01685
G1 X131.065 Y113.13 E0.01674
G1 X131.339 Y112.933 E0.01684
G1 X131.592 Y112.711 E0.01679
G1 X131.824 Y112.469 E0.01673
G1 X132.035 Y112.204 E0.0169
G1 X132.221 Y111.923 E0.01681
G1 X132.38 Y111.626 E0.01681
G1 X132.512 Y111.318 E0.01672
G1 X132.616 Y110.999 E0.01674
G1 X132.691 Y110.669 E0.01688
G1 X132.736 Y110.336 E0.01676
G1 X132.75 Y110 E0.01678
G1 X132.736 Y109.664 E0.01678
G1 X132.691 Y109.331 E0.01676
G1 X132.616 Y109.001 E0.01688
G1 X132.512 Y108.682 E0.01674
G1 X132.38 Y108.374 E0.01672
G1 X132.221 Y108.077 E0.01681
G1 X132.035 Y107.796 E0.01681
G1 X131.824 Y107.531 E0.0169
G1 X131.592 Y107.289 E0.01673
G1 X131.339 Y107.067 E0.01679
G1 X131.065 Y106.87 E0.01684
G1 X130.778 Y106.696 E0.01674
G1 X130.473 Y106.551 E0.01685
G1 X130.16 Y106.433 E0.01669
G1 X129.835 Y106.344 E0.01681
G1 X129.82 Y106.342 E0.00075
G1 X129.504 Y106.283 E0.01604
G1 X129.168 Y106.253 E0.01683
G1 X128.832 Y106.253 E0.01676
G1 X128.496 Y106.283 E0.01683
G1 X128.165 Y106.344 E0.01679
G1 X127.84 Y106.433 E0.01681
G1 X127.527 Y106.551 E0.01669
G1 X127.222 Y106.696 E0.01685
G1 X126.935 Y106.87 E0.01674
G1 X126.661 Y107.067 E0.01684
G0 F600 X126.91 Y107.38
G1 F1500 X126.685 Y107.578 E0.01495
G1 X126.477 Y107.795 E0.015
G1 X126.289 Y108.031 E0.01505
G1 X126.123 Y108.282 E0.01501
G1 X125.981 Y108.547 E0.015
G1 X125.863 Y108.823 E0.01498
G1 X125.77 Y109.108 E0.01496
G1 X125.703 Y109.402 E0.01504
G1 X125.663 Y109.699 E0.01495
G1 X125.65 Y110 E0.01503
G1 X125.663 Y110.301 E0.01503
G1 X125.703 Y110.598 E0.01495
G1 X125.77 Y110.892 E0.01504
G1 X125.863 Y111.177 E0.01496
G1 X125.981 Y111.453 E0.01498
G1 X126.123 Y111.718 E0.015
G1 X126.289 Y111.969 E0.01501
G1 X126.477 Y112.205 E0.01505
G1 X126.685 Y112.422 E0.015
G1 X126.91 Y112.62 E0.01495
G1 X127.155 Y112.796 E0.01505
G1 X127.412 Y112.951 E0.01497
G1 X127.684 Y113.081 E0.01504
G1 X127.964 Y113.186 E0.01492
G1 X128.254 Y113.266 E0.01501
G1 X128.55 Y113.32 E0.01501
G1 X128.85 Y113.347 E0.01503
G1 X129.15 Y113.347 E0.01497
G1 X129.45 Y113.32 E0.01503
G1 X129.746 Y113.266 E0.01501
G1 X130.036 Y113.186 E0.01501
G1 X130.316 Y113.081 E0.01492
G1 X130.588 Y112.951 E0.01504
G1 X130.845 Y112.796 E0.01497
G1 X131.09 Y112.62 E0.01505
G1 X131.315 Y112.422 E0.01495
G1 X131.523 Y112.205 E0.015
G1 X131.711 Y111.969 E0.01505
G1 X131.877 Y111.718 E0.01501
G1 X132.019 Y111.453 E0.015
G1 X132.137 Y111.177 E0.01498
G1 X132.23 Y110.892 E0.01496
G1 X132.297 Y110.598 E0.01504
G1 X132.337 Y110.301 E0.01495
G1 X132.35 Y110 E0.01503
G1 X132.337 Y109.699 E0.01503
G1 X132.297 Y109.402 E0.01495
G1 X132.23 Y109.108 E0.01504
G1 X132.137 Y108.823 E0.01496
G1 X132.019 Y108.547 E0.01498
G1 X131.877 Y108.282 E0.015
G1 X131.711 Y108.031 E0.01501
G1 X131.523 Y107.795 E0.01505
G1 X131.315 Y107.578 E0.015
G1 X131.09 Y107.38 E0.01495
G1 X130.845 Y107.204 E0.01505
G1 X130.588 Y107.049 E0.01497
G1 X130.316 Y106.919 E0.01504
G1 X130.036 Y106.814 E0.01492
G1 X129.746 Y106.734 E0.01501
G1 X129.45 Y106.68 E0.01501
G1 X129.15 Y106.653 E0.01503
G1 X128.85 Y106.653 E0.01497
G1 X128.55 Y106.68 E0.01503
G1 X128.254 Y106.734 E0.01501
G1 X127.964 Y106.814 E0.01501
G1 X127.684 Y106.919 E0.01492
G1 X127.412 Y107.049 E0.01504
G1 X127.155 Y107.204 E0.01497
G1 X126.91 Y107.38 E0.01505
G0 F600 X127.16 Y107.693
;TYPE:WALL-OUTER
G1 F1500 X126.962 Y107.867 E0.01315
G1 X126.778 Y108.059 E0.01327
G1 X126.613 Y108.266 E0.01321
G1 X126.467 Y108.487 E0.01321
G1 X126.342 Y108.72 E0.01319
G1 X126.238 Y108.964 E0.01323
G1 X126.156 Y109.215 E0.01317
G1 X126.097 Y109.473 E0.0132
G1 X126.062 Y109.735 E0.01319
G1 X126.05 Y110 E0.01323
G1 X126.062 Y110.265 E0.01323
G1 X126.097 Y110.527 E0.01319
G1 X126.156 Y110.785 E0.0132
G1 X126.238 Y111.036 E0.01317
G1 X126.342 Y111.28 E0.01323
G1 X126.467 Y111.513 E0.01319
G1 X126.613 Y111.734 E0.01321
G1 X126.778 Y111.941 E0.01321
G1 X126.962 Y112.133 E0.01327
G1 X127.16 Y112.307 E0.01315
G1 X127.375 Y112.462 E0.01322
G1 X127.602 Y112.598 E0.0132
G1 X127.841 Y112.713 E0.01323
G1 X128.088 Y112.805 E0.01315
G1 X128.343 Y112.876 E0.01321
G1 X128.604 Y112.923 E0.01323
G1 X128.868 Y112.947 E0.01323
G1 X129.132 Y112.947 E0.01317
G1 X129.396 Y112.923 E0.01323
G1 X129.657 Y112.876 E0.01323
G1 X129.912 Y112.805 E0.01321
G1 X130.159 Y112.713 E0.01315
G1 X130.398 Y112.598 E0.01323
G1 X130.625 Y112.462 E0.0132
G1 X130.84 Y112.307 E0.01322
G1 X131.038 Y112.133 E0.01315
G1 X131.222 Y111.941 E0.01327
G1 X131.387 Y111.734 E0.01321
G1 X131.533 Y111.513 E0.01321
G1 X131.658 Y111.28 E0.01319
G1 X131.762 Y111.036 E0.01323
G1 X131.844 Y110.785 E0.01317
G1 X131.903 Y110.527 E0.0132
G1 X131.938 Y110.265 E0.01319
G1 X131.95 Y110 E0.01323
G1 X131.938 Y109.735 E0.01323
G1 X131.903 Y109.473 E0.01319
G1 X131.844 Y109.215 E0.0132
G1 X131.762 Y108.964 E0.01317
G1 X131.658 Y108.72 E0.01323
G1 X131.533 Y108.487 E0.01319
G1 X131.387 Y108.266 E0.01321
G1 X131.222 Y108.059 E0.01321
G1 X131.038 Y107.867 E0.01327
G1 X130.84 Y107.693 E0.01315
G1 X130.625 Y107.538 E0.01322
G1 X130.398 Y107.402 E0.0132
G1 X130.159 Y107.287 E0.01323
G1 X129.912 Y107.195 E0.01315
G1 X129.657 Y107.124 E0.01321
G1 X129.396 Y107.077 E0.01323
G1 X129.132 Y107.053 E0.01323
G1 X128.868 Y107.053 E0.01317
G1 X128.604 Y107.077 E0.01323
G1 X128.343 Y107.124 E0.01323
G1 X128.088 Y107.195 E0.01321
G1 X127.841 Y107.287 E0.01315
G1 X127.602 Y107.402 E0.01323
G1 X127.375 Y107.538 E0.0132
G1 X127.16 Y107.693 E0.01322
G0 F600 X127.01 Y107.825
G0 X126.719 Y107.494
G0 X126.68 Y107.45
G0 X125.945 Y108.53
G0 X125.664 Y109.395
G0 X125.624 Y110.304
G0 X125.826 Y111.191
G0 X126.257 Y111.992
G0 X126.613 Y112.365
G0 X134 Y119
;TYPE:WALL-INNER
G1 F1500 X86 Y119 E2.39473
G1 X86 Y101 E0.89802
G1 X134 Y101 E2.39473
G1 X134 Y119 E0.89802
G0 F600 X134.4 Y119.4
G1 F1500 X85.6 Y119.4 E2.43464
G1 X85.6 Y100.6 E0.93794
G1 X134.4 Y100.6 E2.43464
G1 X134.4 Y119.4 E0.93794
G0 F600 X134.8 Y119.8
;TYPE:WALL-OUTER
G1 F1500 X85.2 Y119.8 E2.47455
G1 X85.2 Y100.2 E0.97785
G1 X134.8 Y100.2 E2.47455
G1 X134.8 Y119.8 E0.97785
G0 F600 X134.6 Y119.8
G0 X134.36 Y119.36
G0 X134.3 Y119.36
G0 X133.61 Y118.61
;TYPE:SKIN
G1 F1500 X86.39 Y118.61 E2.35582
G1 X86.39 Y101.39 E0.85911
G1 X133.61 Y101.39 E2.35582
G1 X133.61 Y118.61 E0.85911
G0 F600 X130.963 Y113.647
G1 F1500 X131.28 Y113.456 E0.01846
G1 X131.582 Y113.239 E0.01855
G1 X131.861 Y112.993 E0.01856
G1 X132.118 Y112.726 E0.01849
G1 X132.351 Y112.434 E0.01864
G1 X132.556 Y112.123 E0.01858
G1 X132.731 Y111.795 E0.01855
G1 X132.877 Y111.456 E0.01841
G1 X132.992 Y111.103 E0.01852
G1 X133.075 Y110.739 E0.01863
G1 X133.124 Y110.371 E0.01852
G1 X133.14 Y110 E0.01853
G1 X133.124 Y109.629 E0.01853
G1 X133.075 Y109.261 E0.01852
G1 X132.992 Y108.897 E0.01863
G1 X132.877 Y108.544 E0.01852
G1 X132.731 Y108.205 E0.01841
G1 X132.556 Y107.877 E0.01855
G1 X132.351 Y107.566 E0.01858
G1 X132.118 Y107.274 E0.01864
G1 X131.861 Y107.007 E0.01849
G1 X131.582 Y106.761 E0.01856
G1 X131.28 Y106.544 E0.01855
G1 X130.963 Y106.353 E0.01846
G1 X130.625 Y106.192 E0.01868
G1 X130.281 Y106.062 E0.01835
G1 X129.922 Y105.964 E0.01857
G1 X129.557 Y105.897 E0.01851
G1 X129.186 Y105.863 E0.01859
G1 X128.814 Y105.863 E0.01856
G1 X128.443 Y105.897 E0.01859
G1 X128.078 Y105.964 E0.01851
G1 X127.719 Y106.062 E0.01857
G1 X127.375 Y106.192 E0.01835
G1 X127.037 Y106.353 E0.01868
G1 X126.72 Y106.544 E0.01846
G1 X126.418 Y106.761 E0.01855
G1 X126.139 Y107.007 E0.01856
G1 X125.882 Y107.274 E0.01849
G1 X125.649 Y107.566 E0.01864
G1 X125.444 Y107.877 E0.01858
G1 X125.269 Y108.205 E0.01855
G1 X125.123 Y108.544 E0.01841
