;FLAVOR:RepRap
;TIME:4263
;Filament used: 3.36887m
;Layer height: 0.2
;Generated with Cura_SteamEngine 3.6.0
T0
M190 S60
M104 S200
M109 S200
M82 ;absolute extrusion mode
G21 ;metric values
G90 ;absolute positioning
M82 ;set extruder to absolute mode
M107 ;start with the fan off
G28 X0 Y0 ;move X/Y to min endstops
G28 Z0 ;move Z to min endstops
G1 Z15.0 F9000 ;move the platform down 15mm
G92 E0 ;zero the extruded length
G1 F200 E3 ;extrude 3mm of feed stock
G92 E0 ;zero the extruded length again
G1 F9000;Put printing message on LCD screen
M117 Printing..0
M83 ;relative extrusion mode
G1 F1500 E-6.5
;LAYER_COUNT:145
;LAYER:0
M107
;MESH:1_Y_Rod_Holder_With_Endstop.stl
G0 F600 X112.4 Y106.5 Z0.3
;TYPE:WALL-INNER
G1 F1500 E6.5
G1 X77.4 Y106.5 E1.74616
G1 X77.4 Y103.5 E0.14967
G1 X142.6 Y103.5 E3.25284
G1 X142.6 Y106.5 E0.14967
G1 X130.6 Y106.5 E0.59868
G1 X130.6 Y108.968 E0.12313
G1 X130.594 Y109.063 E0.00475
G1 X130.565 Y109.181 E0.00606
G1 X130.496 Y109.302 E0.00695
G1 X130.404 Y109.394 E0.00649
G1 X130.297 Y109.457 E0.00619
G1 X130.17 Y109.493 E0.00659
G1 X130.038 Y109.5 E0.00659
G1 X124.516 Y109.498 E0.27549
G1 X124.463 Y109.23 E0.01363
G1 X124.348 Y108.815 E0.02148
G1 X124.196 Y108.409 E0.02163
G1 X124.01 Y108.017 E0.02165
G1 X123.791 Y107.643 E0.02162
G1 X123.543 Y107.288 E0.0216
G1 X123.262 Y106.954 E0.02178
G1 X122.955 Y106.648 E0.02163
G1 X122.627 Y106.37 E0.02145
G1 X122.273 Y106.118 E0.02168
G1 X121.898 Y105.896 E0.02174
G1 X121.506 Y105.711 E0.02163
G1 X121.103 Y105.557 E0.02152
G1 X120.685 Y105.44 E0.02166
G1 X120.671 Y105.438 E0.00071
G1 X120.261 Y105.356 E0.02086
G1 X119.829 Y105.309 E0.02168
G1 X119.395 Y105.301 E0.02166
G1 X118.963 Y105.328 E0.02159
G1 X118.533 Y105.391 E0.02168
G1 X118.109 Y105.492 E0.02175
G1 X117.698 Y105.629 E0.02161
G1 X117.302 Y105.798 E0.02148
G1 X116.92 Y106 E0.02156
G1 X116.554 Y106.236 E0.02173
G1 X116.211 Y106.501 E0.02162
G1 X115.89 Y106.794 E0.02168
G1 X115.598 Y107.116 E0.02169
G1 X115.335 Y107.455 E0.02141
G1 X115.1 Y107.819 E0.02162
G1 X114.894 Y108.205 E0.02183
G1 X114.726 Y108.604 E0.0216
G1 X114.591 Y109.015 E0.02158
G1 X114.588 Y109.031 E0.00081
G1 X114.496 Y109.42 E0.01994
G1 X114.491 Y109.438 E0.00093
G1 X114.428 Y109.865 E0.02153
G1 X114.401 Y110.297 E0.02159
G1 X114.409 Y110.731 E0.02166
G1 X114.456 Y111.162 E0.02163
G1 X114.539 Y111.59 E0.02175
G1 X114.659 Y112.007 E0.02165
G1 X114.812 Y112.41 E0.02151
G1 X115 Y112.8 E0.0216
G1 X115.219 Y113.174 E0.02162
G1 X115.471 Y113.529 E0.02172
G1 X115.751 Y113.859 E0.02159
G1 X116.058 Y114.164 E0.02159
G1 X116.39 Y114.443 E0.02164
G1 X116.745 Y114.693 E0.02166
G1 X117.119 Y114.911 E0.0216
G1 X117.511 Y115.098 E0.02167
G1 X117.918 Y115.25 E0.02168
G1 X118.336 Y115.366 E0.02164
G1 X118.76 Y115.446 E0.02153
G1 X119.19 Y115.492 E0.02158
G1 X119.623 Y115.499 E0.02161
G1 X120.058 Y115.471 E0.02175
G1 X120.487 Y115.405 E0.02165
G1 X120.908 Y115.303 E0.02161
G1 X121.319 Y115.165 E0.02163
G1 X121.716 Y114.995 E0.02155
G1 X122.098 Y114.788 E0.02168
G1 X122.46 Y114.553 E0.02153
G1 X122.803 Y114.287 E0.02166
G1 X123.121 Y113.992 E0.02164
G1 X123.414 Y113.673 E0.02161
G1 X123.678 Y113.326 E0.02175
G1 X123.91 Y112.963 E0.02149
G1 X124.113 Y112.58 E0.02163
G1 X124.147 Y112.5 E0.00434
G1 X130.05 Y112.5 E0.2945
G1 X130.164 Y112.506 E0.0057
G1 X130.281 Y112.535 E0.00601
G1 X130.402 Y112.604 E0.00695
G1 X130.494 Y112.696 E0.00649
G1 X130.559 Y112.805 E0.00633
G1 X130.593 Y112.939 E0.0069
G1 X130.6 Y113.04 E0.00505
G1 X130.6 Y116.5 E0.17262
G1 X116.585 Y116.5 E0.69921
G1 X116.093 Y116.487 E0.02455
G1 X115.795 Y116.454 E0.01496
G1 X115.51 Y116.399 E0.01448
G1 X115.217 Y116.321 E0.01513
G1 X114.932 Y116.22 E0.01509
G1 X114.679 Y116.109 E0.01378
G1 X114.387 Y115.955 E0.01647
G1 X114.145 Y115.803 E0.01426
G1 X113.903 Y115.623 E0.01505
G1 X113.676 Y115.428 E0.01493
G1 X113.468 Y115.22 E0.01468
G1 X113.272 Y114.991 E0.01504
G1 X113.092 Y114.748 E0.01509
G1 X112.936 Y114.498 E0.0147
G1 X112.79 Y114.221 E0.01562
G1 X112.675 Y113.957 E0.01437
G1 X112.576 Y113.676 E0.01486
G1 X112.501 Y113.389 E0.0148
G1 X112.446 Y113.097 E0.01482
G1 X112.412 Y112.79 E0.01541
G1 X112.4 Y112.469 E0.01603
G1 X112.4 Y106.5 E0.29779
G0 F600 X112 Y106.9
G1 F1500 X77 Y106.9 E1.74616
G1 X77 Y103.1 E0.18958
G1 X143 Y103.1 E3.29275
G1 X143 Y106.9 E0.18958
G1 X131 Y106.9 E0.59868
G1 X131 Y108.977 E0.10362
G1 X130.991 Y109.12 E0.00715
G1 X130.966 Y109.241 E0.00616
G1 X130.933 Y109.34 E0.00521
G1 X130.875 Y109.456 E0.00647
G1 X130.817 Y109.543 E0.00522
G1 X130.732 Y109.639 E0.0064
G1 X130.65 Y109.711 E0.00544
G1 X130.538 Y109.784 E0.00667
G1 X130.451 Y109.828 E0.00486
G1 X130.327 Y109.869 E0.00652
G1 X130.223 Y109.89 E0.00529
G1 X130.192 Y109.891 E0.00155
G1 X130.062 Y109.898 E0.0065
G1 X130.042 Y109.9 E0.001
G1 X124.17 Y109.898 E0.29296
G1 X124.151 Y109.715 E0.00918
G1 X124.074 Y109.322 E0.01998
G1 X123.967 Y108.939 E0.01984
G1 X123.827 Y108.565 E0.01992
G1 X123.656 Y108.204 E0.01993
G1 X123.454 Y107.859 E0.01995
G1 X123.225 Y107.532 E0.01992
G1 X122.967 Y107.225 E0.02001
G1 X122.684 Y106.943 E0.01993
G1 X122.381 Y106.686 E0.01982
G1 X122.055 Y106.454 E0.01996
G1 X121.71 Y106.25 E0.02
G1 X121.349 Y106.079 E0.01993
G1 X120.977 Y105.937 E0.01987
G1 X120.592 Y105.829 E0.01995
G1 X120.201 Y105.752 E0.01988
G1 X119.803 Y105.709 E0.01997
G1 X119.404 Y105.701 E0.01991
G1 X119.005 Y105.726 E0.01995
G1 X118.609 Y105.784 E0.01997
G1 X118.219 Y105.877 E0.02
G1 X117.84 Y106.003 E0.01993
G1 X117.475 Y106.159 E0.0198
G1 X117.122 Y106.346 E0.01993
G1 X116.785 Y106.563 E0.02
G1 X116.469 Y106.807 E0.01992
G1 X116.174 Y107.077 E0.01995
G1 X115.905 Y107.373 E0.01995
G1 X115.662 Y107.687 E0.01981
G1 X115.445 Y108.022 E0.01991
G1 X115.256 Y108.377 E0.02006
G1 X115.101 Y108.745 E0.01992
G1 X114.976 Y109.124 E0.01991
G1 X114.884 Y109.513 E0.01994
G1 X114.826 Y109.907 E0.01987
G1 X114.801 Y110.306 E0.01995
G1 X114.809 Y110.705 E0.01991
G1 X114.852 Y111.102 E0.01992
G1 X114.928 Y111.496 E0.02002
G1 X115.039 Y111.88 E0.01994
G1 X115.18 Y112.252 E0.01985
G1 X115.353 Y112.612 E0.01993
G1 X115.555 Y112.957 E0.01995
G1 X115.787 Y113.283 E0.01996
G1 X116.045 Y113.587 E0.01989
G1 X116.328 Y113.869 E0.01993
G1 X116.634 Y114.126 E0.01994
G1 X116.961 Y114.356 E0.01995
G1 X117.306 Y114.557 E0.01992
G1 X117.667 Y114.729 E0.01995
G1 X118.042 Y114.869 E0.01997
G1 X118.427 Y114.976 E0.01994
G1 X118.818 Y115.05 E0.01985
G1 X119.215 Y115.092 E0.01992
G1 X119.614 Y115.099 E0.01991
G1 X120.014 Y115.073 E0.02
G1 X120.409 Y115.012 E0.01994
G1 X120.797 Y114.918 E0.01992
G1 X121.176 Y114.791 E0.01994
G1 X121.542 Y114.634 E0.01987
G1 X121.894 Y114.444 E0.01996
G1 X122.228 Y114.227 E0.01987
G1 X122.544 Y113.982 E0.01995
G1 X122.837 Y113.71 E0.01995
G1 X123.107 Y113.416 E0.01991
G1 X123.35 Y113.097 E0.02001
G1 X123.564 Y112.762 E0.01983
G1 X123.751 Y112.408 E0.01997
G1 X123.881 Y112.1 E0.01668
G1 X130.052 Y112.1 E0.30787
G1 X130.22 Y112.109 E0.00839
G1 X130.341 Y112.134 E0.00616
G1 X130.44 Y112.167 E0.00521
G1 X130.556 Y112.225 E0.00647
G1 X130.643 Y112.283 E0.00522
G1 X130.739 Y112.368 E0.0064
G1 X130.811 Y112.45 E0.00544
G1 X130.884 Y112.562 E0.00667
G1 X130.928 Y112.649 E0.00486
G1 X130.938 Y112.681 E0.00167
G1 X130.969 Y112.775 E0.00494
G1 X130.99 Y112.882 E0.00544
G1 X130.991 Y112.911 E0.00145
G1 X131 Y113.028 E0.00585
G1 X131 Y116.9 E0.19317
G1 X116.575 Y116.9 E0.71967
G1 X116.072 Y116.887 E0.0251
G1 X115.728 Y116.848 E0.01727
G1 X115.415 Y116.788 E0.0159
G1 X115.107 Y116.706 E0.0159
G1 X114.784 Y116.592 E0.01709
G1 X114.499 Y116.467 E0.01553
G1 X114.19 Y116.304 E0.01743
G1 X113.924 Y116.136 E0.0157
G1 X113.65 Y115.933 E0.01701
G1 X113.401 Y115.719 E0.01638
G1 X113.176 Y115.494 E0.01587
G1 X112.963 Y115.245 E0.01635
G1 X112.952 Y115.229 E0.00097
G1 X112.76 Y114.971 E0.01604
G1 X112.754 Y114.96 E0.00063
G1 X112.585 Y114.691 E0.01585
G1 X112.431 Y114.399 E0.01647
G1 X112.304 Y114.106 E0.01593
G1 X112.299 Y114.09 E0.00084
G1 X112.193 Y113.791 E0.01583
G1 X112.115 Y113.49 E0.01551
G1 X112.111 Y113.478 E0.00063
G1 X112.049 Y113.149 E0.0167
G1 X112.013 Y112.822 E0.01641
G1 X112 Y112.484 E0.01688
G1 X112 Y106.9 E0.27859
G0 F600 X111.6 Y107.3
;TYPE:WALL-OUTER
G1 F1500 X76.6 Y107.3 E1.74616
G1 X76.6 Y102.7 E0.22949
G1 X143.4 Y102.7 E3.33267
G1 X143.4 Y107.3 E0.22949
G1 X131.4 Y107.3 E0.59868
G1 X131.4 Y108.988 E0.08421
G1 X131.388 Y109.173 E0.00925
G1 X131.354 Y109.342 E0.0086
G1 X131.301 Y109.497 E0.00817
G1 X131.223 Y109.654 E0.00875
G1 X131.13 Y109.793 E0.00834
G1 X131.017 Y109.921 E0.00852
G1 X130.888 Y110.033 E0.00852
G1 X130.743 Y110.129 E0.00868
G1 X130.6 Y110.2 E0.00797
G1 X130.434 Y110.255 E0.00872
G1 X130.276 Y110.287 E0.00804
G1 X130.047 Y110.3 E0.01144
G1 X123.795 Y110.298 E0.31191
G1 X123.792 Y110.138 E0.00798
G1 X123.755 Y109.774 E0.01825
G1 X123.685 Y109.415 E0.01825
G1 X123.586 Y109.063 E0.01824
G1 X123.458 Y108.721 E0.01822
G1 X123.302 Y108.391 E0.01821
G1 X123.117 Y108.075 E0.01827
G1 X122.908 Y107.776 E0.0182
G1 X122.672 Y107.496 E0.01827
G1 X122.413 Y107.238 E0.01824
G1 X122.135 Y107.002 E0.01819
G1 X121.837 Y106.79 E0.01825
G1 X121.522 Y106.604 E0.01825
G1 X121.192 Y106.447 E0.01823
G1 X120.851 Y106.317 E0.01821
G1 X120.499 Y106.218 E0.01824
G1 X120.141 Y106.148 E0.0182
G1 X119.777 Y106.109 E0.01826
G1 X119.412 Y106.101 E0.01821
G1 X119.047 Y106.124 E0.01825
G1 X118.685 Y106.177 E0.01825
G1 X118.329 Y106.262 E0.01826
G1 X117.982 Y106.377 E0.01824
G1 X117.647 Y106.52 E0.01817
G1 X117.324 Y106.691 E0.01823
G1 X117.016 Y106.89 E0.01829
G1 X116.727 Y107.113 E0.01821
G1 X116.458 Y107.36 E0.01822
G1 X116.212 Y107.63 E0.01822
G1 X115.989 Y107.919 E0.01821
G1 X115.79 Y108.225 E0.01821
G1 X115.618 Y108.549 E0.0183
G1 X115.476 Y108.886 E0.01824
G1 X115.361 Y109.233 E0.01824
G1 X115.277 Y109.588 E0.0182
G1 X115.224 Y109.949 E0.0182
G1 X115.201 Y110.314 E0.01825
G1 X115.209 Y110.679 E0.01821
G1 X115.248 Y111.043 E0.01826
G1 X115.317 Y111.402 E0.01824
G1 X115.419 Y111.753 E0.01824
G1 X115.548 Y112.095 E0.01824
G1 X115.706 Y112.424 E0.01821
G1 X115.891 Y112.739 E0.01823
G1 X116.103 Y113.037 E0.01825
G1 X116.339 Y113.316 E0.01823
G1 X116.598 Y113.574 E0.01824
G1 X116.878 Y113.809 E0.01824
G1 X117.177 Y114.019 E0.01823
G1 X117.493 Y114.203 E0.01824
G1 X117.823 Y114.36 E0.01823
G1 X118.166 Y114.488 E0.01827
G1 X118.518 Y114.586 E0.01823
G1 X118.876 Y114.654 E0.01818
G1 X119.24 Y114.692 E0.01826
G1 X119.605 Y114.699 E0.01821
G1 X119.97 Y114.675 E0.01825
G1 X120.331 Y114.619 E0.01823
G1 X120.686 Y114.533 E0.01822
G1 X121.033 Y114.417 E0.01825
G1 X121.368 Y114.273 E0.01819
G1 X121.69 Y114.1 E0.01824
G1 X121.996 Y113.901 E0.01821
G1 X122.285 Y113.677 E0.01824
G1 X122.553 Y113.428 E0.01825
G1 X122.8 Y113.159 E0.01822
G1 X123.022 Y112.868 E0.01826
G1 X123.218 Y112.561 E0.01817
G1 X123.389 Y112.237 E0.01828
G1 X123.531 Y111.9 E0.01824
G1 X123.595 Y111.7 E0.01048
G1 X130.056 Y111.7 E0.32234
G1 X130.273 Y111.712 E0.01084
G1 X130.442 Y111.746 E0.0086
G1 X130.597 Y111.799 E0.00817
G1 X130.754 Y111.877 E0.00875
G1 X130.893 Y111.97 E0.00834
G1 X131.021 Y112.083 E0.00852
G1 X131.133 Y112.212 E0.00852
G1 X131.229 Y112.357 E0.00868
G1 X131.3 Y112.5 E0.00797
G1 X131.357 Y112.672 E0.00904
G1 X131.387 Y112.829 E0.00797
G1 X131.4 Y113.014 E0.00925
G1 X131.4 Y117.3 E0.21383
G1 X116.564 Y117.3 E0.74017
G1 X116.04 Y117.286 E0.02615
G1 X115.674 Y117.245 E0.01837
G1 X115.334 Y117.18 E0.01727
G1 X114.986 Y117.087 E0.01797
G1 X114.636 Y116.964 E0.01851
G1 X114.318 Y116.824 E0.01733
G1 X113.99 Y116.651 E0.0185
G1 X113.699 Y116.468 E0.01715
G1 X113.403 Y116.248 E0.0184
G1 X113.126 Y116.01 E0.01822
G1 X112.884 Y115.768 E0.01707
G1 X112.646 Y115.49 E0.01826
G1 X112.433 Y115.202 E0.01787
G1 X112.238 Y114.89 E0.01836
G1 X112.07 Y114.571 E0.01799
G1 X111.933 Y114.255 E0.01718
G1 X111.809 Y113.903 E0.01862
G1 X111.721 Y113.57 E0.01718
G1 X111.652 Y113.202 E0.01868
G1 X111.614 Y112.852 E0.01756
G1 X111.6 Y112.5 E0.01758
G1 X111.6 Y107.3 E0.25943
G0 F600 X111.4 Y107.3
G0 X111.4 Y106.86
G0 X111.4 Y106.8
G0 X112.79 Y106.11
;TYPE:SKIN
G1 F1500 X77.79 Y106.11 E1.74616
G1 X77.79 Y103.89 E0.11076
G1 X142.21 Y103.89 E3.21393
G1 X142.21 Y106.11 E0.11076
G1 X130.21 Y106.11 E0.59868
G1 X130.206 Y109.011 E0.14473
G1 X130.182 Y109.066 E0.00299
G1 X130.145 Y109.096 E0.00238
G1 X130.11 Y109.105 E0.0018
G1 X130.017 Y109.11 E0.00465
G1 X124.834 Y109.108 E0.25858
G1 X124.719 Y108.694 E0.02144
G1 X124.555 Y108.257 E0.02329
G1 X124.355 Y107.834 E0.02334
G1 X124.12 Y107.432 E0.02323
G1 X123.853 Y107.05 E0.02325
G1 X123.549 Y106.69 E0.02351
G1 X123.219 Y106.361 E0.02325
G1 X122.867 Y106.062 E0.02304
G1 X122.486 Y105.791 E0.02333
G1 X122.081 Y105.551 E0.02349
G1 X121.659 Y105.352 E0.02328
G1 X121.226 Y105.186 E0.02314
G1 X120.775 Y105.06 E0.02336
G1 X120.32 Y104.97 E0.02314
G1 X119.854 Y104.919 E0.02339
G1 X119.387 Y104.911 E0.0233
G1 X118.922 Y104.94 E0.02324
G1 X118.459 Y105.007 E0.02334
G1 X118.002 Y105.116 E0.02344
G1 X117.56 Y105.264 E0.02325
G1 X117.134 Y105.445 E0.02309
G1 X116.723 Y105.663 E0.02321
G1 X116.328 Y105.918 E0.02346
G1 X115.96 Y106.202 E0.02319
G1 X115.613 Y106.519 E0.02345
G1 X115.299 Y106.865 E0.02331
G1 X115.017 Y107.229 E0.02297
G1 X114.763 Y107.622 E0.02335
G1 X114.541 Y108.037 E0.02348
G1 X114.361 Y108.467 E0.02326
G1 X114.215 Y108.909 E0.02322
G1 X114.107 Y109.364 E0.02333
G1 X114.04 Y109.824 E0.02319
G1 X114.011 Y110.289 E0.02324
G1 X114.019 Y110.756 E0.0233
G1 X114.07 Y111.22 E0.02329
G1 X114.159 Y111.681 E0.02342
G1 X114.289 Y112.13 E0.02332
G1 X114.453 Y112.564 E0.02315
G1 X114.655 Y112.983 E0.02321
G1 X114.891 Y113.386 E0.0233
G1 X115.163 Y113.769 E0.02344
G1 X115.464 Y114.124 E0.02322
G1 X115.795 Y114.452 E0.02325
G1 X116.152 Y114.753 E0.0233
G1 X116.534 Y115.021 E0.02328
G1 X116.936 Y115.256 E0.02323
G1 X117.359 Y115.457 E0.02336
G1 X117.797 Y115.621 E0.02333
G1 X118.248 Y115.746 E0.02335
G1 X118.703 Y115.832 E0.0231
G1 X119.166 Y115.882 E0.02323
G1 X119.633 Y115.889 E0.0233
G1 X120.101 Y115.859 E0.0234
G1 X120.563 Y115.788 E0.02332
G1 X121.016 Y115.678 E0.02326
G1 X121.458 Y115.53 E0.02325
G1 X121.886 Y115.346 E0.02324
G1 X122.297 Y115.123 E0.02333
G1 X122.686 Y114.871 E0.02312
G1 X123.056 Y114.585 E0.02333
G1 X123.398 Y114.267 E0.0233
G1 X123.714 Y113.923 E0.0233
G1 X123.998 Y113.55 E0.02339
G1 X124.247 Y113.16 E0.02308
G1 X124.39 Y112.89 E0.01524
G1 X130.133 Y112.899 E0.28652
G1 X130.183 Y112.935 E0.00307
G1 X130.205 Y112.996 E0.00324
G1 X130.21 Y113.067 E0.00355
G1 X130.21 Y116.11 E0.15182
G1 X116.595 Y116.11 E0.67926
G1 X116.122 Y116.097 E0.02361
G1 X115.849 Y116.067 E0.0137
G1 X115.596 Y116.018 E0.01286
G1 X115.333 Y115.948 E0.01358
G1 X115.07 Y115.855 E0.01392
G1 X114.849 Y115.758 E0.01204
G1 X114.579 Y115.616 E0.01522
G1 X114.364 Y115.481 E0.01267
G1 X114.152 Y115.323 E0.01319
G1 X113.93 Y115.132 E0.01461
G1 X113.756 Y114.958 E0.01228
G1 X113.583 Y114.755 E0.01331
G1 X113.415 Y114.528 E0.01409
G1 X113.271 Y114.298 E0.01354
G1 X113.135 Y114.039 E0.01459
G1 X113.042 Y113.825 E0.01164
G1 X112.952 Y113.571 E0.01344
G1 X112.881 Y113.298 E0.01407
G1 X112.83 Y113.025 E0.01386
G1 X112.8 Y112.747 E0.01395
G1 X112.79 Y112.469 E0.01388
G1 X112.79 Y106.11 E0.31725
G0 F600 X142.029 Y104.128
G1 F1500 X141.97 Y104.069 E0.00416
G0 F600 X141.405 Y104.069
G1 F1500 X142.029 Y104.694 E0.04406
G0 F600 X142.029 Y105.259
G1 F1500 X140.839 Y104.069 E0.08396
G0 F600 X140.273 Y104.069
G1 F1500 X142.029 Y105.825 E0.1239
G0 F600 X141.567 Y105.929
G1 F1500 X139.708 Y104.069 E0.1312
G0 F600 X139.142 Y104.069
G1 F1500 X141.002 Y105.929 E0.13123
G0 F600 X140.436 Y105.929
G1 F1500 X138.576 Y104.069 E0.13123
