;FLAVOR:RepRap
;TIME:2020
;Filament used: 1.2931m
;Layer height: 0.2
;Generated with Cura_SteamEngine 3.6.0
T0
M190 S60
M104 S200
M109 S200
M82 ;absolute extrusion mode
G21 ;metric values
G90 ;absolute positioning
M82 ;set extruder to absolute mode
M107 ;start with the fan off
G28 X0 Y0 ;move X/Y to min endstops
G28 Z0 ;move Z to min endstops
G1 Z15.0 F9000 ;move the platform down 15mm
G92 E0 ;zero the extruded length
G1 F200 E3 ;extrude 3mm of feed stock
G92 E0 ;zero the extruded length again
G1 F9000;Put printing message on LCD screen
M117 Printing..0
M83 ;relative extrusion mode
G1 F1500 E-6.5
;LAYER_COUNT:225
;LAYER:0
M107
;MESH:1_Y_Belt_Tensioner.stl
G0 F600 X109.283 Y107.603 Z0.3
;TYPE:WALL-INNER
G1 F1500 E6.5
G1 X109.011 Y107.703 E0.01446
G1 X108.75 Y107.832 E0.01452
G1 X108.506 Y107.994 E0.01461
G1 X108.282 Y108.181 E0.01456
G1 X108.082 Y108.393 E0.01454
G1 X107.91 Y108.626 E0.01445
G1 X107.765 Y108.875 E0.01438
G1 X107.65 Y109.142 E0.0145
G1 X107.565 Y109.424 E0.01469
G1 X107.515 Y109.711 E0.01453
G1 X107.498 Y110 E0.01444
G1 X107.515 Y110.289 E0.01444
G1 X107.565 Y110.576 E0.01453
G1 X107.65 Y110.858 E0.01469
G1 X107.765 Y111.125 E0.0145
G1 X107.91 Y111.374 E0.01438
G1 X108.082 Y111.607 E0.01445
G1 X108.282 Y111.819 E0.01454
G1 X108.506 Y112.006 E0.01456
G1 X108.75 Y112.168 E0.01461
G1 X109.011 Y112.297 E0.01452
G1 X109.283 Y112.397 E0.01446
G1 X109.567 Y112.464 E0.01456
G1 X109.855 Y112.497 E0.01446
G1 X110.145 Y112.497 E0.01447
G1 X110.433 Y112.464 E0.01446
G1 X110.717 Y112.397 E0.01456
G1 X110.989 Y112.297 E0.01446
G1 X111.25 Y112.168 E0.01452
G1 X111.494 Y112.006 E0.01461
G1 X111.718 Y111.819 E0.01456
G1 X111.918 Y111.607 E0.01454
G1 X112.09 Y111.374 E0.01445
G1 X112.235 Y111.125 E0.01438
G1 X112.35 Y110.858 E0.0145
G1 X112.435 Y110.576 E0.01469
G1 X112.485 Y110.289 E0.01453
G1 X112.502 Y110 E0.01444
G1 X112.485 Y109.711 E0.01444
G1 X112.435 Y109.424 E0.01453
G1 X112.35 Y109.142 E0.01469
G1 X112.235 Y108.875 E0.0145
G1 X112.09 Y108.626 E0.01438
G1 X111.918 Y108.393 E0.01445
G1 X111.718 Y108.181 E0.01454
G1 X111.494 Y107.994 E0.01456
G1 X111.25 Y107.832 E0.01461
G1 X110.989 Y107.703 E0.01452
G1 X110.717 Y107.603 E0.01446
G1 X110.433 Y107.536 E0.01456
G1 X110.145 Y107.503 E0.01446
G1 X109.855 Y107.503 E0.01447
G1 X109.567 Y107.536 E0.01446
G1 X109.283 Y107.603 E0.01456
G0 F600 X109.398 Y107.987
G1 F1500 X109.169 Y108.071 E0.01217
G1 X108.95 Y108.179 E0.01218
G1 X108.745 Y108.315 E0.01227
G1 X108.557 Y108.472 E0.01222
G1 X108.39 Y108.65 E0.01218
G1 X108.245 Y108.846 E0.01216
G1 X108.123 Y109.056 E0.01212
G1 X108.026 Y109.28 E0.01218
G1 X107.955 Y109.516 E0.0123
G1 X107.913 Y109.757 E0.0122
G1 X107.899 Y110 E0.01214
G1 X107.913 Y110.243 E0.01214
G1 X107.955 Y110.484 E0.0122
G1 X108.026 Y110.72 E0.0123
G1 X108.123 Y110.944 E0.01218
G1 X108.245 Y111.154 E0.01212
G1 X108.39 Y111.35 E0.01216
G1 X108.557 Y111.528 E0.01218
G1 X108.745 Y111.685 E0.01222
G1 X108.95 Y111.821 E0.01227
G1 X109.169 Y111.929 E0.01218
G1 X109.398 Y112.013 E0.01217
G1 X109.636 Y112.069 E0.0122
G1 X109.878 Y112.097 E0.01215
G1 X110.122 Y112.097 E0.01217
G1 X110.364 Y112.069 E0.01215
G1 X110.602 Y112.013 E0.0122
G1 X110.831 Y111.929 E0.01217
G1 X111.05 Y111.821 E0.01218
G1 X111.255 Y111.685 E0.01227
G1 X111.443 Y111.528 E0.01222
G1 X111.61 Y111.35 E0.01218
G1 X111.755 Y111.154 E0.01216
G1 X111.877 Y110.944 E0.01212
G1 X111.974 Y110.72 E0.01218
G1 X112.045 Y110.484 E0.0123
G1 X112.087 Y110.243 E0.0122
G1 X112.101 Y110 E0.01214
G1 X112.087 Y109.757 E0.01214
G1 X112.045 Y109.516 E0.0122
G1 X111.974 Y109.28 E0.0123
G1 X111.877 Y109.056 E0.01218
G1 X111.755 Y108.846 E0.01212
G1 X111.61 Y108.65 E0.01216
G1 X111.443 Y108.472 E0.01218
G1 X111.255 Y108.315 E0.01222
G1 X111.05 Y108.179 E0.01227
G1 X110.831 Y108.071 E0.01218
G1 X110.602 Y107.987 E0.01217
G1 X110.364 Y107.931 E0.0122
G1 X110.122 Y107.903 E0.01215
G1 X109.878 Y107.903 E0.01217
G1 X109.636 Y107.931 E0.01215
G1 X109.398 Y107.987 E0.0122
G0 F600 X109.513 Y108.371
;TYPE:WALL-OUTER
G1 F1500 X109.327 Y108.439 E0.00988
G1 X109.15 Y108.527 E0.00986
G1 X108.984 Y108.636 E0.00991
G1 X108.833 Y108.763 E0.00984
G1 X108.698 Y108.907 E0.00985
G1 X108.58 Y109.066 E0.00988
G1 X108.481 Y109.237 E0.00986
G1 X108.402 Y109.418 E0.00985
G1 X108.345 Y109.608 E0.0099
G1 X108.311 Y109.803 E0.00988
G1 X108.3 Y110 E0.00984
G1 X108.311 Y110.197 E0.00984
G1 X108.345 Y110.392 E0.00988
G1 X108.402 Y110.582 E0.0099
G1 X108.481 Y110.763 E0.00985
G1 X108.58 Y110.934 E0.00986
G1 X108.698 Y111.093 E0.00988
G1 X108.833 Y111.237 E0.00985
G1 X108.984 Y111.364 E0.00984
G1 X109.15 Y111.473 E0.00991
G1 X109.327 Y111.561 E0.00986
G1 X109.513 Y111.629 E0.00988
G1 X109.705 Y111.674 E0.00984
G1 X109.901 Y111.697 E0.00985
G1 X110.099 Y111.697 E0.00988
G1 X110.295 Y111.674 E0.00985
G1 X110.487 Y111.629 E0.00984
G1 X110.673 Y111.561 E0.00988
G1 X110.85 Y111.473 E0.00986
G1 X111.016 Y111.364 E0.00991
G1 X111.167 Y111.237 E0.00984
G1 X111.302 Y111.093 E0.00985
G1 X111.42 Y110.934 E0.00988
G1 X111.519 Y110.763 E0.00986
G1 X111.598 Y110.582 E0.00985
G1 X111.655 Y110.392 E0.0099
G1 X111.689 Y110.197 E0.00988
G1 X111.7 Y110 E0.00984
G1 X111.689 Y109.803 E0.00984
G1 X111.655 Y109.608 E0.00988
G1 X111.598 Y109.418 E0.0099
G1 X111.519 Y109.237 E0.00985
G1 X111.42 Y109.066 E0.00986
G1 X111.302 Y108.907 E0.00988
G1 X111.167 Y108.763 E0.00985
G1 X111.016 Y108.636 E0.00984
G1 X110.85 Y108.527 E0.00991
G1 X110.673 Y108.439 E0.00986
G1 X110.487 Y108.371 E0.00988
G1 X110.295 Y108.326 E0.00984
G1 X110.099 Y108.303 E0.00985
G1 X109.901 Y108.303 E0.00988
G1 X109.705 Y108.326 E0.00985
G1 X109.513 Y108.371 E0.00984
G0 F600 X109.327 Y108.439
G0 X109.326 Y108.439
G0 X109.154 Y108.035
G0 X109.13 Y107.98
G0 X101.039 Y106
;TYPE:WALL-INNER
G1 F1500 X118.961 Y106 E0.89413
G1 X119.195 Y106.009 E0.01168
G1 X119.381 Y106.03 E0.00934
G1 X119.546 Y106.061 E0.00838
G1 X119.743 Y106.113 E0.01016
G1 X119.91 Y106.172 E0.00884
G1 X120.087 Y106.25 E0.00965
G1 X120.246 Y106.333 E0.00895
G1 X120.407 Y106.434 E0.00948
G1 X120.561 Y106.548 E0.00956
G1 X120.703 Y106.67 E0.00934
G1 X120.83 Y106.797 E0.00896
G1 X120.952 Y106.939 E0.00934
G1 X121.066 Y107.093 E0.00956
G1 X121.159 Y107.243 E0.00881
G1 X121.254 Y107.422 E0.01011
G1 X121.329 Y107.593 E0.00932
G1 X121.39 Y107.769 E0.00929
G1 X121.438 Y107.951 E0.00939
G1 X121.471 Y108.12 E0.00859
G1 X121.492 Y108.313 E0.00969
G1 X121.5 Y108.529 E0.01078
G1 X121.5 Y114 E0.27295
G1 X98.5 Y114 E1.14747
G1 X98.5 Y108.537 E0.27255
G1 X98.508 Y108.306 E0.01153
G1 X98.529 Y108.12 E0.00934
G1 X98.562 Y107.951 E0.00859
G1 X98.61 Y107.769 E0.00939
G1 X98.671 Y107.593 E0.00929
G1 X98.746 Y107.422 E0.00932
G1 X98.841 Y107.243 E0.01011
G1 X98.934 Y107.093 E0.00881
G1 X99.048 Y106.939 E0.00956
G1 X99.17 Y106.797 E0.00934
G1 X99.297 Y106.67 E0.00896
G1 X99.439 Y106.548 E0.00934
G1 X99.593 Y106.434 E0.00956
G1 X99.754 Y106.333 E0.00948
G1 X99.913 Y106.25 E0.00895
G1 X100.09 Y106.172 E0.00965
G1 X100.257 Y106.113 E0.00884
G1 X100.454 Y106.061 E0.01016
G1 X100.619 Y106.03 E0.00838
G1 X100.805 Y106.009 E0.00934
G1 X101.039 Y106 E0.01168
G0 F600 X101.024 Y105.6
G1 F1500 X118.976 Y105.6 E0.89563
G1 X119.215 Y105.609 E0.01193
G1 X119.445 Y105.635 E0.01155
G1 X119.642 Y105.672 E0.01
G1 X119.853 Y105.728 E0.01089
G1 X120.065 Y105.803 E0.01122
G1 X120.255 Y105.886 E0.01034
G1 X120.445 Y105.986 E0.01071
G1 X120.63 Y106.102 E0.01089
G1 X120.815 Y106.239 E0.01148
G1 X120.977 Y106.378 E0.01065
G1 X121.122 Y106.523 E0.01023
G1 X121.261 Y106.685 E0.01065
G1 X121.272 Y106.701 E0.00097
G1 X121.398 Y106.87 E0.01052
G1 X121.51 Y107.049 E0.01053
G1 X121.615 Y107.248 E0.01123
G1 X121.702 Y107.447 E0.01084
G1 X121.772 Y107.647 E0.01057
G1 X121.829 Y107.865 E0.01124
G1 X121.865 Y108.053 E0.00955
G1 X121.867 Y108.074 E0.00105
G1 X121.892 Y108.292 E0.01095
G1 X121.9 Y108.515 E0.01113
G1 X121.9 Y114.4 E0.2936
G1 X98.1 Y114.4 E1.18739
G1 X98.1 Y108.523 E0.2932
G1 X98.108 Y108.291 E0.01158
G1 X98.135 Y108.053 E0.01195
G1 X98.171 Y107.865 E0.00955
G1 X98.228 Y107.647 E0.01124
G1 X98.298 Y107.447 E0.01057
G1 X98.385 Y107.248 E0.01084
G1 X98.49 Y107.049 E0.01123
G1 X98.602 Y106.87 E0.01053
G1 X98.739 Y106.685 E0.01148
G1 X98.878 Y106.523 E0.01065
G1 X99.023 Y106.378 E0.01023
G1 X99.185 Y106.239 E0.01065
G1 X99.201 Y106.228 E0.00097
G1 X99.37 Y106.102 E0.01052
G1 X99.555 Y105.986 E0.01089
G1 X99.745 Y105.886 E0.01071
G1 X99.935 Y105.803 E0.01034
G1 X100.124 Y105.737 E0.00999
G1 X100.147 Y105.728 E0.00123
G1 X100.358 Y105.672 E0.01089
G1 X100.555 Y105.635 E0.01
G1 X100.785 Y105.609 E0.01155
G1 X101.024 Y105.6 E0.01193
G0 F600 X101.008 Y105.2
;TYPE:WALL-OUTER
G1 F1500 X118.992 Y105.2 E0.89723
G1 X119.246 Y105.21 E0.01268
G1 X119.5 Y105.238 E0.01275
G1 X119.732 Y105.282 E0.01178
G1 X119.966 Y105.344 E0.01208
G1 X120.213 Y105.431 E0.01306
G1 X120.429 Y105.526 E0.01177
G1 X120.644 Y105.639 E0.01212
G1 X120.86 Y105.774 E0.01271
G1 X121.063 Y105.925 E0.01262
G1 X121.251 Y106.086 E0.01235
G1 X121.414 Y106.249 E0.0115
G1 X121.575 Y106.437 E0.01235
G1 X121.726 Y106.64 E0.01262
G1 X121.861 Y106.856 E0.01271
G1 X121.976 Y107.074 E0.0123
G1 X122.069 Y107.287 E0.0116
G1 X122.156 Y107.534 E0.01306
G1 X122.219 Y107.772 E0.01228
G1 X122.262 Y108 E0.01158
G1 X122.291 Y108.26 E0.01305
G1 X122.3 Y108.5 E0.01198
G1 X122.3 Y114.8 E0.31431
G1 X97.7 Y114.8 E1.2273
G1 X97.7 Y108.508 E0.31391
G1 X97.709 Y108.26 E0.01238
G1 X97.738 Y108 E0.01305
G1 X97.781 Y107.772 E0.01158
G1 X97.844 Y107.534 E0.01228
G1 X97.931 Y107.287 E0.01306
G1 X98.024 Y107.074 E0.0116
G1 X98.139 Y106.856 E0.0123
G1 X98.274 Y106.64 E0.01271
G1 X98.425 Y106.437 E0.01262
G1 X98.586 Y106.249 E0.01235
G1 X98.749 Y106.086 E0.0115
G1 X98.937 Y105.925 E0.01235
G1 X99.14 Y105.774 E0.01262
G1 X99.356 Y105.639 E0.01271
G1 X99.571 Y105.526 E0.01212
G1 X99.787 Y105.431 E0.01177
G1 X100.034 Y105.344 E0.01306
G1 X100.268 Y105.282 E0.01208
G1 X100.5 Y105.238 E0.01178
G1 X100.754 Y105.21 E0.01275
G1 X101.008 Y105.2 E0.01268
G0 F600 X101.208 Y105.2
G0 X101.208 Y105.64
G0 X101.055 Y106.39
;TYPE:SKIN
G1 F1500 X118.945 Y106.39 E0.89254
G1 X119.165 Y106.399 E0.01099
G1 X119.319 Y106.416 E0.00773
G1 X119.468 Y106.444 E0.00756
G1 X119.625 Y106.485 E0.0081
G1 X119.766 Y106.535 E0.00746
G1 X120.065 Y106.679 E0.01656
G1 X120.179 Y106.751 E0.00673
G1 X120.321 Y106.856 E0.00881
G1 X120.449 Y106.966 E0.00842
G1 X120.534 Y107.051 E0.006
G1 X120.638 Y107.171 E0.00792
G1 X120.746 Y107.317 E0.00906
G1 X120.82 Y107.437 E0.00703
G1 X120.909 Y107.605 E0.00949
G1 X120.968 Y107.74 E0.00735
G1 X121.017 Y107.881 E0.00745
G1 X121.058 Y108.038 E0.0081
G1 X121.083 Y108.163 E0.00636
G1 X121.104 Y108.356 E0.00969
G1 X121.11 Y108.529 E0.00864
G1 X121.11 Y113.61 E0.25349
G1 X98.89 Y113.61 E1.10856
G1 X98.89 Y108.55 E0.25244
G1 X98.897 Y108.342 E0.01038
G1 X98.915 Y108.178 E0.00823
G1 X98.97 Y107.932 E0.01258
G1 X98.99 Y107.912 E0.00141
G1 X98.99 Y107.862 E0.00249
G1 X99.032 Y107.74 E0.00644
G1 X99.091 Y107.605 E0.00735
G1 X99.18 Y107.437 E0.00949
G1 X99.254 Y107.317 E0.00703
G1 X99.362 Y107.171 E0.00906
G1 X99.466 Y107.051 E0.00792
G1 X99.551 Y106.966 E0.006
G1 X99.679 Y106.856 E0.00842
G1 X99.821 Y106.751 E0.00881
G1 X99.935 Y106.679 E0.00673
G1 X100.085 Y106.601 E0.00843
G1 X100.234 Y106.535 E0.00813
G1 X100.375 Y106.485 E0.00746
G1 X100.532 Y106.444 E0.0081
G1 X100.681 Y106.416 E0.00756
G1 X100.835 Y106.399 E0.00773
G1 X101.055 Y106.39 E0.01099
G0 F600 X107.416 Y108.699
G1 F1500 X107.283 Y109.008 E0.01678
G1 X107.185 Y109.334 E0.01698
G1 X107.127 Y109.666 E0.01681
G1 X107.108 Y110 E0.01669
G1 X107.127 Y110.334 E0.01669
G1 X107.185 Y110.666 E0.01681
G1 X107.283 Y110.992 E0.01698
G1 X107.416 Y111.301 E0.01678
G1 X107.584 Y111.589 E0.01663
G1 X107.782 Y111.857 E0.01662
G1 X108.014 Y112.103 E0.01687
G1 X108.272 Y112.319 E0.01679
G1 X108.555 Y112.507 E0.01695
G1 X108.857 Y112.656 E0.0168
G1 X109.17 Y112.771 E0.01664
G1 X109.5 Y112.848 E0.01691
G1 X109.833 Y112.887 E0.01673
G1 X110.167 Y112.887 E0.01666
G1 X110.5 Y112.848 E0.01673
G1 X110.83 Y112.771 E0.01691
G1 X111.143 Y112.656 E0.01664
G1 X111.445 Y112.507 E0.0168
G1 X111.728 Y112.319 E0.01695
G1 X111.986 Y112.103 E0.01679
G1 X112.218 Y111.857 E0.01687
G1 X112.416 Y111.589 E0.01662
G1 X112.584 Y111.301 E0.01663
G1 X112.717 Y110.992 E0.01678
G1 X112.815 Y110.666 E0.01698
G1 X112.873 Y110.334 E0.01681
G1 X112.892 Y110 E0.01669
G1 X112.873 Y109.666 E0.01669
G1 X112.815 Y109.334 E0.01681
G1 X112.717 Y109.008 E0.01698
G1 X112.584 Y108.699 E0.01678
G1 X112.416 Y108.411 E0.01663
G1 X112.218 Y108.143 E0.01662
G1 X111.986 Y107.897 E0.01687
G1 X111.728 Y107.681 E0.01679
G1 X111.445 Y107.493 E0.01695
G1 X111.143 Y107.344 E0.0168
G1 X110.83 Y107.229 E0.01664
G1 X110.5 Y107.152 E0.01691
G1 X110.167 Y107.113 E0.01673
G1 X109.833 Y107.113 E0.01666
G1 X109.5 Y107.152 E0.01673
G1 X109.17 Y107.229 E0.01691
G1 X108.857 Y107.344 E0.01664
G1 X108.555 Y107.493 E0.0168
G1 X108.272 Y107.681 E0.01695
G1 X108.014 Y107.897 E0.01679
G1 X107.782 Y108.143 E0.01687
G1 X107.584 Y108.411 E0.01662
G1 X107.416 Y108.699 E0.01663
G0 F600 X99.287 Y113.429
G1 F1500 X99.069 Y113.212 E0.01535
G0 F600 X99.069 Y112.646
G1 F1500 X99.853 Y113.429 E0.05528
G0 F600 X100.419 Y113.429
G1 F1500 X99.069 Y112.08 E0.09521
G0 F600 X99.069 Y111.514
G1 F1500 X100.984 Y113.429 E0.13511
G0 F600 X101.55 Y113.429
G1 F1500 X99.069 Y110.949 E0.17501
G0 F600 X99.069 Y110.383
G1 F1500 X102.116 Y113.429 E0.21495
G0 F600 X102.681 Y113.429
G1 F1500 X99.069 Y109.817 E0.25485
G0 F600 X99.069 Y109.252
G1 F1500 X103.247 Y113.429 E0.29475
G0 F600 X103.813 Y113.429
G1 F1500 X99.069 Y108.686 E0.33468
G0 F600 X99.103 Y108.154
G1 F1500 X104.378 Y113.429 E0.37218
G0 F600 X104.944 Y113.429
G1 F1500 X99.235 Y107.72 E0.4028
G0 F600 X99.442 Y107.362
G1 F1500 X105.51 Y113.429 E0.42809
G0 F600 X106.075 Y113.429
G1 F1500 X99.711 Y107.065 E0.44901
G0 F600 X100.039 Y106.827
G1 F1500 X106.641 Y113.429 E0.46581
G0 F600 X107.207 Y113.429
G1 F1500 X100.433 Y106.655 E0.47794
G0 F600 X100.918 Y106.575
G1 F1500 X107.772 Y113.429 E0.48359
G0 F600 X108.338 Y113.429
G1 F1500 X101.478 Y106.569 E0.48401
G0 F600 X102.043 Y106.569
G1 F1500 X108.904 Y113.429 E0.48405
G0 F600 X108.904 Y112.864
G1 F1500 X109.47 Y113.429 E0.0399
G0 F600 X109.843 Y113.237
G1 F1500 X110.416 Y113.244 E0.04599
G1 X111.439 Y113.137 E0.08255
G0 F600 X111.532 Y112.664
G1 F1500 X112.298 Y113.429 E0.05401
G0 F600 X112.864 Y113.429
G1 F1500 X111.869 Y112.434 E0.0702
G0 F600 X112.169 Y112.169
G1 F1500 X113.429 Y113.429 E0.0889
G0 F600 X113.995 Y113.429
G1 F1500 X112.432 Y111.866 E0.11028
G0 F600 X112.659 Y111.527
G1 F1500 X114.561 Y113.429 E0.1342
G0 F600 X115.126 Y113.429
G1 F1500 X112.845 Y111.147 E0.16097
G0 F600 X112.985 Y110.722
G1 F1500 X115.692 Y113.429 E0.19099
G0 F600 X116.258 Y113.429
G1 F1500 X113.057 Y110.229 E0.22581
G0 F600 X113.051 Y109.657
G1 F1500 X116.823 Y113.429 E0.26613
G0 F600 X117.389 Y113.429
G1 F1500 X112.869 Y108.91 E0.31888
G1 X112.799 Y108.84
G0 F600 X112.792 Y106.57
G1 F1500 X119.652 Y113.429 E0.48397
G0 F600 X119.086 Y113.429
G1 F1500 X112.227 Y106.57 E0.48394
G1 X112.157 Y106.5
G0 F600 X113.358 Y106.57
G1 F1500 X120.218 Y113.429 E0.48397
G0 F600 X120.783 Y113.429
G1 F1500 X113.924 Y106.57 E0.48394
G0 F600 X114.489 Y106.57
G1 F1500 X120.93 Y113.011 E0.45445
G0 F600 X120.93 Y112.445
G1 F1500 X115.055 Y106.57 E0.41451
G0 F600 X115.621 Y106.57
G1 F1500 X120.93 Y111.879 E0.37458
G0 F600 X120.93 Y111.314
G1 F1500 X116.186 Y106.57 E0.33471
G0 F600 X116.752 Y106.57
G1 F1500 X120.93 Y110.747 E0.29475
G0 F600 X120.93 Y110.182
G1 F1500 X117.318 Y106.57 E0.25485
G0 F600 X117.883 Y106.57
