;FLAVOR:RepRap
;TIME:8273
;Filament used: 7.08718m
;Layer height: 0.2
;Generated with Cura_SteamEngine 3.6.0
T0
M190 S60
M104 S200
M109 S200
M82 ;absolute extrusion mode
G21 ;metric values
G90 ;absolute positioning
M82 ;set extruder to absolute mode
M107 ;start with the fan off
G28 X0 Y0 ;move X/Y to min endstops
G28 Z0 ;move Z to min endstops
G1 Z15.0 F9000 ;move the platform down 15mm
G92 E0 ;zero the extruded length
G1 F200 E3 ;extrude 3mm of feed stock
G92 E0 ;zero the extruded length again
G1 F9000;Put printing message on LCD screen
M117 Printing..0
M83 ;relative extrusion mode
G1 F1500 E-6.5
;LAYER_COUNT:150
;LAYER:0
M107
;MESH:1_Z_Rod_Holder_Left.stl
G0 F600 X113.709 Y122.001 Z0.3
;TYPE:WALL-INNER
G1 F1500 E6.5
G1 X113.839 Y121.771 E0.01318
G1 X113.929 Y121.527 E0.01297
G1 X113.974 Y121.266 E0.01321
G1 X113.974 Y121.013 E0.01262
G1 X113.932 Y120.753 E0.01314
G1 X113.84 Y120.502 E0.01334
G1 X113.71 Y120.279 E0.01288
G1 X113.579 Y120.119 E0.01032
G1 X99.431 Y105.642 E1.00989
G1 X99.257 Y105.497 E0.0113
G1 X99.034 Y105.372 E0.01275
G1 X98.797 Y105.285 E0.0126
G1 X98.544 Y105.238 E0.01284
G1 X98.293 Y105.237 E0.01252
G1 X98.059 Y105.273 E0.01181
G1 X97.833 Y105.341 E0.01177
G1 X97.606 Y105.46 E0.01279
G1 X97.405 Y105.609 E0.01248
G1 X97.226 Y105.795 E0.01288
G1 X97.086 Y106.006 E0.01263
G1 X96.979 Y106.242 E0.01293
G1 X96.919 Y106.489 E0.01268
G1 X96.902 Y106.686 E0.00986
G1 X96.902 Y134.934 E1.4093
G1 X96.918 Y135.131 E0.00986
G1 X96.978 Y135.373 E0.01244
G1 X97.08 Y135.61 E0.01287
G1 X97.218 Y135.818 E0.01245
G1 X97.392 Y136.006 E0.01278
G1 X97.593 Y136.157 E0.01254
G1 X97.815 Y136.277 E0.01259
G1 X98.062 Y136.355 E0.01292
G1 X98.278 Y136.385 E0.01088
G1 X98.309 Y136.39 E0.00157
G1 X98.557 Y136.386 E0.01237
G1 X98.81 Y136.339 E0.01284
G1 X99.043 Y136.25 E0.01244
G1 X99.265 Y136.124 E0.01274
G1 X99.425 Y135.989 E0.01044
G1 X113.559 Y122.175 E0.98601
G1 X113.709 Y122.001 E0.01146
G0 F600 X113.38 Y121.77
G1 F1500 X113.475 Y121.602 E0.00963
G1 X113.541 Y121.423 E0.00952
G1 X113.574 Y121.232 E0.00967
G1 X113.574 Y121.045 E0.00933
G1 X113.543 Y120.855 E0.0096
G1 X113.476 Y120.672 E0.00972
G1 X113.381 Y120.508 E0.00946
G1 X113.281 Y120.387 E0.00783
G1 X99.159 Y105.936 E1.00806
G1 X99.029 Y105.828 E0.00843
G1 X98.866 Y105.736 E0.00934
G1 X98.691 Y105.672 E0.0093
G1 X98.506 Y105.638 E0.00938
G1 X98.323 Y105.637 E0.00913
G1 X98.148 Y105.664 E0.00883
G1 X97.985 Y105.713 E0.00849
G1 X97.819 Y105.8 E0.00935
G1 X97.67 Y105.91 E0.00924
G1 X97.54 Y106.046 E0.00939
G1 X97.437 Y106.201 E0.00928
G1 X97.359 Y106.373 E0.00942
G1 X97.315 Y106.554 E0.00929
G1 X97.302 Y106.703 E0.00746
G1 X97.302 Y134.918 E1.40765
G1 X97.314 Y135.067 E0.00746
G1 X97.358 Y135.245 E0.00915
G1 X97.433 Y135.418 E0.00941
G1 X97.534 Y135.57 E0.0091
G1 X97.661 Y135.708 E0.00936
G1 X97.809 Y135.819 E0.00923
G1 X97.972 Y135.907 E0.00924
G1 X98.151 Y135.964 E0.00937
G1 X98.334 Y135.99 E0.00922
G1 X98.516 Y135.987 E0.00908
G1 X98.701 Y135.952 E0.00939
G1 X98.873 Y135.887 E0.00917
G1 X99.035 Y135.795 E0.00929
G1 X99.155 Y135.693 E0.00786
G1 X113.267 Y121.901 E0.98445
G1 X113.38 Y121.77 E0.00863
G0 F600 X113.051 Y121.539
;TYPE:WALL-OUTER
G1 F1500 X113.111 Y121.433 E0.00608
G1 X113.153 Y121.319 E0.00606
G1 X113.174 Y121.198 E0.00613
G1 X113.174 Y121.078 E0.00599
G1 X113.154 Y120.957 E0.00612
G1 X113.112 Y120.842 E0.00611
G1 X113.051 Y120.737 E0.00606
G1 X112.983 Y120.654 E0.00535
G1 X98.888 Y106.231 E1.00612
G1 X98.801 Y106.159 E0.00563
G1 X98.697 Y106.1 E0.00597
G1 X98.586 Y106.059 E0.0059
G1 X98.469 Y106.038 E0.00593
G1 X98.352 Y106.037 E0.00584
G1 X98.237 Y106.055 E0.00581
G1 X98.137 Y106.085 E0.00521
G1 X98.032 Y106.14 E0.00591
G1 X97.936 Y106.211 E0.00596
G1 X97.854 Y106.297 E0.00593
G1 X97.788 Y106.396 E0.00594
G1 X97.739 Y106.504 E0.00592
G1 X97.711 Y106.619 E0.0059
G1 X97.702 Y106.721 E0.00511
G1 X97.702 Y134.902 E1.40596
G1 X97.71 Y135.003 E0.00505
G1 X97.738 Y135.116 E0.00581
G1 X97.786 Y135.226 E0.00599
G1 X97.85 Y135.323 E0.0058
G1 X97.93 Y135.41 E0.0059
G1 X98.025 Y135.481 E0.00592
G1 X98.129 Y135.537 E0.00589
G1 X98.241 Y135.573 E0.00587
G1 X98.359 Y135.59 E0.00595
G1 X98.475 Y135.588 E0.00579
G1 X98.592 Y135.566 E0.00594
G1 X98.702 Y135.524 E0.00587
G1 X98.804 Y135.466 E0.00585
G1 X98.885 Y135.397 E0.00531
G1 X112.975 Y121.628 E0.98287
G1 X113.051 Y121.539 E0.00584
G0 F600 X113.111 Y121.433
G0 X113.138 Y121.359
G0 X113.552 Y121.511
G0 X113.605 Y121.532
G0 X115.902 Y118.175
;TYPE:WALL-INNER
G1 F1500 X116.134 Y118.306 E0.01329
G1 X116.376 Y118.396 E0.01288
G1 X116.635 Y118.441 E0.01312
G1 X116.892 Y118.441 E0.01282
G1 X117.152 Y118.399 E0.01314
G1 X117.403 Y118.307 E0.01334
G1 X117.628 Y118.177 E0.01296
G1 X117.787 Y118.044 E0.01034
G1 X132.713 Y103.458 E1.04118
G1 X132.857 Y103.283 E0.01131
G1 X132.983 Y103.061 E0.01274
G1 X133.067 Y102.829 E0.01231
G1 X133.116 Y102.574 E0.01295
G1 X133.116 Y102.317 E0.01282
G1 X133.08 Y102.085 E0.01171
G1 X133.014 Y101.871 E0.01117
G1 X132.899 Y101.637 E0.01301
G1 X132.741 Y101.431 E0.01295
G1 X132.557 Y101.254 E0.01274
G1 X132.342 Y101.112 E0.01285
G1 X132.113 Y101.01 E0.01251
G1 X131.869 Y100.947 E0.01257
G1 X131.666 Y100.93 E0.01016
G1 X102.542 Y100.93 E1.453
G1 X102.345 Y100.946 E0.00986
G1 X102.103 Y101.006 E0.01244
G1 X101.866 Y101.108 E0.01287
G1 X101.655 Y101.249 E0.01266
G1 X101.471 Y101.42 E0.01253
G1 X101.319 Y101.619 E0.01249
G1 X101.2 Y101.842 E0.01261
G1 X101.12 Y102.092 E0.0131
G1 X101.116 Y102.126 E0.00171
G1 X101.091 Y102.308 E0.00917
G1 X101.086 Y102.34 E0.00162
G1 X101.09 Y102.583 E0.01212
G1 X101.138 Y102.841 E0.01309
G1 X101.229 Y103.075 E0.01253
G1 X101.352 Y103.292 E0.01244
G1 X101.489 Y103.454 E0.01058
G1 X115.729 Y118.026 E1.01649
G1 X115.902 Y118.175 E0.01139
G0 F600 X116.133 Y117.846
G1 F1500 X116.303 Y117.942 E0.00974
G1 X116.481 Y118.008 E0.00947
G1 X116.67 Y118.041 E0.00957
G1 X116.86 Y118.041 E0.00948
G1 X117.05 Y118.01 E0.0096
G1 X117.233 Y117.943 E0.00972
G1 X117.398 Y117.848 E0.0095
G1 X117.519 Y117.747 E0.00786
G1 X132.418 Y103.187 E1.03931
G1 X132.526 Y103.056 E0.00847
G1 X132.618 Y102.893 E0.00934
G1 X132.68 Y102.722 E0.00907
G1 X132.716 Y102.536 E0.00945
G1 X132.716 Y102.348 E0.00938
G1 X132.689 Y102.175 E0.00874
G1 X132.641 Y102.019 E0.00814
G1 X132.557 Y101.849 E0.00946
G1 X132.442 Y101.698 E0.00947
G1 X132.306 Y101.568 E0.00939
G1 X132.149 Y101.464 E0.0094
G1 X131.981 Y101.389 E0.00918
G1 X131.802 Y101.343 E0.00922
G1 X131.649 Y101.33 E0.00766
G1 X102.558 Y101.33 E1.45136
G1 X102.409 Y101.342 E0.00746
G1 X102.231 Y101.386 E0.00915
G1 X102.058 Y101.461 E0.00941
G1 X101.904 Y101.564 E0.00924
G1 X101.768 Y101.69 E0.00925
G1 X101.657 Y101.836 E0.00915
G1 X101.57 Y101.999 E0.00922
G1 X101.511 Y102.181 E0.00955
G1 X101.486 Y102.364 E0.00921
G1 X101.489 Y102.543 E0.00893
G1 X101.524 Y102.731 E0.00954
G1 X101.591 Y102.903 E0.00921
G1 X101.681 Y103.062 E0.00912
G1 X101.785 Y103.184 E0.008
G1 X116.003 Y117.734 E1.01494
G1 X116.133 Y117.846 E0.00856
G0 F600 X116.364 Y117.517
;TYPE:WALL-OUTER
G1 F1500 X116.472 Y117.578 E0.00619
G1 X116.586 Y117.62 E0.00606
G1 X116.705 Y117.641 E0.00603
G1 X116.827 Y117.641 E0.00609
G1 X116.948 Y117.621 E0.00612
G1 X117.063 Y117.579 E0.00611
G1 X117.169 Y117.518 E0.0061
G1 X117.251 Y117.45 E0.00531
G1 X132.123 Y102.916 E1.03744
G1 X132.195 Y102.829 E0.00563
G1 X132.253 Y102.726 E0.0059
G1 X132.293 Y102.615 E0.00589
G1 X132.316 Y102.497 E0.006
G1 X132.316 Y102.379 E0.00589
G1 X132.298 Y102.265 E0.00576
G1 X132.268 Y102.167 E0.00511
G1 X132.215 Y102.06 E0.00596
G1 X132.143 Y101.965 E0.00595
G1 X132.056 Y101.882 E0.006
G1 X131.956 Y101.816 E0.00598
G1 X131.849 Y101.768 E0.00585
G1 X131.735 Y101.739 E0.00587
G1 X131.632 Y101.73 E0.00516
G1 X102.574 Y101.73 E1.44971
G1 X102.473 Y101.738 E0.00505
G1 X102.36 Y101.766 E0.00581
G1 X102.25 Y101.814 E0.00599
G1 X102.152 Y101.879 E0.00587
G1 X102.066 Y101.959 E0.00586
G1 X101.995 Y102.053 E0.00588
G1 X101.939 Y102.157 E0.00589
G1 X101.902 Y102.271 E0.00598
G1 X101.886 Y102.388 E0.00589
G1 X101.888 Y102.503 E0.00574
G1 X101.91 Y102.621 E0.00599
G1 X101.953 Y102.731 E0.00589
G1 X102.01 Y102.832 E0.00579
G1 X102.08 Y102.914 E0.00538
G1 X116.277 Y117.442 E1.01342
G1 X116.364 Y117.517 E0.00573
G0 F600 X116.472 Y117.578
G0 X116.543 Y117.604
G0 X116.39 Y118.018
G0 X116.37 Y118.072
G0 X115.97 Y117.757
G0 X101.649 Y103.085
G0 X99 Y97.93
;TYPE:WALL-INNER
G1 F1500 X139 Y97.93 E1.99561
G1 X139 Y101.508 E0.17851
G1 X97.494 Y142.07 E2.89536
G1 X90.214 Y142.07 E0.3632
G1 X90.214 Y135.561 E0.32474
G1 X90.297 Y135.519 E0.00464
G1 X90.639 Y135.307 E0.02007
G1 X90.963 Y135.072 E0.01997
G1 X91.268 Y134.811 E0.02003
G1 X91.551 Y134.526 E0.02004
G1 X91.81 Y134.223 E0.01989
G1 X92.048 Y133.896 E0.02018
G1 X92.255 Y133.554 E0.01994
G1 X92.26 Y133.543 E0.0006
G1 X92.439 Y133.197 E0.01944
G1 X92.591 Y132.823 E0.02014
G1 X92.714 Y132.443 E0.01993
G1 X92.807 Y132.053 E0.02
G1 X92.87 Y131.655 E0.0201
G1 X92.899 Y131.253 E0.02011
G1 X92.898 Y130.854 E0.01991
G1 X92.866 Y130.464 E0.01952
G1 X92.804 Y130.07 E0.0199
G1 X92.71 Y129.679 E0.02006
G1 X92.584 Y129.295 E0.02016
G1 X92.43 Y128.927 E0.0199
G1 X92.248 Y128.569 E0.02004
G1 X92.037 Y128.227 E0.02005
G1 X91.801 Y127.901 E0.02008
G1 X91.537 Y127.597 E0.02009
G1 X91.255 Y127.316 E0.01986
G1 X90.949 Y127.055 E0.02007
G1 X90.622 Y126.818 E0.02015
G1 X90.278 Y126.61 E0.02006
G1 X89.921 Y126.43 E0.01995
G1 X89.548 Y126.278 E0.02009
G1 X89.166 Y126.155 E0.02002
G1 X88.777 Y126.064 E0.01993
G1 X88.381 Y126.001 E0.02
G1 X87.978 Y125.972 E0.02016
G1 X87.579 Y125.974 E0.01991
G1 X87.178 Y126.007 E0.02007
G1 X86.781 Y126.072 E0.02007
G1 X86.39 Y126.168 E0.02009
G1 X86.01 Y126.294 E0.01997
G1 X85.642 Y126.449 E0.01992
G1 X85.283 Y126.634 E0.02015
G1 X84.942 Y126.847 E0.02006
G1 X84.619 Y127.084 E0.01999
G1 X84.317 Y127.345 E0.01991
G1 X84.033 Y127.631 E0.02011
G1 X83.774 Y127.94 E0.02012
G1 X83.542 Y128.266 E0.01996
G1 X83.333 Y128.609 E0.02004
G1 X83.154 Y128.971 E0.02015
G1 X83.005 Y129.34 E0.01985
G1 X82.882 Y129.723 E0.02007
G1 X82.791 Y130.115 E0.02008
G1 X82.732 Y130.513 E0.02007
G1 X82.704 Y130.91 E0.01986
G1 X82.706 Y131.314 E0.02016
G1 X82.742 Y131.714 E0.02004
G1 X82.808 Y132.111 E0.02008
G1 X82.906 Y132.5 E0.02001
G1 X83.034 Y132.88 E0.02
G1 X83.19 Y133.247 E0.0199
G1 X83.376 Y133.606 E0.02017
G1 X83.591 Y133.946 E0.02007
G1 X83.828 Y134.268 E0.01995
G1 X84.093 Y134.572 E0.02012
G1 X84.381 Y134.851 E0.02
G1 X84.684 Y135.106 E0.01976
G1 X85.015 Y135.343 E0.02031
G1 X85.355 Y135.539 E0.01958
G1 X85.422 Y135.578 E0.00387
G1 X85.422 Y142.07 E0.32389
G1 X81.702 Y142.07 E0.18559
G1 X81.702 Y115.682 E1.3165
G1 X81 Y101.92 E0.68748
G1 X81 Y77.93 E1.19687
G1 X99 Y77.93 E0.89802
G1 X99 Y97.93 E0.9978
G0 F600 X99.4 Y97.53
G1 F1500 X139.4 Y97.53 E1.99561
G1 X139.4 Y101.677 E0.20689
G1 X97.657 Y142.47 E2.91187
G1 X89.814 Y142.47 E0.39129
G1 X89.814 Y135.315 E0.35696
G1 X90.101 Y135.17 E0.01604
G1 X90.416 Y134.975 E0.01848
G1 X90.715 Y134.758 E0.01843
G1 X90.996 Y134.518 E0.01844
G1 X91.257 Y134.255 E0.01849
G1 X91.496 Y133.975 E0.01837
G1 X91.715 Y133.674 E0.01857
G1 X91.906 Y133.359 E0.01838
G1 X92.075 Y133.03 E0.01845
G1 X92.215 Y132.686 E0.01853
G1 X92.329 Y132.335 E0.01841
G1 X92.414 Y131.976 E0.01841
G1 X92.472 Y131.609 E0.01854
G1 X92.499 Y131.239 E0.01851
G1 X92.498 Y130.871 E0.01836
G1 X92.469 Y130.512 E0.01797
G1 X92.411 Y130.148 E0.01839
G1 X92.325 Y129.788 E0.01847
G1 X92.209 Y129.435 E0.01854
G1 X92.067 Y129.095 E0.01838
G1 X91.899 Y128.765 E0.01847
G1 X91.704 Y128.45 E0.01848
G1 X91.487 Y128.15 E0.01847
G1 X91.244 Y127.87 E0.0185
G1 X90.984 Y127.61 E0.01834
G1 X90.702 Y127.37 E0.01847
G1 X90.401 Y127.152 E0.01854
G1 X90.084 Y126.96 E0.01849
G1 X89.755 Y126.794 E0.01838
G1 X89.411 Y126.654 E0.01853
G1 X89.059 Y126.541 E0.01844
G1 X88.7 Y126.457 E0.01839
G1 X88.335 Y126.399 E0.01844
G1 X87.965 Y126.372 E0.01851
G1 X87.596 Y126.374 E0.01841
G1 X87.227 Y126.404 E0.01847
G1 X86.861 Y126.464 E0.0185
G1 X86.501 Y126.553 E0.0185
G1 X86.151 Y126.669 E0.0184
G1 X85.811 Y126.812 E0.0184
G1 X85.481 Y126.982 E0.01852
G1 X85.167 Y127.178 E0.01847
G1 X84.869 Y127.397 E0.01845
G1 X84.59 Y127.638 E0.01839
G1 X84.329 Y127.901 E0.01849
G1 X84.091 Y128.185 E0.01849
G1 X83.876 Y128.486 E0.01845
G1 X83.684 Y128.802 E0.01845
G1 X83.519 Y129.135 E0.01854
G1 X83.381 Y129.476 E0.01835
G1 X83.268 Y129.829 E0.01849
G1 X83.184 Y130.19 E0.01849
G1 X83.13 Y130.556 E0.01846
G1 X83.104 Y130.923 E0.01836
G1 X83.106 Y131.295 E0.01856
G1 X83.139 Y131.663 E0.01843
G1 X83.2 Y132.029 E0.01851
G1 X83.29 Y132.387 E0.01842
G1 X83.408 Y132.738 E0.01847
G1 X83.552 Y133.077 E0.01838
G1 X83.723 Y133.407 E0.01854
G1 X83.921 Y133.72 E0.01848
G1 X84.14 Y134.017 E0.01841
G1 X84.384 Y134.297 E0.01853
G1 X84.649 Y134.554 E0.01842
G1 X84.93 Y134.79 E0.01831
G1 X85.234 Y135.008 E0.01866
G1 X85.552 Y135.196 E0.01843
G1 X85.822 Y135.329 E0.01502
G1 X85.822 Y142.47 E0.35627
G1 X81.302 Y142.47 E0.2255
G1 X81.302 Y115.692 E1.33596
G1 X80.6 Y101.92 E0.68798
G1 X80.6 Y77.53 E1.21682
G1 X99.4 Y77.53 E0.93794
G1 X99.4 Y97.53 E0.9978
G0 F600 X99.8 Y97.13
;TYPE:WALL-OUTER
G1 F1500 X139.8 Y97.13 E1.99561
G1 X139.8 Y101.846 E0.23528
G1 X97.82 Y142.87 E2.92838
G1 X89.414 Y142.87 E0.41938
G1 X89.414 Y135.053 E0.38999
G1 X89.603 Y134.974 E0.01022
G1 X89.905 Y134.821 E0.01689
G1 X90.193 Y134.643 E0.01689
G1 X90.467 Y134.444 E0.01689
G1 X90.724 Y134.224 E0.01688
G1 X90.963 Y133.984 E0.0169
G1 X91.182 Y133.727 E0.01685
G1 X91.382 Y133.452 E0.01696
G1 X91.557 Y133.164 E0.01681
G1 X91.711 Y132.863 E0.01687
G1 X91.839 Y132.549 E0.01692
G1 X91.943 Y132.227 E0.01688
G1 X92.021 Y131.898 E0.01687
G1 X92.074 Y131.563 E0.01692
G1 X92.099 Y131.225 E0.01691
G1 X92.098 Y130.887 E0.01686
G1 X92.072 Y130.56 E0.01637
G1 X92.018 Y130.226 E0.01688
G1 X91.94 Y129.897 E0.01687
G1 X91.834 Y129.575 E0.01691
G1 X91.704 Y129.263 E0.01686
G1 X91.55 Y128.961 E0.01691
G1 X91.372 Y128.673 E0.01689
G1 X91.173 Y128.399 E0.01689
G1 X90.951 Y128.143 E0.01691
G1 X90.712 Y127.904 E0.01686
G1 X90.455 Y127.685 E0.01685
G1 X90.18 Y127.486 E0.01694
G1 X89.89 Y127.31 E0.01692
G1 X89.589 Y127.158 E0.01682
G1 X89.275 Y127.03 E0.01692
G1 X88.952 Y126.927 E0.01691
G1 X88.623 Y126.85 E0.01686
G1 X88.289 Y126.797 E0.01687
G1 X87.951 Y126.772 E0.01691
G1 X87.613 Y126.774 E0.01686
G1 X87.276 Y126.801 E0.01687
G1 X86.942 Y126.856 E0.01689
G1 X86.612 Y126.938 E0.01696
G1 X86.292 Y127.044 E0.01682
G1 X85.98 Y127.175 E0.01688
G1 X85.679 Y127.33 E0.01689
G1 X85.392 Y127.509 E0.01688
G1 X85.119 Y127.71 E0.01691
G1 X84.863 Y127.931 E0.01687
G1 X84.625 Y128.171 E0.01686
G1 X84.407 Y128.43 E0.01689
G1 X84.21 Y128.706 E0.01692
G1 X84.035 Y128.995 E0.01686
G1 X83.884 Y129.299 E0.01693
G1 X83.757 Y129.612 E0.01685
G1 X83.654 Y129.935 E0.01691
G1 X83.577 Y130.265 E0.01691
G1 X83.528 Y130.599 E0.01684
G1 X83.504 Y130.936 E0.01686
G1 X83.506 Y131.276 E0.01696
G1 X83.536 Y131.612 E0.01683
G1 X83.592 Y131.947 E0.01695
G1 X83.674 Y132.275 E0.01687
G1 X83.782 Y132.596 E0.0169
G1 X83.914 Y132.907 E0.01686
G1 X84.07 Y133.208 E0.01691
G1 X84.251 Y133.494 E0.01689
G1 X84.452 Y133.766 E0.01687
G1 X84.675 Y134.022 E0.01694
G1 X84.917 Y134.257 E0.01683
G1 X85.175 Y134.474 E0.01682
G1 X85.452 Y134.672 E0.01699
G1 X85.743 Y134.844 E0.01686
G1 X86.046 Y134.994 E0.01687
G1 X86.222 Y135.065 E0.00947
G1 X86.222 Y142.87 E0.38939
G1 X80.902 Y142.87 E0.26542
G1 X80.902 Y115.702 E1.35542
G1 X80.2 Y101.92 E0.68848
G1 X80.2 Y77.13 E1.23678
G1 X99.8 Y77.13 E0.97785
G1 X99.8 Y97.13 E0.9978
G0 F600 X100 Y97.13
G0 X100 Y97.57
G0 X100 Y97.63
G0 X98.61 Y98.32
;TYPE:SKIN
