;FLAVOR:RepRap
;TIME:1998
;Filament used: 1.52728m
;Layer height: 0.2
;Generated with Cura_SteamEngine 3.6.0
T0
M190 S60
M104 S200
M109 S200
M82 ;absolute extrusion mode
G21 ;metric values
G90 ;absolute positioning
M82 ;set extruder to absolute mode
M107 ;start with the fan off
G28 X0 Y0 ;move X/Y to min endstops
G28 Z0 ;move Z to min endstops
G1 Z15.0 F9000 ;move the platform down 15mm
G92 E0 ;zero the extruded length
G1 F200 E3 ;extrude 3mm of feed stock
G92 E0 ;zero the extruded length again
G1 F9000;Put printing message on LCD screen
M117 Printing..0
M83 ;relative extrusion mode
G1 F1500 E-6.5
;LAYER_COUNT:200
;LAYER:0
M107
;MESH:1_Z_Endstop.stl
G0 F600 X111 Y113 Z0.3
;TYPE:WALL-INNER
G1 F1500 E6.5
G1 X111 Y104 E0.44901
G1 X119 Y104 E0.39912
G1 X119 Y116 E0.59868
G1 X101 Y116 E0.89802
G1 X101 Y113 E0.14967
G1 X111 Y113 E0.4989
G0 F600 X110.6 Y112.6
G1 F1500 X110.6 Y103.6 E0.44901
G1 X119.4 Y103.6 E0.43903
G1 X119.4 Y116.4 E0.63859
G1 X100.6 Y116.4 E0.93794
G1 X100.6 Y112.6 E0.18958
G1 X110.6 Y112.6 E0.4989
G0 F600 X110.2 Y112.2
;TYPE:WALL-OUTER
G1 F1500 X110.2 Y103.2 E0.44901
G1 X119.8 Y103.2 E0.47895
G1 X119.8 Y116.8 E0.67851
G1 X100.2 Y116.8 E0.97785
G1 X100.2 Y112.2 E0.22949
G1 X110.2 Y112.2 E0.4989
G0 F600 X110.2 Y112
G0 X110.64 Y112
G0 X110.7 Y112
G0 X111.39 Y113.39
;TYPE:SKIN
G1 F1500 X111.39 Y104.39 E0.44901
G1 X118.61 Y104.39 E0.36021
G1 X118.61 Y115.61 E0.55977
G1 X101.39 Y115.61 E0.85911
G1 X101.39 Y113.39 E0.11076
G1 X111.39 Y113.39 E0.4989
G0 F600 X101.853 Y115.429
G1 F1500 X101.569 Y115.145 E0.02004
G0 F600 X101.569 Y114.58
G1 F1500 X102.418 Y115.429 E0.0599
G0 F600 X102.984 Y115.429
G1 F1500 X101.569 Y114.014 E0.09984
G0 F600 X101.69 Y113.569
G1 F1500 X103.55 Y115.429 E0.13123
G0 F600 X104.115 Y115.429
G1 F1500 X102.256 Y113.569 E0.1312
G0 F600 X102.821 Y113.569
G1 F1500 X104.681 Y115.429 E0.13123
G0 F600 X105.247 Y115.429
G1 F1500 X103.387 Y113.569 E0.13123
G0 F600 X103.953 Y113.569
G1 F1500 X105.812 Y115.429 E0.1312
G0 F600 X106.378 Y115.429
G1 F1500 X104.518 Y113.569 E0.13123
G0 F600 X105.084 Y113.569
G1 F1500 X106.944 Y115.429 E0.13123
G0 F600 X107.509 Y115.429
G1 F1500 X105.65 Y113.569 E0.1312
G0 F600 X106.215 Y113.569
G1 F1500 X108.075 Y115.429 E0.13123
G0 F600 X108.641 Y115.429
G1 F1500 X106.781 Y113.569 E0.13123
G0 F600 X107.347 Y113.569
G1 F1500 X109.206 Y115.429 E0.1312
G0 F600 X109.772 Y115.429
G1 F1500 X107.912 Y113.569 E0.13123
G0 F600 X108.478 Y113.569
G1 F1500 X110.338 Y115.429 E0.13123
G0 F600 X110.904 Y115.429
G1 F1500 X109.044 Y113.569 E0.13123
G0 F600 X109.61 Y113.569
G1 F1500 X111.469 Y115.429 E0.1312
G0 F600 X112.035 Y115.429
G1 F1500 X110.175 Y113.569 E0.13123
G0 F600 X110.741 Y113.569
G1 F1500 X112.601 Y115.429 E0.13123
G0 F600 X113.166 Y115.429
G1 F1500 X111.307 Y113.569 E0.1312
G0 F600 X111.569 Y113.266
G1 F1500 X113.732 Y115.429 E0.15261
G0 F600 X114.298 Y115.429
G1 F1500 X111.569 Y112.7 E0.19255
G0 F600 X111.569 Y112.135
G1 F1500 X114.863 Y115.429 E0.23241
G0 F600 X115.429 Y115.429
G1 F1500 X111.569 Y111.569 E0.27234
G0 F600 X111.569 Y111.003
G1 F1500 X115.995 Y115.429 E0.31228
G0 F600 X116.56 Y115.429
G1 F1500 X111.569 Y110.438 E0.35214
G0 F600 X111.569 Y109.872
G1 F1500 X117.126 Y115.429 E0.39208
G0 F600 X117.692 Y115.429
G1 F1500 X111.569 Y109.306 E0.43201
G0 F600 X111.569 Y108.741
G1 F1500 X118.257 Y115.429 E0.47187
G0 F600 X118.429 Y115.034
G1 F1500 X111.569 Y108.175 E0.48397
G0 F600 X111.569 Y107.609
G1 F1500 X118.429 Y114.469 E0.48401
G0 F600 X118.429 Y113.903
G1 F1500 X111.569 Y107.043 E0.48401
G0 F600 X111.569 Y106.478
G1 F1500 X118.429 Y113.337 E0.48397
G0 F600 X118.429 Y112.772
G1 F1500 X111.569 Y105.912 E0.48401
G0 F600 X111.569 Y105.346
G1 F1500 X118.429 Y112.206 E0.48401
G0 F600 X118.429 Y111.64
G1 F1500 X111.569 Y104.781 E0.48397
G0 F600 X111.924 Y104.57
G1 F1500 X118.429 Y111.075 E0.45896
G0 F600 X118.429 Y110.509
G1 F1500 X112.49 Y104.57 E0.41903
G0 F600 X113.055 Y104.57
G1 F1500 X118.429 Y109.943 E0.37913
G0 F600 X118.429 Y109.378
G1 F1500 X113.621 Y104.57 E0.33923
G0 F600 X114.187 Y104.57
G1 F1500 X118.429 Y108.812 E0.2993
G0 F600 X118.429 Y108.246
G1 F1500 X114.752 Y104.57 E0.2594
G0 F600 X115.318 Y104.57
G1 F1500 X118.429 Y107.681 E0.2195
G0 F600 X118.429 Y107.115
G1 F1500 X115.884 Y104.57 E0.17956
G0 F600 X116.449 Y104.57
G1 F1500 X118.429 Y106.549 E0.13966
G0 F600 X118.429 Y105.983
G1 F1500 X117.015 Y104.57 E0.09973
G0 F600 X117.581 Y104.57
G1 F1500 X118.429 Y105.418 E0.05983
G0 F600 X118.429 Y104.852
G1 F1500 X118.146 Y104.57 E0.01993
;MESH:NONMESH
G0 F600 X111 Y113
;TIME_ELAPSED:44.741984
;LAYER:1
M140 S60
M106 S229.5
;MESH:1_Z_Endstop.stl
G0 F900 X111 Y113 Z0.5
;TYPE:WALL-INNER
G1 F2250 X111 Y104 E0.29934
G1 X119 Y104 E0.26608
G1 X119 Y116 E0.39912
G1 X101 Y116 E0.59868
G1 X101 Y113 E0.09978
G1 X111 Y113 E0.3326
G0 F900 X110.6 Y112.6
G1 F2250 X110.6 Y103.6 E0.29934
G1 X119.4 Y103.6 E0.29269
G1 X119.4 Y116.4 E0.42573
G1 X100.6 Y116.4 E0.62529
G1 X100.6 Y112.6 E0.12639
G1 X110.6 Y112.6 E0.3326
G0 F900 X110.2 Y112.2
;TYPE:WALL-OUTER
G1 F1500 X110.2 Y103.2 E0.29934
G1 X119.8 Y103.2 E0.3193
G1 X119.8 Y116.8 E0.45234
G1 X100.2 Y116.8 E0.6519
G1 X100.2 Y112.2 E0.153
G1 X110.2 Y112.2 E0.3326
G0 F900 X110.2 Y112
G0 X110.64 Y112
G0 X110.7 Y112
G0 X111.39 Y113.39
;TYPE:SKIN
G1 F1500 X111.39 Y104.39 E0.29934
G1 X118.61 Y104.39 E0.24014
G1 X118.61 Y115.61 E0.37318
G1 X101.39 Y115.61 E0.57274
G1 X101.39 Y113.39 E0.07384
G1 X111.39 Y113.39 E0.3326
G0 F900 X118.429 Y115.199
G1 F1500 X118.198 Y115.429 E0.01084
G0 F900 X117.632 Y115.429
G1 F1500 X118.429 Y114.633 E0.03746
G0 F900 X118.429 Y114.067
G1 F1500 X117.067 Y115.429 E0.06406
G0 F900 X116.501 Y115.429
G1 F1500 X118.429 Y113.501 E0.09069
G0 F900 X118.429 Y112.936
G1 F1500 X115.935 Y115.429 E0.11729
G0 F900 X115.37 Y115.429
G1 F1500 X118.429 Y112.37 E0.14389
G0 F900 X118.429 Y111.804
G1 F1500 X114.804 Y115.429 E0.17051
G0 F900 X114.238 Y115.429
G1 F1500 X118.429 Y111.239 E0.19711
G0 F900 X118.429 Y110.673
G1 F1500 X113.673 Y115.429 E0.22371
G0 F900 X113.107 Y115.429
G1 F1500 X118.429 Y110.107 E0.25033
G0 F900 X118.429 Y109.542
G1 F1500 X112.541 Y115.429 E0.27693
G0 F900 X111.976 Y115.429
G1 F1500 X118.429 Y108.976 E0.30353
G0 F900 X118.429 Y108.41
G1 F1500 X111.41 Y115.429 E0.33015
G0 F900 X110.844 Y115.429
G1 F1500 X118.429 Y107.845 E0.35675
G0 F900 X118.429 Y107.279
G1 F1500 X110.278 Y115.429 E0.38337
G0 F900 X109.713 Y115.429
G1 F1500 X118.429 Y106.713 E0.40997
G0 F900 X118.429 Y106.148
G1 F1500 X111.57 Y113.006 E0.3226
G0 F900 X111.57 Y112.441
G1 F1500 X118.429 Y105.582 E0.32263
G0 F900 X118.429 Y105.016
G1 F1500 X111.57 Y111.875 E0.32263
G0 F900 X111.57 Y111.309
G1 F1500 X118.31 Y104.569 E0.31703
G0 F900 X117.744 Y104.569
G1 F1500 X111.57 Y110.744 E0.29043
G0 F900 X111.57 Y110.178
G1 F1500 X117.178 Y104.569 E0.26381
G0 F900 X116.613 Y104.569
G1 F1500 X111.57 Y109.612 E0.23721
G0 F900 X111.57 Y109.047
G1 F1500 X116.047 Y104.569 E0.21061
G0 F900 X115.481 Y104.569
G1 F1500 X111.57 Y108.481 E0.18398
G0 F900 X111.57 Y107.915
G1 F1500 X114.916 Y104.569 E0.15739
G0 F900 X114.35 Y104.569
G1 F1500 X111.57 Y107.35 E0.13079
G0 F900 X111.57 Y106.784
G1 F1500 X113.784 Y104.569 E0.10416
G0 F900 X113.219 Y104.569
G1 F1500 X111.57 Y106.218 E0.07756
G0 F900 X111.57 Y105.653
G1 F1500 X112.653 Y104.569 E0.05096
G0 F900 X112.087 Y104.569
G1 F1500 X111.57 Y105.087 E0.02434
G0 F900 X111.007 Y113.569
G1 F1500 X109.147 Y115.429 E0.08749
G0 F900 X108.581 Y115.429
G1 F1500 X110.442 Y113.569 E0.08751
G0 F900 X109.876 Y113.569
G1 F1500 X108.016 Y115.429 E0.08749
G0 F900 X107.45 Y115.429
G1 F1500 X109.31 Y113.569 E0.08749
G0 F900 X108.745 Y113.569
G1 F1500 X106.884 Y115.429 E0.08751
G0 F900 X106.319 Y115.429
G1 F1500 X108.179 Y113.569 E0.08749
G0 F900 X107.613 Y113.569
G1 F1500 X105.753 Y115.429 E0.08749
G0 F900 X105.187 Y115.429
G1 F1500 X107.048 Y113.569 E0.08751
G0 F900 X106.482 Y113.569
G1 F1500 X104.622 Y115.429 E0.08749
G0 F900 X104.056 Y115.429
G1 F1500 X105.916 Y113.569 E0.08749
G0 F900 X105.351 Y113.569
G1 F1500 X103.49 Y115.429 E0.08751
G0 F900 X102.925 Y115.429
G1 F1500 X104.785 Y113.569 E0.08749
G0 F900 X104.219 Y113.569
G1 F1500 X102.359 Y115.429 E0.08749
G0 F900 X101.793 Y115.429
G1 F1500 X103.654 Y113.569 E0.08751
G0 F900 X103.088 Y113.569
G1 F1500 X101.57 Y115.087 E0.0714
G0 F900 X101.57 Y114.521
G1 F1500 X102.522 Y113.569 E0.04478
G0 F900 X101.957 Y113.569
G1 F1500 X101.57 Y113.955 E0.01818
;MESH:NONMESH
G0 F900 X111 Y113
;TIME_ELAPSED:66.129639
;LAYER:2
;MESH:1_Z_Endstop.stl
G0 F1200 X111 Y113 Z0.7
;TYPE:WALL-INNER
G1 F3000 X111 Y104 E0.29934
G1 X119 Y104 E0.26608
G1 X119 Y116 E0.39912
G1 X101 Y116 E0.59868
G1 X101 Y113 E0.09978
G1 X111 Y113 E0.3326
G0 F1200 X110.6 Y112.6
G1 F3000 X110.6 Y103.6 E0.29934
G1 X119.4 Y103.6 E0.29269
G1 X119.4 Y116.4 E0.42573
G1 X100.6 Y116.4 E0.62529
G1 X100.6 Y112.6 E0.12639
G1 X110.6 Y112.6 E0.3326
G0 F1200 X110.2 Y112.2
;TYPE:WALL-OUTER
G1 F1500 X110.2 Y103.2 E0.29934
G1 X119.8 Y103.2 E0.3193
G1 X119.8 Y116.8 E0.45234
G1 X100.2 Y116.8 E0.6519
G1 X100.2 Y112.2 E0.153
G1 X110.2 Y112.2 E0.3326
G0 F1200 X110.2 Y112
G0 X110.64 Y112
G0 X110.7 Y112
G0 X111.39 Y113.39
;TYPE:SKIN
G1 F1500 X111.39 Y104.39 E0.29934
G1 X118.61 Y104.39 E0.24014
G1 X118.61 Y115.61 E0.37318
G1 X101.39 Y115.61 E0.57274
G1 X101.39 Y113.39 E0.07384
G1 X111.39 Y113.39 E0.3326
G0 F1200 X101.853 Y115.429
G1 F1500 X101.569 Y115.145 E0.01336
G0 F1200 X101.569 Y114.58
G1 F1500 X102.418 Y115.429 E0.03993
G0 F1200 X102.984 Y115.429
G1 F1500 X101.569 Y114.014 E0.06656
G0 F1200 X101.69 Y113.569
G1 F1500 X103.55 Y115.429 E0.08749
G0 F1200 X104.115 Y115.429
G1 F1500 X102.256 Y113.569 E0.08747
G0 F1200 X102.821 Y113.569
G1 F1500 X104.681 Y115.429 E0.08749
G0 F1200 X105.247 Y115.429
G1 F1500 X103.387 Y113.569 E0.08749
G0 F1200 X103.953 Y113.569
G1 F1500 X105.812 Y115.429 E0.08747
G0 F1200 X106.378 Y115.429
G1 F1500 X104.518 Y113.569 E0.08749
G0 F1200 X105.084 Y113.569
G1 F1500 X106.944 Y115.429 E0.08749
G0 F1200 X107.509 Y115.429
G1 F1500 X105.65 Y113.569 E0.08747
G0 F1200 X106.215 Y113.569
G1 F1500 X108.075 Y115.429 E0.08749
G0 F1200 X108.641 Y115.429
G1 F1500 X106.781 Y113.569 E0.08749
G0 F1200 X107.347 Y113.569
G1 F1500 X109.206 Y115.429 E0.08747
G0 F1200 X109.772 Y115.429
G1 F1500 X107.912 Y113.569 E0.08749
G0 F1200 X108.478 Y113.569
G1 F1500 X110.338 Y115.429 E0.08749
G0 F1200 X110.904 Y115.429
G1 F1500 X109.044 Y113.569 E0.08749
G0 F1200 X109.61 Y113.569
G1 F1500 X111.469 Y115.429 E0.08747
G0 F1200 X112.035 Y115.429
G1 F1500 X110.175 Y113.569 E0.08749
G0 F1200 X110.741 Y113.569
G1 F1500 X112.601 Y115.429 E0.08749
G0 F1200 X113.166 Y115.429
G1 F1500 X111.307 Y113.569 E0.08747
G0 F1200 X111.569 Y113.266
G1 F1500 X113.732 Y115.429 E0.10174
G0 F1200 X114.298 Y115.429
G1 F1500 X111.569 Y112.7 E0.12836
G0 F1200 X111.569 Y112.135
G1 F1500 X114.863 Y115.429 E0.15494
G0 F1200 X115.429 Y115.429
G1 F1500 X111.569 Y111.569 E0.18156
G0 F1200 X111.569 Y111.003
G1 F1500 X115.995 Y115.429 E0.20819
G0 F1200 X116.56 Y115.429
G1 F1500 X111.569 Y110.438 E0.23476
G0 F1200 X111.569 Y109.872
G1 F1500 X117.126 Y115.429 E0.26138
G0 F1200 X117.692 Y115.429
G1 F1500 X111.569 Y109.306 E0.28801
G0 F1200 X111.569 Y108.741
G1 F1500 X118.257 Y115.429 E0.31458
G0 F1200 X118.429 Y115.034
G1 F1500 X111.569 Y108.175 E0.32265
G0 F1200 X111.569 Y107.609
G1 F1500 X118.429 Y114.469 E0.32267
G0 F1200 X118.429 Y113.903
G1 F1500 X111.569 Y107.043 E0.32267
G0 F1200 X111.569 Y106.478
G1 F1500 X118.429 Y113.337 E0.32265
G0 F1200 X118.429 Y112.772
G1 F1500 X111.569 Y105.912 E0.32267
G0 F1200 X111.569 Y105.346
G1 F1500 X118.429 Y112.206 E0.32267
G0 F1200 X118.429 Y111.64
G1 F1500 X111.569 Y104.781 E0.32265
G0 F1200 X111.924 Y104.57
G1 F1500 X118.429 Y111.075 E0.30598
G0 F1200 X118.429 Y110.509
G1 F1500 X112.49 Y104.57 E0.27935
G0 F1200 X113.055 Y104.57
G1 F1500 X118.429 Y109.943 E0.25275
G0 F1200 X118.429 Y109.378
G1 F1500 X113.621 Y104.57 E0.22615
G0 F1200 X114.187 Y104.57
G1 F1500 X118.429 Y108.812 E0.19953
G0 F1200 X118.429 Y108.246
G1 F1500 X114.752 Y104.57 E0.17293
G0 F1200 X115.318 Y104.57
G1 F1500 X118.429 Y107.681 E0.14633
G0 F1200 X118.429 Y107.115
G1 F1500 X115.884 Y104.57 E0.11971
G0 F1200 X116.449 Y104.57
G1 F1500 X118.429 Y106.549 E0.09311
G0 F1200 X118.429 Y105.983
G1 F1500 X117.015 Y104.57 E0.06649
G0 F1200 X117.581 Y104.57
G1 F1500 X118.429 Y105.418 E0.03989
G0 F1200 X118.429 Y104.852
G1 F1500 X118.146 Y104.57 E0.01329
;MESH:NONMESH
G0 F1200 X111 Y113
;TIME_ELAPSED:85.623943
;LAYER:3
;MESH:1_Z_Endstop.stl
G0 X111 Y113 Z0.9
;TYPE:WALL-INNER
G1 F3000 X111 Y104 E0.29934
G1 X119 Y104 E0.26608
G1 X119 Y116 E0.39912
G1 X101 Y116 E0.59868
G1 X101 Y113 E0.09978
G1 X111 Y113 E0.3326
G0 F1200 X110.6 Y112.6
G1 F3000 X110.6 Y103.6 E0.29934
G1 X119.4 Y103.6 E0.29269
G1 X119.4 Y116.4 E0.42573
G1 X100.6 Y116.4 E0.62529
G1 X100.6 Y112.6 E0.12639
G1 X110.6 Y112.6 E0.3326
G0 F1200 X110.2 Y112.2
;TYPE:WALL-OUTER
G1 F1500 X110.2 Y103.2 E0.29934
G1 X119.8 Y103.2 E0.3193
G1 X119.8 Y116.8 E0.45234
G1 X100.2 Y116.8 E0.6519
G1 X100.2 Y112.2 E0.153
G1 X110.2 Y112.2 E0.3326
G0 F1200 X110.2 Y112
G0 X110.64 Y112
G0 X110.7 Y112
G0 X111.39 Y113.39
;TYPE:SKIN
G1 F1500 X111.39 Y104.39 E0.29934
G1 X118.61 Y104.39 E0.24014
G1 X118.61 Y115.61 E0.37318
G1 X101.39 Y115.61 E0.57274
G1 X101.39 Y113.39 E0.07384
G1 X111.39 Y113.39 E0.3326
G0 F1200 X118.429 Y115.199
G1 F1500 X118.198 Y115.429 E0.01084
G0 F1200 X117.632 Y115.429
G1 F1500 X118.429 Y114.633 E0.03746
G0 F1200 X118.429 Y114.067
G1 F1500 X117.067 Y115.429 E0.06406
G0 F1200 X116.501 Y115.429
G1 F1500 X118.429 Y113.501 E0.09069
G0 F1200 X118.429 Y112.936
G1 F1500 X115.935 Y115.429 E0.11729
G0 F1200 X115.37 Y115.429
G1 F1500 X118.429 Y112.37 E0.14389
G0 F1200 X118.429 Y111.804
G1 F1500 X114.804 Y115.429 E0.17051
G0 F1200 X114.238 Y115.429
G1 F1500 X118.429 Y111.239 E0.19711
G0 F1200 X118.429 Y110.673
G1 F1500 X113.673 Y115.429 E0.22371
G0 F1200 X113.107 Y115.429
G1 F1500 X118.429 Y110.107 E0.25033
G0 F1200 X118.429 Y109.542
G1 F1500 X112.541 Y115.429 E0.27693
G0 F1200 X111.976 Y115.429
G1 F1500 X118.429 Y108.976 E0.30353
G0 F1200 X118.429 Y108.41
G1 F1500 X111.41 Y115.429 E0.33015
G0 F1200 X110.844 Y115.429
G1 F1500 X118.429 Y107.845 E0.35675
G0 F1200 X118.429 Y107.279
G1 F1500 X110.278 Y115.429 E0.38337
G0 F1200 X109.713 Y115.429
G1 F1500 X118.429 Y106.713 E0.40997
G0 F1200 X118.429 Y106.148
G1 F1500 X111.57 Y113.006 E0.3226
G0 F1200 X111.57 Y112.441
G1 F1500 X118.429 Y105.582 E0.32263
G0 F1200 X118.429 Y105.016
G1 F1500 X111.57 Y111.875 E0.32263
G0 F1200 X111.57 Y111.309
G1 F1500 X118.31 Y104.569 E0.31703
G0 F1200 X117.744 Y104.569
G1 F1500 X111.57 Y110.744 E0.29043
G0 F1200 X111.57 Y110.178
G1 F1500 X117.178 Y104.569 E0.26381
G0 F1200 X116.613 Y104.569
G1 F1500 X111.57 Y109.612 E0.23721
G0 F1200 X111.57 Y109.047
G1 F1500 X116.047 Y104.569 E0.21061
G0 F1200 X115.481 Y104.569
G1 F1500 X111.57 Y108.481 E0.18398
G0 F1200 X111.57 Y107.915
G1 F1500 X114.916 Y104.569 E0.15739
G0 F1200 X114.35 Y104.569
G1 F1500 X111.57 Y107.35 E0.13079
G0 F1200 X111.57 Y106.784
G1 F1500 X113.784 Y104.569 E0.10416
G0 F1200 X113.219 Y104.569
G1 F1500 X111.57 Y106.218 E0.07756
G0 F1200 X111.57 Y105.653
G1 F1500 X112.653 Y104.569 E0.05096
G0 F1200 X112.087 Y104.569
G1 F1500 X111.57 Y105.087 E0.02434
G0 F1200 X111.007 Y113.569
G1 F1500 X109.147 Y115.429 E0.08749
G0 F1200 X108.581 Y115.429
G1 F1500 X110.442 Y113.569 E0.08751
G0 F1200 X109.876 Y113.569
G1 F1500 X108.016 Y115.429 E0.08749
G0 F1200 X107.45 Y115.429
G1 F1500 X109.31 Y113.569 E0.08749
G0 F1200 X108.745 Y113.569
