;FLAVOR:RepRap
;TIME:8180
;Filament used: 7.08684m
;Layer height: 0.2
;Generated with Cura_SteamEngine 3.6.0
T0
M190 S60
M104 S200
M109 S200
M82 ;absolute extrusion mode
G21 ;metric values
G90 ;absolute positioning
M82 ;set extruder to absolute mode
M107 ;start with the fan off
G28 X0 Y0 ;move X/Y to min endstops
G28 Z0 ;move Z to min endstops
G1 Z15.0 F9000 ;move the platform down 15mm
G92 E0 ;zero the extruded length
G1 F200 E3 ;extrude 3mm of feed stock
G92 E0 ;zero the extruded length again
G1 F9000;Put printing message on LCD screen
M117 Printing..0
M83 ;relative extrusion mode
G1 F1500 E-6.5
;LAYER_COUNT:150
;LAYER:0
M107
;MESH:1_Z_Rod_Holder_Right.stl
G0 F600 X98.776 Y83.652 Z0.3
;TYPE:WALL-INNER
G1 F1500 E6.5
G1 X98.528 Y83.612 E0.01253
G1 X98.283 Y83.611 E0.01222
G1 X98.039 Y83.65 E0.01233
G1 X97.815 Y83.724 E0.01177
G1 X97.598 Y83.839 E0.01225
G1 X97.393 Y83.993 E0.01279
G1 X97.219 Y84.181 E0.01278
G1 X97.081 Y84.389 E0.01245
G1 X96.979 Y84.625 E0.01283
G1 X96.919 Y84.863 E0.01225
G1 X96.902 Y85.066 E0.01016
G1 X96.903 Y113.331 E1.41015
G1 X96.927 Y113.55 E0.01099
G1 X96.995 Y113.792 E0.01254
G1 X97.103 Y114.023 E0.01272
G1 X97.255 Y114.238 E0.01314
G1 X97.437 Y114.418 E0.01277
G1 X97.628 Y114.551 E0.01161
G1 X97.832 Y114.658 E0.01149
G1 X98.083 Y114.736 E0.01311
G1 X98.334 Y114.767 E0.01262
G1 X98.582 Y114.759 E0.01238
G1 X98.84 Y114.705 E0.01315
G1 X99.075 Y114.608 E0.01268
G1 X99.286 Y114.482 E0.01226
G1 X99.442 Y114.348 E0.01026
G1 X113.588 Y99.873 E1.00975
G1 X113.728 Y99.695 E0.0113
G1 X113.852 Y99.469 E0.01286
G1 X113.937 Y99.218 E0.01322
G1 X113.975 Y98.961 E0.01296
G1 X113.971 Y98.701 E0.01297
G1 X113.919 Y98.441 E0.01323
G1 X113.825 Y98.201 E0.01286
G1 X113.692 Y97.98 E0.01287
G1 X113.556 Y97.821 E0.01044
G1 X99.41 Y83.996 E0.98682
G1 X99.238 Y83.859 E0.01097
G1 X99.017 Y83.738 E0.01257
G1 X98.776 Y83.652 E0.01277
G0 F600 X98.676 Y84.041
G1 F1500 X98.495 Y84.012 E0.00915
G1 X98.314 Y84.011 E0.00903
G1 X98.134 Y84.04 E0.0091
G1 X97.973 Y84.093 E0.00846
G1 X97.813 Y84.178 E0.00904
G1 X97.662 Y84.291 E0.00941
G1 X97.535 Y84.429 E0.00936
G1 X97.434 Y84.581 E0.0091
G1 X97.359 Y84.754 E0.00941
G1 X97.315 Y84.929 E0.009
G1 X97.302 Y85.083 E0.00771
G1 X97.303 Y113.309 E1.4082
G1 X97.321 Y113.474 E0.00828
G1 X97.371 Y113.652 E0.00922
G1 X97.45 Y113.821 E0.00931
G1 X97.561 Y113.978 E0.00959
G1 X97.694 Y114.109 E0.00931
G1 X97.837 Y114.209 E0.00871
G1 X97.985 Y114.287 E0.00835
G1 X98.167 Y114.343 E0.0095
G1 X98.352 Y114.366 E0.0093
G1 X98.534 Y114.36 E0.00908
G1 X98.722 Y114.321 E0.00958
G1 X98.895 Y114.25 E0.00933
G1 X99.051 Y114.156 E0.00909
G1 X99.168 Y114.056 E0.00768
G1 X113.287 Y99.609 E1.00781
G1 X113.393 Y99.474 E0.00856
G1 X113.485 Y99.307 E0.00951
G1 X113.547 Y99.124 E0.00964
G1 X113.575 Y98.935 E0.00953
G1 X113.572 Y98.744 E0.00953
G1 X113.534 Y98.554 E0.00967
G1 X113.465 Y98.378 E0.00943
G1 X113.367 Y98.215 E0.00949
G1 X113.264 Y98.095 E0.00789
G1 X99.145 Y84.296 E0.98495
G1 X99.016 Y84.193 E0.00824
G1 X98.853 Y84.104 E0.00927
G1 X98.676 Y84.041 E0.00937
G0 F600 X98.577 Y84.43
;TYPE:WALL-OUTER
G1 F1500 X98.462 Y84.412 E0.00581
G1 X98.345 Y84.411 E0.00584
G1 X98.23 Y84.43 E0.00582
G1 X98.13 Y84.463 E0.00525
G1 X98.027 Y84.517 E0.0058
G1 X97.931 Y84.589 E0.00599
G1 X97.851 Y84.676 E0.0059
G1 X97.787 Y84.773 E0.0058
G1 X97.739 Y84.883 E0.00599
G1 X97.711 Y84.995 E0.00576
G1 X97.702 Y85.1 E0.00526
G1 X97.703 Y113.287 E1.40626
G1 X97.715 Y113.398 E0.00557
G1 X97.747 Y113.512 E0.00591
G1 X97.797 Y113.619 E0.00589
G1 X97.867 Y113.718 E0.00605
G1 X97.951 Y113.801 E0.00589
G1 X98.045 Y113.867 E0.00573
G1 X98.137 Y113.915 E0.00518
G1 X98.251 Y113.95 E0.00595
G1 X98.37 Y113.965 E0.00598
G1 X98.487 Y113.961 E0.00584
G1 X98.605 Y113.937 E0.00601
G1 X98.715 Y113.892 E0.00593
G1 X98.816 Y113.831 E0.00589
G1 X98.894 Y113.764 E0.00513
G1 X112.986 Y99.344 E1.0059
G1 X113.059 Y99.252 E0.00586
G1 X113.118 Y99.145 E0.0061
G1 X113.157 Y99.03 E0.00606
G1 X113.175 Y98.909 E0.0061
G1 X113.173 Y98.787 E0.00609
G1 X113.149 Y98.667 E0.00611
G1 X113.105 Y98.555 E0.006
G1 X113.042 Y98.45 E0.00611
G1 X112.972 Y98.369 E0.00534
G1 X98.879 Y84.596 E0.98311
G1 X98.793 Y84.527 E0.0055
G1 X98.689 Y84.47 E0.00592
G1 X98.577 Y84.43 E0.00593
G0 F600 X98.462 Y84.412
G0 X98.378 Y84.412
G0 X98.381 Y83.972
G0 X98.381 Y83.912
G0 X99.041 Y84.162
G0 X113.401 Y98.194
G0 X115.903 Y101.824
;TYPE:WALL-INNER
G1 F1500 X115.73 Y101.973 E0.01139
G1 X101.487 Y116.549 E1.01674
G1 X101.351 Y116.707 E0.0104
G1 X101.23 Y116.924 E0.0124
G1 X101.137 Y117.16 E0.01266
G1 X101.099 Y117.382 E0.01124
G1 X101.094 Y117.406 E0.00122
G1 X101.083 Y117.65 E0.01219
G1 X101.12 Y117.91 E0.0131
G1 X101.199 Y118.154 E0.0128
G1 X101.316 Y118.376 E0.01252
G1 X101.469 Y118.578 E0.01264
G1 X101.654 Y118.75 E0.0126
G1 X101.865 Y118.891 E0.01266
G1 X102.101 Y118.993 E0.01283
G1 X102.339 Y119.053 E0.01225
G1 X102.542 Y119.07 E0.01016
G1 X131.663 Y119.07 E1.45285
G1 X131.864 Y119.054 E0.01006
G1 X132.109 Y118.991 E0.01262
G1 X132.34 Y118.889 E0.0126
G1 X132.558 Y118.746 E0.01301
G1 X132.741 Y118.569 E0.0127
G1 X132.896 Y118.367 E0.0127
G1 X132.997 Y118.162 E0.0114
G1 X133.012 Y118.133 E0.00163
G1 X133.087 Y117.891 E0.01264
G1 X133.12 Y117.639 E0.01268
G1 X133.112 Y117.391 E0.01238
G1 X133.06 Y117.135 E0.01303
G1 X132.963 Y116.896 E0.01287
G1 X132.837 Y116.689 E0.01209
G1 X132.705 Y116.533 E0.0102
G1 X117.783 Y101.952 E1.04087
G1 X117.627 Y101.824 E0.01007
G1 X117.404 Y101.694 E0.01288
G1 X117.154 Y101.604 E0.01326
G1 X117.119 Y101.599 E0.00176
G1 X116.935 Y101.568 E0.00931
G1 X116.904 Y101.562 E0.00158
G1 X116.648 Y101.556 E0.01278
G1 X116.379 Y101.603 E0.01362
G1 X116.135 Y101.693 E0.01297
G1 X115.903 Y101.824 E0.01329
G0 F600 X116.134 Y102.153
G1 F1500 X116.004 Y102.265 E0.00856
G1 X101.782 Y116.819 E1.01522
G1 X101.681 Y116.937 E0.00775
G1 X101.592 Y117.096 E0.00909
G1 X101.524 Y117.269 E0.00927
G1 X101.492 Y117.45 E0.00917
G1 X101.484 Y117.63 E0.00899
G1 X101.511 Y117.819 E0.00952
G1 X101.569 Y117.998 E0.00939
G1 X101.655 Y118.161 E0.00919
G1 X101.767 Y118.309 E0.00926
G1 X101.903 Y118.435 E0.00925
G1 X102.057 Y118.538 E0.00924
G1 X102.23 Y118.613 E0.00941
G1 X102.405 Y118.657 E0.009
G1 X102.559 Y118.67 E0.00771
G1 X131.647 Y118.67 E1.45121
G1 X131.798 Y118.658 E0.00756
G1 X131.978 Y118.612 E0.00927
G1 X132.148 Y118.537 E0.00927
G1 X132.307 Y118.432 E0.00951
G1 X132.442 Y118.302 E0.00935
G1 X132.555 Y118.154 E0.00929
G1 X132.64 Y117.984 E0.00948
G1 X132.695 Y117.806 E0.00929
G1 X132.719 Y117.62 E0.00936
G1 X132.713 Y117.438 E0.00908
G1 X132.675 Y117.251 E0.00952
G1 X132.604 Y117.076 E0.00942
G1 X132.511 Y116.923 E0.00893
G1 X132.412 Y116.806 E0.00765
G1 X117.515 Y102.25 E1.0391
G1 X117.398 Y102.153 E0.00758
G1 X117.234 Y102.058 E0.00946
G1 X117.052 Y101.992 E0.00966
G1 X116.867 Y101.961 E0.00936
G1 X116.678 Y101.957 E0.00943
G1 X116.483 Y101.991 E0.00988
G1 X116.304 Y102.057 E0.00952
G1 X116.134 Y102.153 E0.00974
G0 F600 X116.365 Y102.482
;TYPE:WALL-OUTER
G1 F1500 X116.278 Y102.557 E0.00573
G1 X102.078 Y117.088 E1.01363
G1 X102.011 Y117.167 E0.00517
G1 X101.954 Y117.268 E0.00579
G1 X101.911 Y117.378 E0.00589
G1 X101.89 Y117.494 E0.00588
G1 X101.885 Y117.61 E0.00579
G1 X101.902 Y117.728 E0.00595
G1 X101.939 Y117.842 E0.00598
G1 X101.994 Y117.946 E0.00587
G1 X102.065 Y118.04 E0.00588
G1 X102.151 Y118.12 E0.00586
G1 X102.249 Y118.185 E0.00587
G1 X102.359 Y118.233 E0.00599
G1 X102.471 Y118.261 E0.00576
G1 X102.576 Y118.27 E0.00526
G1 X131.631 Y118.27 E1.44956
G1 X131.733 Y118.262 E0.0051
G1 X131.847 Y118.233 E0.00587
G1 X131.956 Y118.185 E0.00594
G1 X132.056 Y118.119 E0.00598
G1 X132.142 Y118.036 E0.00596
G1 X132.214 Y117.941 E0.00595
G1 X132.268 Y117.834 E0.00598
G1 X132.303 Y117.721 E0.0059
G1 X132.318 Y117.602 E0.00598
G1 X132.314 Y117.485 E0.00584
G1 X132.29 Y117.367 E0.00601
G1 X132.245 Y117.256 E0.00598
G1 X132.185 Y117.157 E0.00578
G1 X132.119 Y117.079 E0.0051
G1 X117.248 Y102.548 E1.0373
G1 X117.169 Y102.483 E0.0051
G1 X117.064 Y102.422 E0.00606
G1 X116.949 Y102.38 E0.00611
G1 X116.83 Y102.36 E0.00602
G1 X116.709 Y102.358 E0.00604
G1 X116.587 Y102.379 E0.00618
G1 X116.473 Y102.421 E0.00606
G1 X116.365 Y102.482 E0.00619
G0 F600 X116.278 Y102.557
G0 X116.218 Y102.618
G0 X115.905 Y102.31
G0 X115.863 Y102.267
G0 X101.651 Y116.913
G0 X99 Y122.07
;TYPE:WALL-INNER
G1 F1500 X99 Y142.07 E0.9978
G1 X81 Y142.07 E0.89802
G1 X81 Y118.08 E1.19687
G1 X81.702 Y104.318 E0.68748
G1 X81.702 Y77.93 E1.3165
G1 X85.223 Y77.93 E0.17566
G1 X85.422 Y77.93 E0.00993
G1 X85.422 Y78.129 E0.00642
G1 X85.418 Y84.424 E0.31406
G1 X85.35 Y84.458 E0.00379
G1 X85.003 Y84.665 E0.02016
G1 X84.677 Y84.9 E0.02005
G1 X84.37 Y85.157 E0.01997
G1 X84.084 Y85.439 E0.02004
G1 X83.822 Y85.74 E0.01991
G1 X83.582 Y86.065 E0.02016
G1 X83.37 Y86.406 E0.02003
G1 X83.186 Y86.76 E0.0199
G1 X83.028 Y87.131 E0.02012
G1 X82.904 Y87.512 E0.01999
G1 X82.806 Y87.898 E0.01987
G1 X82.74 Y88.298 E0.02023
G1 X82.706 Y88.699 E0.02008
G1 X82.704 Y89.102 E0.02011
G1 X82.733 Y89.499 E0.01986
G1 X82.793 Y89.898 E0.02013
G1 X82.885 Y90.289 E0.02004
G1 X83.008 Y90.671 E0.02002
G1 X83.158 Y91.041 E0.01992
G1 X83.34 Y91.402 E0.02017
G1 X83.548 Y91.745 E0.02001
G1 X83.782 Y92.07 E0.01998
G1 X84.042 Y92.376 E0.02003
G1 X84.325 Y92.663 E0.02011
G1 X84.63 Y92.923 E0.02
G1 X84.952 Y93.161 E0.01998
G1 X85.294 Y93.372 E0.02005
G1 X85.652 Y93.556 E0.02008
G1 X86.021 Y93.71 E0.01995
G1 X86.402 Y93.835 E0.02001
G1 X86.791 Y93.929 E0.01997
G1 X87.19 Y93.996 E0.02018
G1 X87.592 Y94.026 E0.02011
G1 X87.989 Y94.027 E0.01981
G1 X88.393 Y93.998 E0.02021
G1 X88.789 Y93.934 E0.02001
G1 X89.177 Y93.843 E0.01988
G1 X89.561 Y93.719 E0.02013
G1 X89.933 Y93.565 E0.02009
G1 X90.291 Y93.383 E0.02004
G1 X90.632 Y93.173 E0.01998
G1 X90.959 Y92.938 E0.02009
G1 X91.263 Y92.677 E0.01999
G1 X91.547 Y92.393 E0.02004
G1 X91.806 Y92.089 E0.01992
G1 X92.044 Y91.762 E0.02018
G1 X92.252 Y91.421 E0.01993
G1 X92.436 Y91.063 E0.02008
G1 X92.589 Y90.691 E0.02007
G1 X92.712 Y90.309 E0.02002
G1 X92.806 Y89.92 E0.01997
G1 X92.869 Y89.524 E0.02
G1 X92.899 Y89.135 E0.01946
G1 X92.899 Y88.734 E0.02001
G1 X92.869 Y88.332 E0.02011
G1 X92.804 Y87.936 E0.02002
G1 X92.711 Y87.548 E0.01991
G1 X92.588 Y87.165 E0.02007
G1 X92.435 Y86.792 E0.02011
G1 X92.251 Y86.434 E0.02008
G1 X92.04 Y86.093 E0.02001
G1 X91.804 Y85.769 E0.02
G1 X91.544 Y85.464 E0.02
G1 X91.26 Y85.181 E0.02
G1 X90.955 Y84.92 E0.02003
G1 X90.629 Y84.684 E0.02008
G1 X90.287 Y84.474 E0.02002
G1 X90.214 Y84.437 E0.00408
G1 X90.214 Y77.93 E0.32464
G1 X97.494 Y77.93 E0.3632
G1 X139 Y118.492 E2.89536
G1 X139 Y122.07 E0.17851
G1 X99 Y122.07 E1.99561
G0 F600 X99.4 Y122.47
G1 F1500 X99.4 Y142.47 E0.9978
G1 X80.6 Y142.47 E0.93794
G1 X80.6 Y118.08 E1.21682
G1 X81.302 Y104.308 E0.68798
G1 X81.302 Y77.53 E1.33596
G1 X85.623 Y77.53 E0.21558
G1 X85.822 Y77.53 E0.00993
G1 X85.822 Y77.729 E0.00642
G1 X85.818 Y84.672 E0.34639
G1 X85.542 Y84.809 E0.01537
G1 X85.223 Y85 E0.01855
G1 X84.922 Y85.216 E0.01848
G1 X84.639 Y85.453 E0.01842
G1 X84.376 Y85.713 E0.01845
G1 X84.134 Y85.991 E0.01839
G1 X83.913 Y86.29 E0.01855
G1 X83.718 Y86.604 E0.01844
G1 X83.548 Y86.931 E0.01839
G1 X83.403 Y87.272 E0.01849
G1 X83.288 Y87.623 E0.01843
G1 X83.198 Y87.98 E0.01837
G1 X83.137 Y88.348 E0.01861
G1 X83.106 Y88.717 E0.01847
G1 X83.104 Y89.088 E0.01851
G1 X83.131 Y89.455 E0.01836
G1 X83.186 Y89.822 E0.01851
G1 X83.271 Y90.182 E0.01845
G1 X83.384 Y90.534 E0.01844
G1 X83.523 Y90.876 E0.01842
G1 X83.69 Y91.208 E0.01854
G1 X83.882 Y91.524 E0.01845
G1 X84.097 Y91.823 E0.01837
G1 X84.337 Y92.106 E0.01851
G1 X84.598 Y92.37 E0.01852
G1 X84.879 Y92.61 E0.01844
G1 X85.176 Y92.829 E0.01841
G1 X85.491 Y93.023 E0.01846
G1 X85.821 Y93.193 E0.01852
G1 X86.161 Y93.335 E0.01838
G1 X86.512 Y93.45 E0.01843
G1 X86.871 Y93.537 E0.01843
G1 X87.238 Y93.598 E0.01856
G1 X87.608 Y93.626 E0.01851
G1 X87.975 Y93.627 E0.01831
G1 X88.346 Y93.6 E0.01856
G1 X88.711 Y93.541 E0.01845
G1 X89.07 Y93.457 E0.01839
G1 X89.423 Y93.343 E0.01851
G1 X89.766 Y93.201 E0.01852
G1 X90.095 Y93.034 E0.01841
G1 X90.41 Y92.84 E0.01846
G1 X90.711 Y92.623 E0.01851
G1 X90.991 Y92.383 E0.0184
G1 X91.253 Y92.121 E0.01849
G1 X91.492 Y91.841 E0.01837
G1 X91.711 Y91.54 E0.01857
G1 X91.903 Y91.225 E0.0184
G1 X92.072 Y90.895 E0.0185
G1 X92.213 Y90.553 E0.01846
G1 X92.327 Y90.201 E0.01846
G1 X92.413 Y89.842 E0.01842
G1 X92.471 Y89.477 E0.01844
G1 X92.499 Y89.119 E0.01792
G1 X92.499 Y88.749 E0.01846
G1 X92.471 Y88.379 E0.01851
G1 X92.412 Y88.015 E0.0184
G1 X92.326 Y87.656 E0.01842
G1 X92.212 Y87.303 E0.01851
G1 X92.071 Y86.96 E0.0185
G1 X91.902 Y86.631 E0.01845
G1 X91.708 Y86.316 E0.01846
G1 X91.49 Y86.017 E0.01846
G1 X91.25 Y85.736 E0.01844
G1 X90.989 Y85.475 E0.01841
G1 X90.707 Y85.235 E0.01847
G1 X90.407 Y85.017 E0.0185
G1 X90.092 Y84.824 E0.01843
G1 X89.814 Y84.684 E0.01553
G1 X89.814 Y77.53 E0.35691
G1 X97.657 Y77.53 E0.39129
G1 X139.4 Y118.323 E2.91187
G1 X139.4 Y122.47 E0.20689
G1 X99.4 Y122.47 E1.99561
G0 F600 X99.8 Y122.87
;TYPE:WALL-OUTER
G1 F1500 X99.8 Y142.87 E0.9978
G1 X80.2 Y142.87 E0.97785
G1 X80.2 Y118.08 E1.23678
G1 X80.902 Y104.298 E0.68848
G1 X80.902 Y77.13 E1.35542
G1 X86.022 Y77.13 E0.25544
G1 X86.222 Y77.13 E0.00998
G1 X86.222 Y77.33 E0.00646
G1 X86.218 Y84.937 E0.37951
G1 X86.037 Y85.01 E0.00974
G1 X85.734 Y85.16 E0.01687
G1 X85.443 Y85.335 E0.01694
G1 X85.167 Y85.532 E0.01692
G1 X84.909 Y85.749 E0.01682
G1 X84.668 Y85.987 E0.0169
G1 X84.446 Y86.242 E0.01687
G1 X84.244 Y86.515 E0.01694
G1 X84.066 Y86.802 E0.01685
G1 X83.91 Y87.102 E0.01687
G1 X83.778 Y87.413 E0.01686
G1 X83.672 Y87.734 E0.01687
G1 X83.59 Y88.062 E0.01687
G1 X83.534 Y88.398 E0.01699
G1 X83.506 Y88.735 E0.01687
G1 X83.504 Y89.074 E0.01691
G1 X83.529 Y89.411 E0.01686
G1 X83.579 Y89.746 E0.0169
G1 X83.657 Y90.075 E0.01687
G1 X83.76 Y90.397 E0.01687
G1 X83.888 Y90.711 E0.01692
G1 X84.04 Y91.014 E0.01691
G1 X84.216 Y91.303 E0.01688
G1 X84.413 Y91.577 E0.01684
G1 X84.632 Y91.836 E0.01692
G1 X84.871 Y92.077 E0.01693
G1 X85.128 Y92.297 E0.01688
G1 X85.4 Y92.497 E0.01684
G1 X85.688 Y92.674 E0.01687
G1 X85.99 Y92.83 E0.01696
G1 X86.301 Y92.96 E0.01682
G1 X86.622 Y93.065 E0.01685
G1 X86.951 Y93.145 E0.01689
G1 X87.286 Y93.2 E0.01694
G1 X87.624 Y93.226 E0.01691
G1 X87.961 Y93.227 E0.01681
G1 X88.299 Y93.202 E0.01691
G1 X88.634 Y93.148 E0.01693
G1 X88.963 Y93.071 E0.01686
G1 X89.285 Y92.967 E0.01688
G1 X89.599 Y92.837 E0.01696
G1 X89.899 Y92.685 E0.01678
G1 X90.188 Y92.507 E0.01693
G1 X90.463 Y92.308 E0.01694
G1 X90.719 Y92.089 E0.01681
G1 X90.959 Y91.849 E0.01693
G1 X91.178 Y91.593 E0.01681
G1 X91.378 Y91.318 E0.01696
G1 X91.554 Y91.03 E0.01684
G1 X91.708 Y90.728 E0.01691
G1 X91.837 Y90.415 E0.01689
G1 X91.942 Y90.093 E0.0169
G1 X92.02 Y89.764 E0.01687
G1 X92.073 Y89.43 E0.01687
G1 X92.099 Y89.103 E0.01637
G1 X92.099 Y88.764 E0.01691
G1 X92.073 Y88.426 E0.01691
G1 X92.019 Y88.093 E0.01683
G1 X91.941 Y87.764 E0.01687
G1 X91.836 Y87.441 E0.01694
G1 X91.707 Y87.128 E0.01689
G1 X91.553 Y86.827 E0.01687
G1 X91.376 Y86.539 E0.01687
G1 X91.176 Y86.265 E0.01692
G1 X90.956 Y86.008 E0.01688
G1 X90.717 Y85.769 E0.01686
G1 X90.459 Y85.549 E0.01692
G1 X90.185 Y85.35 E0.01689
G1 X89.897 Y85.174 E0.01684
G1 X89.594 Y85.021 E0.01693
G1 X89.414 Y84.947 E0.00971
G1 X89.414 Y77.13 E0.38999
G1 X97.82 Y77.13 E0.41938
G1 X139.8 Y118.154 E2.92838
G1 X139.8 Y122.87 E0.23528
G1 X99.8 Y122.87 E1.99561
G0 F600 X99.8 Y123.07
G0 X99.36 Y123.07
G0 X99.3 Y123.07
G0 X98.61 Y121.68
;TYPE:SKIN
G1 F1500 X98.61 Y141.68 E0.9978
G1 X81.39 Y141.68 E0.85911
G1 X81.39 Y118.1 E1.17641
G1 X82.092 Y104.328 E0.68798
